(Project MiltonCampWebsitePlaqueOTP)
(Created by Estlcam version 11 build 11.029)
(Machining time about 00:01:44 hours)

(Required tools:)
(1/8" Flat)
G21
G90
G94
M03 S18000
G00 Z5.0000


(No. 1: Part 2)
G00 X-1.5356 Y68.2286
G00 Z0.5000
G01 Z-5.5880 F889 S18000
G01 X-1.5357 Y68.1428 F1524
G02 X-1.5801 Y65.4614 I-127.5836 J0.7715
G01 X-1.5865 Y64.9984
G01 X-1.5875 Y64.5345
G03 X-1.0198 Y58.9600 I33.6153 J0.6068
G03 X0.6391 Y50.8734 I93.5971 J14.9881
G03 X3.2737 Y41.4779 I247.2796 J64.2733
G01 X4.3189 Y37.9449
G02 X5.1822 Y34.6600 I-28.8542 J-9.3391
G02 X5.9180 Y27.8345 I-56.3519 J-9.5267
G02 X6.1049 Y22.5776 I-135.8669 J-7.4643
G03 X7.9526 Y21.1822 I1.5823 J0.1742
G02 X9.4470 Y21.2626 I1.8020 J-19.5661
G02 X18.2274 Y20.5808 I0.1149 J-55.4007
G02 X31.4250 Y17.5787 I-15.7286 J-99.6558
G02 X49.9503 Y10.7143 I-45.2637 J-150.5848
G03 X65.1198 Y4.6518 I86.8932 J195.4105
G03 X80.3255 Y0.3803 I37.4479 J104.1067
G03 X88.3553 Y-0.8612 I17.8768 J89.0418
G01 X88.4185 Y-0.8678
G03 X101.5291 Y-1.5572 I13.8636 J138.6447
G01 X104.3026 Y-1.5796
G01 X107.1682 Y-1.5861
G01 X107.7670 Y-1.5863
G01 X112.5295 Y-1.5874
G01 X113.1282 Y-1.5875
G03 X124.1294 Y-1.4310 I1.4797 J282.6385
G03 X142.8394 Y0.9752 I-2.8298 J95.9492
G03 X158.7713 Y5.9076 I-30.0299 J125.1955
G03 X170.4927 Y10.7143 I-84.6692 J223.1658
G02 X189.0200 Y17.5794 I62.2749 J-139.6338
G02 X202.2198 Y20.5815 I28.2028 J-93.4825
G02 X210.0736 Y21.2678 I8.6921 J-54.1863
G02 X212.2082 Y21.2075 I0.3829 J-24.2605
G01 X212.4894 Y21.1823
G03 X214.3469 Y22.7559 I0.2666 J1.5685
G02 X215.0053 Y33.0766 I91.7405 J-0.6713
G02 X216.1143 Y37.8827 I25.9928 J-3.4663
G01 X216.3449 Y38.6461
G03 X219.4862 Y49.4551 I-237.1086 J74.7682
G03 X221.9843 Y66.3453 I-73.7604 J19.5394
G01 X221.9858 Y66.3917
G03 X222.0563 Y71.1072 I-389.1786 J8.1764
G03 X221.4895 Y76.9074 I-33.0936 J-0.3062
G03 X219.8220 Y85.0271 I-93.2332 J-14.9154
G03 X217.1955 Y94.3895 I-247.5630 J-64.4009
G01 X216.1502 Y97.9225
G02 X215.2868 Y101.2074 I28.8468 J9.3374
G02 X214.5511 Y108.0328 I56.3517 J9.5267
G02 X214.3641 Y113.2898 I135.8676 J7.4643
G03 X212.5165 Y114.6851 I-1.5823 J-0.1742
G02 X211.0221 Y114.6047 I-1.8020 J19.5661
G02 X202.2417 Y115.2865 I-0.1149 J55.4006
G02 X189.0441 Y118.2886 I15.7285 J99.6556
G02 X170.5156 Y125.1544 I45.2686 J150.5991
G01 X166.2389 Y126.9204
G01 X166.1569 Y126.9518
G01 X161.8760 Y128.5090
G01 X161.7981 Y128.5352
G01 X157.5055 Y129.9089
G01 X157.4317 Y129.9307
G01 X153.1534 Y131.1323
G01 X148.8456 Y132.1912
G01 X148.7792 Y132.2061
G03 X119.0920 Y136.1562 I-37.2987 J-166.7893
G01 X116.3511 Y136.2632
G01 X114.8650 Y136.2992
G01 X113.9143 Y136.3223
G01 X111.7690 Y136.3451
G01 X110.1029 Y136.3429
G01 X110.0587 Y136.3428
G02 X104.1940 Y136.2739 I-9.6246 J569.2613
G03 X71.0664 Y132.1086 I3.5388 J-161.9649
G03 X60.5969 Y129.1845 I30.1956 J-128.3189
G01 X60.5326 Y129.1633
G03 X49.9879 Y125.1579 I34.7507 J-107.3687
G02 X31.4491 Y118.2880 I-62.3004 J139.6720
G02 X18.2493 Y115.2859 I-28.2027 J93.4821
G02 X10.3954 Y114.5995 I-8.6920 J54.1860
G02 X8.2609 Y114.6598 I-0.3829 J24.2604
G01 X7.9797 Y114.6851
G03 X6.1280 Y113.2530 I-0.2663 J-1.5689
G01 X6.1222 Y113.1114
G02 X5.4643 Y102.7907 I-91.6974 J0.6636
G02 X4.3455 Y97.9225 I-27.4568 J3.7472
G01 X3.0074 Y93.3964
G03 X-0.0176 Y82.1067 I162.2140 J-49.5143
G03 X-1.2874 Y74.7249 I88.0071 J-18.9396
G03 X-1.4465 Y73.0252 I34.3526 J-4.0715
G01 X-1.4486 Y72.9893
G03 X-1.5323 Y70.4362 I42.0121 J-2.6549
G01 X-1.5345 Y69.9010
G01 X-1.5356 Y68.2286
G01 Z-11.1760 F889
G01 X-1.5357 Y68.1428 F1524
G02 X-1.5801 Y65.4614 I-127.5836 J0.7715
G01 X-1.5865 Y64.9984
G01 X-1.5875 Y64.5345
G03 X-1.0198 Y58.9600 I33.6153 J0.6068
G03 X0.6391 Y50.8734 I93.5971 J14.9881
G03 X3.2737 Y41.4779 I247.2796 J64.2733
G01 X4.3189 Y37.9449
G02 X5.1822 Y34.6600 I-28.8542 J-9.3391
G02 X5.9180 Y27.8345 I-56.3519 J-9.5267
G02 X6.1049 Y22.5776 I-135.8669 J-7.4643
G03 X7.9526 Y21.1822 I1.5823 J0.1742
G02 X9.4470 Y21.2626 I1.8020 J-19.5661
G02 X18.2274 Y20.5808 I0.1149 J-55.4007
G02 X31.4250 Y17.5787 I-15.7286 J-99.6558
G02 X49.9503 Y10.7143 I-45.2637 J-150.5848
G03 X65.1198 Y4.6518 I86.8932 J195.4105
G03 X80.3255 Y0.3803 I37.4479 J104.1067
G03 X88.3553 Y-0.8612 I17.8768 J89.0418
G01 X88.4185 Y-0.8678
G03 X101.5291 Y-1.5572 I13.8636 J138.6447
G01 X104.3026 Y-1.5796
G01 X107.1682 Y-1.5861
G01 X107.7670 Y-1.5863
G01 X112.5295 Y-1.5874
G01 X113.1282 Y-1.5875
G03 X124.1294 Y-1.4310 I1.4797 J282.6385
G03 X142.8394 Y0.9752 I-2.8298 J95.9492
G03 X158.7713 Y5.9076 I-30.0299 J125.1955
G03 X170.4927 Y10.7143 I-84.6692 J223.1658
G02 X189.0200 Y17.5794 I62.2749 J-139.6338
G02 X202.2198 Y20.5815 I28.2028 J-93.4825
G02 X210.0736 Y21.2678 I8.6921 J-54.1863
G02 X212.2082 Y21.2075 I0.3829 J-24.2605
G01 X212.4894 Y21.1823
G03 X214.3469 Y22.7559 I0.2666 J1.5685
G02 X215.0053 Y33.0766 I91.7405 J-0.6713
G02 X216.1143 Y37.8827 I25.9928 J-3.4663
G01 X216.3449 Y38.6461
G03 X219.4862 Y49.4551 I-237.1086 J74.7682
G03 X221.9843 Y66.3453 I-73.7604 J19.5394
G01 X221.9858 Y66.3917
G03 X222.0563 Y71.1072 I-389.1786 J8.1764
G03 X221.4895 Y76.9074 I-33.0936 J-0.3062
G03 X219.8220 Y85.0271 I-93.2332 J-14.9154
G03 X217.1955 Y94.3895 I-247.5630 J-64.4009
G01 X216.1502 Y97.9225
G02 X215.2868 Y101.2074 I28.8468 J9.3374
G02 X214.5511 Y108.0328 I56.3517 J9.5267
G02 X214.3641 Y113.2898 I135.8676 J7.4643
G03 X212.5165 Y114.6851 I-1.5823 J-0.1742
G02 X211.0221 Y114.6047 I-1.8020 J19.5661
G02 X202.2417 Y115.2865 I-0.1149 J55.4006
G02 X189.0441 Y118.2886 I15.7285 J99.6556
G02 X170.5156 Y125.1544 I45.2686 J150.5991
G01 X166.2389 Y126.9204
G01 X166.1569 Y126.9518
G01 X161.8760 Y128.5090
G01 X161.7981 Y128.5352
G01 X157.5055 Y129.9089
G01 X157.4317 Y129.9307
G01 X153.1534 Y131.1323
G01 X148.8456 Y132.1912
G01 X148.7792 Y132.2061
G03 X119.0920 Y136.1562 I-37.2987 J-166.7893
G01 X116.3511 Y136.2632
G01 X114.8650 Y136.2992
G01 X113.9143 Y136.3223
G01 X111.7690 Y136.3451
G01 X110.1029 Y136.3429
G01 X110.0587 Y136.3428
G02 X104.1940 Y136.2739 I-9.6246 J569.2613
G03 X71.0664 Y132.1086 I3.5388 J-161.9649
G03 X60.5969 Y129.1845 I30.1956 J-128.3189
G01 X60.5326 Y129.1633
G03 X49.9879 Y125.1579 I34.7507 J-107.3687
G02 X31.4491 Y118.2880 I-62.3004 J139.6720
G02 X18.2493 Y115.2859 I-28.2027 J93.4821
G02 X10.3954 Y114.5995 I-8.6920 J54.1860
G02 X8.2609 Y114.6598 I-0.3829 J24.2604
G01 X7.9797 Y114.6851
G03 X6.1280 Y113.2530 I-0.2663 J-1.5689
G01 X6.1222 Y113.1114
G02 X5.4643 Y102.7907 I-91.6974 J0.6636
G02 X4.3455 Y97.9225 I-27.4568 J3.7472
G01 X3.0074 Y93.3964
G03 X-0.0176 Y82.1067 I162.2140 J-49.5143
G03 X-1.2874 Y74.7249 I88.0071 J-18.9396
G03 X-1.4465 Y73.0252 I34.3526 J-4.0715
G01 X-1.4486 Y72.9893
G03 X-1.5323 Y70.4362 I42.0121 J-2.6549
G01 X-1.5345 Y69.9010
G01 X-1.5356 Y68.2286
G01 Z-16.7640 F889
G01 X-1.5357 Y68.1428 F1524
G02 X-1.5801 Y65.4614 I-127.5836 J0.7715
G01 X-1.5865 Y64.9984
G01 X-1.5875 Y64.5345
G03 X-1.0198 Y58.9600 I33.6153 J0.6068
G03 X0.6391 Y50.8734 I93.5971 J14.9881
G03 X3.2737 Y41.4779 I247.2796 J64.2733
G01 X4.3189 Y37.9449
G02 X5.1822 Y34.6600 I-28.8542 J-9.3391
G02 X5.9180 Y27.8345 I-56.3519 J-9.5267
G02 X6.1049 Y22.5776 I-135.8669 J-7.4643
G03 X7.9526 Y21.1822 I1.5823 J0.1742
G02 X9.4470 Y21.2626 I1.8020 J-19.5661
G02 X18.2274 Y20.5808 I0.1149 J-55.4007
G02 X31.4250 Y17.5787 I-15.7286 J-99.6558
G02 X49.9503 Y10.7143 I-45.2637 J-150.5848
G03 X65.1198 Y4.6518 I86.8932 J195.4105
G03 X80.3255 Y0.3803 I37.4479 J104.1067
G03 X88.3553 Y-0.8612 I17.8768 J89.0418
G01 X88.4185 Y-0.8678
G03 X101.5291 Y-1.5572 I13.8636 J138.6447
G01 X104.3026 Y-1.5796
G01 X107.1682 Y-1.5861
G01 X107.7670 Y-1.5863
G00 Z-13.9700
G01 X112.5295 Y-1.5874
G01 Z-16.7640 F889
G01 X113.1282 Y-1.5875 F1524
G03 X124.1294 Y-1.4310 I1.4797 J282.6385
G03 X142.8394 Y0.9752 I-2.8298 J95.9492
G03 X158.7713 Y5.9076 I-30.0299 J125.1955
G03 X170.4927 Y10.7143 I-84.6692 J223.1658
G02 X189.0200 Y17.5794 I62.2749 J-139.6338
G02 X202.2198 Y20.5815 I28.2028 J-93.4825
G02 X210.0736 Y21.2678 I8.6921 J-54.1863
G02 X212.2082 Y21.2075 I0.3829 J-24.2605
G01 X212.4894 Y21.1823
G03 X214.3469 Y22.7559 I0.2666 J1.5685
G02 X215.0053 Y33.0766 I91.7405 J-0.6713
G02 X216.1143 Y37.8827 I25.9928 J-3.4663
G01 X216.3449 Y38.6461
G03 X219.4862 Y49.4551 I-237.1086 J74.7682
G03 X221.9843 Y66.3453 I-73.7604 J19.5394
G00 Z-13.9700
G01 X221.9858 Y66.3917
G03 X222.0563 Y71.1072 I-389.1786 J8.1764
G01 Z-16.7640 F889
G03 X221.4895 Y76.9074 I-33.0936 J-0.3062 F1524
G03 X219.8220 Y85.0271 I-93.2332 J-14.9154
G03 X217.1955 Y94.3895 I-247.5630 J-64.4009
G01 X216.1502 Y97.9225
G02 X215.2868 Y101.2074 I28.8468 J9.3374
G02 X214.5511 Y108.0328 I56.3517 J9.5267
G02 X214.3641 Y113.2898 I135.8676 J7.4643
G03 X212.5165 Y114.6851 I-1.5823 J-0.1742
G02 X211.0221 Y114.6047 I-1.8020 J19.5661
G02 X202.2417 Y115.2865 I-0.1149 J55.4006
G02 X189.0441 Y118.2886 I15.7285 J99.6556
G02 X170.5156 Y125.1544 I45.2686 J150.5991
G01 X166.2389 Y126.9204
G01 X166.1569 Y126.9518
G01 X161.8760 Y128.5090
G01 X161.7981 Y128.5352
G01 X157.5055 Y129.9089
G01 X157.4317 Y129.9307
G01 X153.1534 Y131.1323
G01 X148.8456 Y132.1912
G01 X148.7792 Y132.2061
G03 X119.0920 Y136.1562 I-37.2987 J-166.7893
G01 X116.3511 Y136.2632
G01 X114.8650 Y136.2992
G00 Z-13.9700
G01 X113.9143 Y136.3223
G01 X111.7690 Y136.3451
G01 X110.1029 Y136.3429
G01 Z-16.7640 F889
G01 X110.0587 Y136.3428 F1524
G02 X104.1940 Y136.2739 I-9.6246 J569.2613
G03 X71.0664 Y132.1086 I3.5388 J-161.9649
G03 X60.5969 Y129.1845 I30.1956 J-128.3189
G01 X60.5326 Y129.1633
G03 X49.9879 Y125.1579 I34.7507 J-107.3687
G02 X31.4491 Y118.2880 I-62.3004 J139.6720
G02 X18.2493 Y115.2859 I-28.2027 J93.4821
G02 X10.3954 Y114.5995 I-8.6920 J54.1860
G02 X8.2609 Y114.6598 I-0.3829 J24.2604
G01 X7.9797 Y114.6851
G03 X6.1280 Y113.2530 I-0.2663 J-1.5689
G01 X6.1222 Y113.1114
G02 X5.4643 Y102.7907 I-91.6974 J0.6636
G02 X4.3455 Y97.9225 I-27.4568 J3.7472
G01 X3.0074 Y93.3964
G03 X-0.0176 Y82.1067 I162.2140 J-49.5143
G03 X-1.2874 Y74.7249 I88.0071 J-18.9396
G03 X-1.4465 Y73.0252 I34.3526 J-4.0715
G01 X-1.4486 Y72.9893
G00 Z-13.9700
G03 X-1.5323 Y70.4362 I42.0121 J-2.6549
G01 X-1.5345 Y69.9010
G01 X-1.5356 Y68.2286
G00 Z-16.2640
G01 Z-21.5900 F889
G01 X-1.5357 Y68.1428 F1524
G02 X-1.5801 Y65.4614 I-127.5836 J0.7715
G01 X-1.5865 Y64.9984
G01 X-1.5875 Y64.5345
G03 X-1.0198 Y58.9600 I33.6153 J0.6068
G03 X0.6391 Y50.8734 I93.5971 J14.9881
G03 X3.2737 Y41.4779 I247.2796 J64.2733
G01 X4.3189 Y37.9449
G02 X5.1822 Y34.6600 I-28.8542 J-9.3391
G02 X5.9180 Y27.8345 I-56.3519 J-9.5267
G02 X6.1049 Y22.5776 I-135.8669 J-7.4643
G03 X7.9526 Y21.1822 I1.5823 J0.1742
G02 X9.4470 Y21.2626 I1.8020 J-19.5661
G02 X18.2274 Y20.5808 I0.1149 J-55.4007
G02 X31.4250 Y17.5787 I-15.7286 J-99.6558
G02 X49.9503 Y10.7143 I-45.2637 J-150.5848
G03 X65.1198 Y4.6518 I86.8932 J195.4105
G03 X80.3255 Y0.3803 I37.4479 J104.1067
G03 X88.3553 Y-0.8612 I17.8768 J89.0418
G01 X88.4185 Y-0.8678
G03 X101.5291 Y-1.5572 I13.8636 J138.6447
G01 X104.3026 Y-1.5796
G01 X107.1682 Y-1.5861
G01 X107.7670 Y-1.5863
G00 Z-13.9700
G01 X112.5295 Y-1.5874
G00 Z-16.2640
G01 Z-21.5900 F889
G01 X113.1282 Y-1.5875 F1524
G03 X124.1294 Y-1.4310 I1.4797 J282.6385
G03 X142.8394 Y0.9752 I-2.8298 J95.9492
G03 X158.7713 Y5.9076 I-30.0299 J125.1955
G03 X170.4927 Y10.7143 I-84.6692 J223.1658
G02 X189.0200 Y17.5794 I62.2749 J-139.6338
G02 X202.2198 Y20.5815 I28.2028 J-93.4825
G02 X210.0736 Y21.2678 I8.6921 J-54.1863
G02 X212.2082 Y21.2075 I0.3829 J-24.2605
G01 X212.4894 Y21.1823
G03 X214.3469 Y22.7559 I0.2666 J1.5685
G02 X215.0053 Y33.0766 I91.7405 J-0.6713
G02 X216.1143 Y37.8827 I25.9928 J-3.4663
G01 X216.3449 Y38.6461
G03 X219.4862 Y49.4551 I-237.1086 J74.7682
G03 X221.9843 Y66.3453 I-73.7604 J19.5394
G00 Z-13.9700
G01 X221.9858 Y66.3917
G03 X222.0563 Y71.1072 I-389.1786 J8.1764
G00 Z-16.2640
G01 Z-21.5900 F889
G03 X221.4895 Y76.9074 I-33.0936 J-0.3062 F1524
G03 X219.8220 Y85.0271 I-93.2332 J-14.9154
G03 X217.1955 Y94.3895 I-247.5630 J-64.4009
G01 X216.1502 Y97.9225
G02 X215.2868 Y101.2074 I28.8468 J9.3374
G02 X214.5511 Y108.0328 I56.3517 J9.5267
G02 X214.3641 Y113.2898 I135.8676 J7.4643
G03 X212.5165 Y114.6851 I-1.5823 J-0.1742
G02 X211.0221 Y114.6047 I-1.8020 J19.5661
G02 X202.2417 Y115.2865 I-0.1149 J55.4006
G02 X189.0441 Y118.2886 I15.7285 J99.6556
G02 X170.5156 Y125.1544 I45.2686 J150.5991
G01 X166.2389 Y126.9204
G01 X166.1569 Y126.9518
G01 X161.8760 Y128.5090
G01 X161.7981 Y128.5352
G01 X157.5055 Y129.9089
G01 X157.4317 Y129.9307
G01 X153.1534 Y131.1323
G01 X148.8456 Y132.1912
G01 X148.7792 Y132.2061
G03 X119.0920 Y136.1562 I-37.2987 J-166.7893
G01 X116.3511 Y136.2632
G01 X114.8650 Y136.2992
G00 Z-13.9700
G01 X113.9143 Y136.3223
G01 X111.7690 Y136.3451
G01 X110.1029 Y136.3429
G00 Z-16.2640
G01 Z-21.5900 F889
G01 X110.0587 Y136.3428 F1524
G02 X104.1940 Y136.2739 I-9.6246 J569.2613
G03 X71.0664 Y132.1086 I3.5388 J-161.9649
G03 X60.5969 Y129.1845 I30.1956 J-128.3189
G01 X60.5326 Y129.1633
G03 X49.9879 Y125.1579 I34.7507 J-107.3687
G02 X31.4491 Y118.2880 I-62.3004 J139.6720
G02 X18.2493 Y115.2859 I-28.2027 J93.4821
G02 X10.3954 Y114.5995 I-8.6920 J54.1860
G02 X8.2609 Y114.6598 I-0.3829 J24.2604
G01 X7.9797 Y114.6851
G03 X6.1280 Y113.2530 I-0.2663 J-1.5689
G01 X6.1222 Y113.1114
G02 X5.4643 Y102.7907 I-91.6974 J0.6636
G02 X4.3455 Y97.9225 I-27.4568 J3.7472
G01 X3.0074 Y93.3964
G03 X-0.0176 Y82.1067 I162.2140 J-49.5143
G03 X-1.2874 Y74.7249 I88.0071 J-18.9396
G03 X-1.4465 Y73.0252 I34.3526 J-4.0715
G01 X-1.4486 Y72.9893
G00 Z-13.9700
G03 X-1.5323 Y70.4362 I42.0121 J-2.6549
G01 X-1.5345 Y69.9010
G01 X-1.5356 Y68.2286
G00 Z5.0000
G00 X0.0000 Y0.0000

M05
M30
