(Project MiltonCampWebsitePlaqueOTP)
(Created by Estlcam version 11 build 11.029)
(Machining time about 00:05:23 hours)

(Required tools:)
(1/8" V-Carve 60D)
G21
G90
G94
M03 S24000
G00 Z5.0000


(No. 1: Carve 51)
G00 X39.1851 Y53.4691
G01 Z-0.1213 F1270 S24000
G01 X39.2857 Y53.3686 Z-0.3640
G01 X39.3862 Y53.2681 Z-0.6066
G01 X39.5872 Y53.0671 Z-1.0919
G01 X39.7882 Y52.8716 Z-1.5637
G01 X39.8887
G01 X39.9892
G01 X40.0897
G01 X40.1902
G01 X40.2907
G01 X40.3912
G01 X40.4917
G01 X40.5590 Y52.8717 Z-1.5640
G01 X40.6156 Y52.8737 Z-1.5688
G01 X40.6724 Y52.8782 Z-1.5796
G01 X40.7298 Y52.8852 Z-1.5966
G01 X40.7938 Y52.8961 Z-1.6228
G01 X40.8590 Y52.9104 Z-1.6573
G01 X40.9257 Y52.9285 Z-1.7009
G01 X41.0007 Y52.9528 Z-1.7598
G01 X41.0786 Y52.9828 Z-1.8320
G01 X41.1599 Y53.0190 Z-1.9195
G01 X41.2454 Y53.0626 Z-2.0247
G01 X41.3237 Y53.1124 Z-2.1277
G01 Y53.1548 Z-2.0823
G01 Y53.1955 Z-2.0427
G01 Y53.2348 Z-2.0084
G01 Y53.2729 Z-1.9788
G01 Y53.3172 Z-1.9493
G01 Y53.3603 Z-1.9259
G01 Y53.4095 Z-1.9058
G01 Y53.4578 Z-1.8931
G01 Y53.5125 Z-1.8873
G01 Y53.5691 Z-1.8872
G01 Y53.6687
G01 Y53.7682
G01 Y53.8678
G01 Y53.9673
G01 Y54.0669
G01 Y54.1664
G01 Y54.2660
G01 Y54.3655
G01 Y54.4651
G01 Y54.5646
G01 Y54.6642
G01 Y54.7637
G01 Y54.8633
G01 Y54.9629
G01 Y55.0624
G01 Y55.1620
G01 Y55.2615
G01 Y55.3611
G01 Y55.4606
G01 Y55.5602
G01 Y55.6597
G01 Y55.7593
G01 Y55.8588
G01 Y55.9584
G01 Y56.0579
G01 Y56.1575
G01 Y56.2570
G01 Y56.3566
G01 Y56.4561
G01 Y56.5557
G01 Y56.6553
G01 Y56.7548
G01 Y56.8544
G01 Y56.9539
G01 Y57.0535
G01 Y57.1530
G01 Y57.2526
G01 Y57.3521
G01 Y57.4517
G01 Y57.5512
G01 Y57.6508
G01 Y57.7503
G01 Y57.8499
G01 Y57.9494
G01 Y58.0490
G01 Y58.1485
G01 Y58.2481
G01 Y58.3477
G01 Y58.4472
G01 Y58.5468
G01 Y58.6463
G01 Y58.7459
G01 Y58.8454
G01 Y58.9450
G01 Y59.0445
G01 Y59.1441
G01 Y59.2436
G01 Y59.3432
G01 Y59.4427
G01 Y59.5423
G01 Y59.6418
G01 Y59.7414
G01 Y59.8409
G01 Y59.9405
G01 Y60.0401
G01 Y60.1396
G01 Y60.2392
G01 Y60.3387
G01 Y60.4383
G01 Y60.5378
G01 Y60.6374
G01 Y60.7369
G01 Y60.8365
G01 Y60.9360
G01 Y61.0356
G01 Y61.1351
G01 Y61.2347
G01 Y61.3049 Z-1.8879
G01 Y61.3597 Z-1.8960
G01 Y61.4223 Z-1.9164
G01 Y61.4866 Z-1.9493
G01 Y61.5613 Z-2.0021
G01 Y61.6490 Z-2.0823
G01 X41.3051 Y61.7074 Z-2.1063
G01 X41.2749 Y61.7248 Z-2.0643
G01 X41.2454 Y61.7412 Z-2.0247
G01 X41.2092 Y61.7604 Z-1.9785
G01 X41.1738 Y61.7781 Z-1.9357
G01 X41.1392 Y61.7945 Z-1.8961
G01 X41.1053 Y61.8097 Z-1.8594
G01 X41.0654 Y61.8264 Z-1.8190
G01 X41.0263 Y61.8416 Z-1.7823
G01 X40.9881 Y61.8554 Z-1.7491
G01 X40.9504 Y61.8678 Z-1.7192
G01 X40.9073 Y61.8807 Z-1.6881
G01 X40.8650 Y61.8919 Z-1.6609
G01 X40.8233 Y61.9016 Z-1.6374
G01 X40.7821 Y61.9099 Z-1.6174
G01 X40.7356 Y61.9177 Z-1.5986
G01 X40.6896 Y61.9238 Z-1.5840
G01 X40.6440 Y61.9282 Z-1.5734
G01 X40.5929 Y61.9312 Z-1.5661
G01 X40.5420 Y61.9322 Z-1.5637
G01 X40.4917
G01 X40.3912
G01 X40.2907
G01 X40.1902
G01 X40.0897
G01 X39.9892
G01 X39.8887
G01 X39.7882
G01 X39.6877 Y61.8373 Z-1.3346
G01 X39.5872 Y61.7367 Z-1.0919
G01 X39.4867 Y61.6362 Z-0.8493
G01 X39.3862 Y61.5357 Z-0.6066
G01 X39.2857 Y61.4352 Z-0.3640
G01 X39.1851 Y61.3347 Z-0.1213
G01 X39.1349 Y61.2845 Z0.0000
G01 X39.1847 Y61.3343 Z-0.1203
G01 X39.2844 Y61.4339 Z-0.3609
G01 X39.3840 Y61.5336 Z-0.6014
G01 X39.5833 Y61.7329 Z-1.0826
G01 X39.7826 Y61.9322 Z-1.5637
G01 X39.6830 Y62.0318 Z-1.3231
G01 X39.5833 Y62.1315 Z-1.0826
G01 X39.4837 Y62.2311 Z-0.8420
G01 X39.3840 Y62.3308 Z-0.6014
G01 X39.2844 Y62.4304 Z-0.3609
G01 X39.1847 Y62.5301 Z-0.1203
G01 X39.1349 Y62.5799 Z0.0000
G01 X39.1850 Y62.5298 Z-0.1209
G01 X39.2851 Y62.4297 Z-0.3626
G01 X39.3852 Y62.3296 Z-0.6044
G01 X39.5855 Y62.1293 Z-1.0879
G01 X39.7858 Y61.9322 Z-1.5637
G01 X39.8859
G01 X39.9860
G01 X40.0862
G01 X40.1863
G01 X40.2865
G01 X40.3866
G01 X40.4867
G01 X40.5869 Y61.9314 Z-1.5656
G01 X40.6870 Y61.9241 Z-1.5833
G01 X40.7871 Y61.9090 Z-1.6197
G01 X40.8873 Y61.8862 Z-1.6748
G01 X40.9874 Y61.8556 Z-1.7486
G01 X41.0875 Y61.8173 Z-1.8410
G01 X41.1877 Y61.7713 Z-1.9522
G01 X41.2878 Y61.7175 Z-2.0820
G01 X41.3879 Y61.7335 Z-2.0434
G01 X41.4881 Y61.7851 Z-1.9189
G01 X41.5882 Y61.8289 Z-1.8130
G01 X41.6883 Y61.8650 Z-1.7258
G01 X41.7885 Y61.8934 Z-1.6573
G01 X41.8886 Y61.9140 Z-1.6075
G01 X41.9887 Y61.9269 Z-1.5764
G01 X42.0889 Y61.9321 Z-1.5640
G01 X42.1890 Y61.9322 Z-1.5637
G01 X42.2892
G01 X42.3893
G01 X42.4894
G01 X42.5896
G01 X42.6897
G01 X42.7898
G01 X42.8900
G01 X42.9901
G01 X43.0902 Y61.9320 Z-1.5642
G01 X43.1796 Y61.9317 Z-1.5645
G01 X43.2617 Y61.9311 Z-1.5655
G01 X43.3393 Y61.9304 Z-1.5662
G01 X43.4194 Y61.9293 Z-1.5673
G01 X43.4949 Y61.9281 Z-1.5683
G01 X43.5731 Y61.9265 Z-1.5695
G01 X43.6465 Y61.9248 Z-1.5707
G01 X43.7228 Y61.9228 Z-1.5720
G01 X43.8312 Y61.9193 Z-1.5742
G01 X43.9737 Y61.9138 Z-1.5775
G01 X44.1122 Y61.9073 Z-1.5811
G01 X44.2465 Y61.8999 Z-1.5851
G01 X44.3767 Y61.8915 Z-1.5893
G01 X44.5027 Y61.8823 Z-1.5937
G01 X44.6245 Y61.8721 Z-1.5987
G01 X44.7421 Y61.8610 Z-1.6039
G01 X44.8554 Y61.8490 Z-1.6093
G01 X44.9644 Y61.8363 Z-1.6148
G01 X45.0691 Y61.8229 Z-1.6202
G01 X45.1694 Y61.8086 Z-1.6259
G01 X45.2652 Y61.7936 Z-1.6318
G01 X45.3566 Y61.7781 Z-1.6374
G01 X45.4433 Y61.7621 Z-1.6426
G01 X45.5255 Y61.7455 Z-1.6481
G01 X45.6031 Y61.7285 Z-1.6529
G01 X45.6767 Y61.7111 Z-1.6567
G01 X45.7501 Y61.6919 Z-1.6605
G01 X45.8233 Y61.6712 Z-1.6636
G01 X45.8965 Y61.6490 Z-1.6659
G01 X45.9696 Y61.6249 Z-1.6682
G01 X46.0426 Y61.5991 Z-1.6705
G01 X46.1155 Y61.5715 Z-1.6725
G01 X46.1882 Y61.5415 Z-1.6758
G01 X46.2608 Y61.5097 Z-1.6791
G01 X46.3334 Y61.4759 Z-1.6823
G01 X46.4057 Y61.4397 Z-1.6870
G01 X46.4779 Y61.4015 Z-1.6919
G01 X46.5500 Y61.3614 Z-1.6970
G01 X46.6219 Y61.3187 Z-1.7036
G01 X46.6935 Y61.2738 Z-1.7108
G01 X46.7650 Y61.2268 Z-1.7183
G01 X46.8362 Y61.1775 Z-1.7270
G01 X46.9070 Y61.1257 Z-1.7371
G01 X46.9777 Y61.0716 Z-1.7479
G01 X47.0452 Y61.0175 Z-1.7585
G01 X47.1089 Y60.9634 Z-1.7696
G01 X47.1711 Y60.9078 Z-1.7801
G01 X47.2321 Y60.8508 Z-1.7898
G01 X47.2915 Y60.7919 Z-1.7998
G01 X47.3496 Y60.7313 Z-1.8093
G01 X47.4067 Y60.6692 Z-1.8179
G01 X47.4623 Y60.6051 Z-1.8266
G01 X47.5168 Y60.5393 Z-1.8349
G01 X47.5703 Y60.4718 Z-1.8422
G01 X47.6225 Y60.4023 Z-1.8495
G01 X47.6736 Y60.3308 Z-1.8565
G01 X47.7238 Y60.2574 Z-1.8625
G01 X47.7729 Y60.1820 Z-1.8682
G01 X47.8209 Y60.1045 Z-1.8734
G01 X47.8680 Y60.0249 Z-1.8780
G01 X47.9140 Y59.9432 Z-1.8821
G01 X47.9586 Y59.8589 Z-1.8869
G01 X48.0020 Y59.7725 Z-1.8914
G01 X48.0444 Y59.6837 Z-1.8956
G01 X48.0874 Y59.5882 Z-1.9009
G01 X48.1253 Y59.4987 Z-1.9065
G01 X48.1613 Y59.4081 Z-1.9113
G01 X48.1957 Y59.3162 Z-1.9154
G01 X48.2278 Y59.2229 Z-1.9197
G01 X48.2581 Y59.1283 Z-1.9235
G01 X48.2867 Y59.0322 Z-1.9265
G01 X48.3134 Y58.9347 Z-1.9291
G01 X48.3380 Y58.8357 Z-1.9319
G01 X48.3607 Y58.7351 Z-1.9339
G01 X48.3818 Y58.6329 Z-1.9352
G01 X48.4007 Y58.5291 Z-1.9365
G01 X48.4176 Y58.4236 Z-1.9376
G01 X48.4327 Y58.3164 Z-1.9380
G01 X48.4459 Y58.2075 Z-1.9379
G01 X48.4570 Y58.0969 Z-1.9376
G01 X48.4660 Y57.9844 Z-1.9373
G01 X48.4730 Y57.8702 Z-1.9365
G01 X48.4780 Y57.7542 Z-1.9351
G01 X48.4810 Y57.6363 Z-1.9333
G01 X48.4817 Y57.5451 Z-1.9325
G01 X48.4816 Y57.4689 Z-1.9312
G01 X48.4808 Y57.4062 Z-1.9306
G01 X48.4794 Y57.3310 Z-1.9296
G01 X48.4765 Y57.2325 Z-1.9284
G01 X48.4704 Y57.0988 Z-1.9271
G01 X48.4621 Y56.9673 Z-1.9259
G01 X48.4517 Y56.8382 Z-1.9249
G01 X48.4391 Y56.7115 Z-1.9238
G01 X48.4243 Y56.5870 Z-1.9229
G01 X48.4075 Y56.4649 Z-1.9220
G01 X48.3886 Y56.3451 Z-1.9212
G01 X48.3676 Y56.2276 Z-1.9203
G01 X48.3446 Y56.1124 Z-1.9195
G01 X48.3196 Y55.9995 Z-1.9186
G01 X48.2926 Y55.8888 Z-1.9177
G01 X48.2637 Y55.7804 Z-1.9168
G01 X48.2329 Y55.6742 Z-1.9157
G01 X48.2001 Y55.5702 Z-1.9146
G01 X48.1655 Y55.4683 Z-1.9133
G01 X48.1291 Y55.3685 Z-1.9118
G01 X48.0908 Y55.2708 Z-1.9102
G01 X48.0504 Y55.1740 Z-1.9084
G01 X48.0081 Y55.0787 Z-1.9064
G01 X47.9649 Y54.9865 Z-1.9043
G01 X47.9209 Y54.8974 Z-1.9021
G01 X47.8760 Y54.8115 Z-1.8997
G01 X47.8303 Y54.7286 Z-1.8970
G01 X47.7838 Y54.6488 Z-1.8940
G01 X47.7366 Y54.5719 Z-1.8907
G01 X47.6888 Y54.4979 Z-1.8871
G01 X47.6402 Y54.4269 Z-1.8832
G01 X47.5910 Y54.3586 Z-1.8790
G01 X47.5412 Y54.2931 Z-1.8743
G01 X47.4908 Y54.2302 Z-1.8690
G01 X47.4398 Y54.1699 Z-1.8631
G01 X47.3883 Y54.1120 Z-1.8565
G01 X47.3360 Y54.0565 Z-1.8496
G01 X47.2831 Y54.0034 Z-1.8422
G01 X47.2295 Y53.9524 Z-1.8340
G01 X47.1752 Y53.9035 Z-1.8249
G01 X47.1201 Y53.8566 Z-1.8152
G01 X47.0586 Y53.8073 Z-1.8046
G01 X46.9957 Y53.7594 Z-1.7942
G01 X46.9311 Y53.7126 Z-1.7841
G01 X46.8649 Y53.6673 Z-1.7744
G01 X46.7969 Y53.6232 Z-1.7652
G01 X46.7273 Y53.5804 Z-1.7561
G01 X46.6560 Y53.5387 Z-1.7469
G01 X46.5830 Y53.4982 Z-1.7377
G01 X46.5083 Y53.4590 Z-1.7285
G01 X46.4319 Y53.4209 Z-1.7193
G01 X46.3538 Y53.3841 Z-1.7102
G01 X46.2738 Y53.3486 Z-1.7012
G01 X46.1921 Y53.3144 Z-1.6922
G01 X46.1085 Y53.2814 Z-1.6833
G01 X46.0232 Y53.2498 Z-1.6745
G01 X45.9360 Y53.2196 Z-1.6659
G01 X45.8469 Y53.1908 Z-1.6574
G01 X45.7560 Y53.1633 Z-1.6491
G01 X45.6633 Y53.1373 Z-1.6409
G01 X45.5687 Y53.1127 Z-1.6330
G01 X45.4748 Y53.0903 Z-1.6252
G01 X45.3739 Y53.0683 Z-1.6171
G01 X45.2694 Y53.0473 Z-1.6096
G01 X45.1615 Y53.0274 Z-1.6025
G01 X45.0501 Y53.0087 Z-1.5961
G01 X44.9353 Y52.9912 Z-1.5906
G01 X44.8170 Y52.9750 Z-1.5859
G01 X44.6954 Y52.9600 Z-1.5816
G01 X44.5705 Y52.9462 Z-1.5779
G01 X44.4423 Y52.9336 Z-1.5747
G01 X44.3108 Y52.9221 Z-1.5720
G01 X44.1761 Y52.9120 Z-1.5699
G01 X44.0381 Y52.9029 Z-1.5681
G01 X43.8969 Y52.8950 Z-1.5666
G01 X43.7903 Y52.8899 Z-1.5658
G01 X43.7147 Y52.8867 Z-1.5652
G01 X43.6435 Y52.8841 Z-1.5649
G01 X43.5664 Y52.8815 Z-1.5645
G01 X43.4934 Y52.8793 Z-1.5642
G01 X43.4149 Y52.8774 Z-1.5640
G01 X43.3403 Y52.8757 Z-1.5637
G01 X43.2602 Y52.8744
G01 X43.1839 Y52.8733 Z-1.5636
G01 X43.1024 Y52.8725
G01 X43.0245 Y52.8720
G01 X42.9415 Y52.8717
G01 X42.8525 Y52.8716 Z-1.5637
G01 X42.7534
G01 X42.6542
G01 X42.5551
G01 X42.4560
G01 X42.3568
G01 X42.2577
G01 X42.1585
G01 X42.0594 Y52.8724 Z-1.5657
G01 X41.9603 Y52.8798 Z-1.5834
G01 X41.8611 Y52.8947 Z-1.6193
G01 X41.7620 Y52.9171 Z-1.6736
G01 X41.6629 Y52.9472 Z-1.7462
G01 X41.5637 Y52.9849 Z-1.8372
G01 X41.4646 Y53.0301 Z-1.9464
G01 X41.3655 Y53.0830 Z-2.0740
G01 X41.2663 Y53.0741 Z-2.0526
G01 X41.1672 Y53.0225 Z-1.9279
G01 X41.0680 Y52.9784 Z-1.8216
G01 X40.9689 Y52.9420 Z-1.7335
G01 X40.8698 Y52.9131 Z-1.6638
G01 X40.7706 Y52.8918 Z-1.6124
G01 X40.6715 Y52.8781 Z-1.5793
G01 X40.5724 Y52.8720 Z-1.5646
G01 X40.4732 Y52.8716 Z-1.5637
G01 X40.3741
G01 X40.2750
G01 X40.1758
G01 X40.0767
G01 X39.9776
G01 X39.8784
G01 X39.7793 Y52.8683 Z-1.5557
G01 X39.6801 Y52.7692 Z-1.3163
G01 X39.5810 Y52.6700 Z-1.0770
G01 X39.4819 Y52.5709 Z-0.8377
G01 X39.3827 Y52.4717 Z-0.5983
G01 X39.2836 Y52.3726 Z-0.3590
G01 X39.1845 Y52.2735 Z-0.1197
G01 X39.1349 Y52.2239 Z0.0000
G01 X39.1847 Y52.2737 Z-0.1203
G01 X39.2844 Y52.3734 Z-0.3609
G01 X39.3840 Y52.4730 Z-0.6014
G01 X39.5833 Y52.6723 Z-1.0826
G01 X39.7826 Y52.8716 Z-1.5637
G01 X39.6830 Y52.9713 Z-1.3231
G01 X39.5833 Y53.0709 Z-1.0826
G01 X39.4837 Y53.1706 Z-0.8420
G01 X39.3840 Y53.2702 Z-0.6014
G01 X39.2844 Y53.3699 Z-0.3609
G01 X39.1847 Y53.4695 Z-0.1203
G01 X39.1349 Y53.5193 Z0.0000
G00 Z5.0000
G00 X50.5177 Y53.4678
G01 Z-0.1244
G01 X50.6208 Y53.3647 Z-0.3733
G01 X50.7239 Y53.2616 Z-0.6222
G01 X50.8270 Y53.1585 Z-0.8710
G01 X51.0331 Y52.9524 Z-1.3688
G01 X51.1362 Y52.8716 Z-1.5637
G01 X51.2393
G01 X51.3424
G01 X51.4455
G01 X51.5486
G01 X51.6516
G01 X51.7547
G01 X51.8232 Y52.8717 Z-1.5640
G01 X51.8798 Y52.8737 Z-1.5688
G01 X51.9367 Y52.8782 Z-1.5796
G01 X51.9941 Y52.8852 Z-1.5966
G01 X52.0581 Y52.8961 Z-1.6228
G01 X52.1233 Y52.9104 Z-1.6573
G01 X52.1900 Y52.9285 Z-1.7009
G01 X52.2650 Y52.9528 Z-1.7598
G01 X52.3429 Y52.9828 Z-1.8320
G01 X52.4242 Y53.0190 Z-1.9195
G01 X52.5096 Y53.0626 Z-2.0247
G01 X52.5880 Y53.1124 Z-2.1276
G01 Y53.1548 Z-2.0823
G01 Y53.1955 Z-2.0427
G01 Y53.2348 Z-2.0084
G01 Y53.2729 Z-1.9788
G01 Y53.3172 Z-1.9493
G01 Y53.3603 Z-1.9259
G01 Y53.4095 Z-1.9058
G01 Y53.4578 Z-1.8931
G01 Y53.5125 Z-1.8873
G01 Y53.5691 Z-1.8872
G01 Y53.6687
G01 Y53.7682
G01 Y53.8678
G01 Y53.9673
G01 Y54.0669
G01 Y54.1664
G01 Y54.2660
G01 Y54.3655
G01 Y54.4651
G01 Y54.5646
G01 Y54.6642
G01 Y54.7637
G01 Y54.8633
G01 Y54.9629
G01 Y55.0624
G01 Y55.1620
G01 Y55.2615
G01 Y55.3611
G01 Y55.4606
G01 Y55.5602
G01 Y55.6597
G01 Y55.7593
G01 Y55.8588
G01 Y55.9584
G01 Y56.0579
G01 Y56.1575
G01 Y56.2570
G01 Y56.3566
G01 Y56.4561
G01 Y56.5557
G01 Y56.6553
G01 Y56.7548
G01 Y56.8544
G01 X52.5887 Y56.9539 Z-1.8890
G01 X52.5949 Y57.0535 Z-1.9039
G01 X52.6074 Y57.1530 Z-1.9341
G01 X52.6262 Y57.2526 Z-1.9796
G01 X52.6514 Y57.3521 Z-2.0404
G01 X52.6829 Y57.4517 Z-2.1165
G01 X52.7208 Y57.5512 Z-2.2079
G01 X52.6853 Y57.6508 Z-2.1220
G01 X52.6533 Y57.7503 Z-2.0449
G01 X52.6277 Y57.8499 Z-1.9831
G01 X52.6084 Y57.9494 Z-1.9366
G01 X52.5955 Y58.0490 Z-1.9054
G01 X52.5889 Y58.1485 Z-1.8895
G01 X52.5880 Y58.2481 Z-1.8872
G01 Y58.3477
G01 Y58.4472
G01 Y58.5468
G01 Y58.6463
G01 Y58.7459
G01 Y58.8454
G01 Y58.9450
G01 Y59.0445
G01 Y59.1441
G01 Y59.2436
G01 Y59.3432
G01 Y59.4427
G01 Y59.5423
G01 Y59.6418
G01 Y59.7414
G01 Y59.8409
G01 Y59.9405
G01 Y60.0401
G01 Y60.1396
G01 Y60.2392
G01 Y60.3387
G01 Y60.4383
G01 Y60.5378
G01 Y60.6374
G01 Y60.7369
G01 Y60.8365
G01 Y60.9360
G01 Y61.0356
G01 Y61.1351
G01 Y61.2347
G01 Y61.3049 Z-1.8879
G01 Y61.3597 Z-1.8960
G01 Y61.4223 Z-1.9164
G01 Y61.4866 Z-1.9493
G01 Y61.5613 Z-2.0021
G01 Y61.6490 Z-2.0823
G01 X52.5693 Y61.7074 Z-2.1063
G01 X52.5392 Y61.7248 Z-2.0643
G01 X52.5096 Y61.7412 Z-2.0247
G01 X52.4735 Y61.7604 Z-1.9785
G01 X52.4381 Y61.7781 Z-1.9357
G01 X52.4035 Y61.7945 Z-1.8961
G01 X52.3695 Y61.8097 Z-1.8594
G01 X52.3297 Y61.8264 Z-1.8190
G01 X52.2906 Y61.8416 Z-1.7823
G01 X52.2523 Y61.8554 Z-1.7491
G01 X52.2147 Y61.8678 Z-1.7192
G01 X52.1716 Y61.8807 Z-1.6881
G01 X52.1293 Y61.8919 Z-1.6609
G01 X52.0875 Y61.9016 Z-1.6374
G01 X52.0464 Y61.9099 Z-1.6174
G01 X51.9999 Y61.9177 Z-1.5986
G01 X51.9539 Y61.9238 Z-1.5840
G01 X51.9082 Y61.9282 Z-1.5734
G01 X51.8572 Y61.9312 Z-1.5661
G01 X51.8063 Y61.9322 Z-1.5637
G01 X51.7547
G01 X51.6516
G01 X51.5486
G01 X51.4455
G01 X51.3424
G01 X51.2393
G01 X51.1362
G01 X51.0331 Y61.8514 Z-1.3688
G01 X50.9301 Y61.7483 Z-1.1199
G01 X50.8270 Y61.6453 Z-0.8710
G01 X50.7239 Y61.5422 Z-0.6222
G01 X50.6208 Y61.4391 Z-0.3733
G01 X50.5177 Y61.3360 Z-0.1244
G01 X50.4662 Y61.2845 Z0.0000
G01 X50.5160 Y61.3343 Z-0.1203
G01 X50.6157 Y61.4339 Z-0.3609
G01 X50.7153 Y61.5336 Z-0.6014
G01 X50.9146 Y61.7329 Z-1.0826
G01 X51.1139 Y61.9322 Z-1.5637
G01 X51.0142 Y62.0318 Z-1.3231
G01 X50.9146 Y62.1315 Z-1.0826
G01 X50.8149 Y62.2311 Z-0.8420
G01 X50.7153 Y62.3308 Z-0.6014
G01 X50.6157 Y62.4304 Z-0.3609
G01 X50.5160 Y62.5301 Z-0.1203
G01 X50.4662 Y62.5799 Z0.0000
G01 X50.5162 Y62.5299 Z-0.1208
G01 X50.6163 Y62.4298 Z-0.3624
G01 X50.7164 Y62.3297 Z-0.6040
G01 X50.9165 Y62.1296 Z-1.0872
G01 X51.1167 Y61.9322 Z-1.5637
G01 X51.2167
G01 X51.3168
G01 X51.4169
G01 X51.5170
G01 X51.6170
G01 X51.7171
G01 X51.8172 Y61.9321 Z-1.5638
G01 X51.9173 Y61.9274 Z-1.5752
G01 X52.0173 Y61.9150 Z-1.6052
G01 X52.1174 Y61.8948 Z-1.6539
G01 X52.2175 Y61.8669 Z-1.7213
G01 X52.3176 Y61.8313 Z-1.8073
G01 X52.4176 Y61.7879 Z-1.9120
G01 X52.5177 Y61.7368 Z-2.0353
G01 X52.6178 Y61.7139 Z-2.0906
G01 X52.7179 Y61.7682 Z-1.9597
G01 X52.8179 Y61.8147 Z-1.8474
G01 X52.9180 Y61.8534 Z-1.7539
G01 X53.0181 Y61.8845 Z-1.6789
G01 X53.1182 Y61.9078 Z-1.6227
G01 X53.2182 Y61.9233 Z-1.5851
G01 X53.3183 Y61.9312 Z-1.5662
G01 X53.4184 Y61.9322 Z-1.5637
G01 X53.5185
G01 X53.6185
G01 X53.7186
G01 X53.8187
G01 X53.9188
G01 X54.0188
G01 X54.1189
G01 X54.2190
G01 X54.3190
G01 X54.4191
G01 X54.5192
G01 X54.6193
G01 X54.7193
G01 X54.8194
G01 X54.9195
G01 X55.0196
G01 X55.1196
G01 X55.2197
G01 X55.3198
G01 X55.4199
G01 X55.5199
G01 X55.6200
G01 X55.7201
G01 X55.8202
G01 X55.9202
G01 X56.0203
G01 X56.1204
G01 X56.2205
G01 X56.3205
G01 X56.4206
G01 X56.5207
G01 X56.6208
G01 X56.7208
G01 X56.8209
G01 X56.9210
G01 X57.0211
G01 X57.1211
G01 X57.2212
G01 X57.3213
G01 X57.4214
G01 X57.5214
G01 X57.6215
G01 X57.7216
G01 X57.8217 Y61.9318 Z-1.5645
G01 X57.9217 Y61.9257 Z-1.5794
G01 X58.0218 Y61.9118 Z-1.6129
G01 X58.1219 Y61.8902 Z-1.6651
G01 X58.2220 Y61.8608 Z-1.7359
G01 X58.3220 Y61.8293 Z-1.8120
G01 X58.4221 Y61.9294 Z-1.5704
G01 X58.5222 Y62.0295 Z-1.3288
G01 X58.6223 Y62.1296 Z-1.0872
G01 X58.7223 Y62.2296 Z-0.8456
G01 X58.8224 Y62.3297 Z-0.6040
G01 X58.9225 Y62.4298 Z-0.3624
G01 X59.0226 Y62.5299 Z-0.1208
G01 X59.0726 Y62.5799 Z0.0000
G01 X59.0223 Y62.5296 Z-0.1215
G01 X58.9216 Y62.4290 Z-0.3644
G01 X58.8210 Y62.3283 Z-0.6073
G01 X58.7204 Y62.2277 Z-0.8503
G01 X58.5191 Y62.0264 Z-1.3362
G01 X58.3182 Y61.8252 Z-1.8214
G01 X58.3567 Y61.7246 Z-1.7283
G01 X58.3873 Y61.6239 Z-1.6544
G01 X58.4100 Y61.5233 Z-1.5995
G01 X58.4249 Y61.4227 Z-1.5638
G01 X58.4318 Y61.3220 Z-1.5471
G01 X58.4323 Y61.2214 Z-1.5457
G01 Y61.1208
G01 Y61.0202
G01 Y60.9195
G01 Y60.8189
G01 Y60.7183
G01 Y60.6177
G01 Y60.5170
G01 Y60.4164
G01 Y60.3158
G01 Y60.2151
G01 Y60.1145
G01 X58.5191 Y60.0139 Z-1.3362
G01 X58.6198 Y59.9133 Z-1.0932
G01 X58.7204 Y59.8126 Z-0.8503
G01 X58.8210 Y59.7120 Z-0.6073
G01 X58.9216 Y59.6114 Z-0.3644
G01 X59.0223 Y59.5108 Z-0.1215
G01 X59.0726 Y59.4604 Z0.0000
G01 X59.0233 Y59.5097 Z-0.1189
G01 X58.9248 Y59.6082 Z-0.3567
G01 X58.8263 Y59.7067 Z-0.5945
G01 X58.6293 Y59.9037 Z-1.0701
G01 X58.4323 Y60.1007 Z-1.5457
G01 X58.3338 Y60.0022 Z-1.3079
G01 X58.2353 Y59.9037 Z-1.0701
G01 X58.1368 Y59.8052 Z-0.8323
G01 X58.0383 Y59.7067 Z-0.5945
G01 X57.9398 Y59.6082 Z-0.3567
G01 X57.8413 Y59.5097 Z-0.1189
G01 X57.7920 Y59.4604 Z0.0000
G00 Z5.0000
G00 X52.7762 Y57.5545
G01 Z-2.1209
G01 X52.8067 Z-2.0720
G01 X52.8452 Z-2.0121
G01 X52.8816 Z-1.9580
G01 X52.9162 Z-1.9090
G01 X52.9491 Z-1.8645
G01 X52.9882 Z-1.8148
G01 X53.0253 Z-1.7710
G01 X53.0608 Z-1.7325
G01 X53.1014 Z-1.6926
G01 X53.1404 Z-1.6589
G01 X53.1840 Z-1.6267
G01 X53.2261 Z-1.6017
G01 X53.2729 Z-1.5811
G01 X53.3187 Z-1.5686
G01 X53.3697 Z-1.5637
G01 X53.4204
G01 X53.5217
G01 X53.6230
G01 X53.7242
G01 X53.8255
G01 X53.9268
G01 X54.0281
G01 X54.1294
G01 X54.2307
G01 X54.3320
G01 X54.4333
G01 X54.5346
G01 X54.6359
G01 X54.7372
G01 X54.8384
G01 X54.9397
G01 X55.0410
G01 X55.1423
G01 X55.2436
G01 X55.3449
G01 X55.4462
G01 X55.5475
G01 X55.6488
G01 X55.7501
G01 X55.8514
G01 X55.9526
G01 X56.0539
G01 X56.1552
G01 X56.2565
G01 X56.3578
G01 X56.4591
G01 X56.5604
G01 X56.6617 Y57.6451 Z-1.3450
G01 X56.7630 Y57.7464 Z-1.1004
G01 X56.8643 Y57.8477 Z-0.8559
G01 X56.9656 Y57.9490 Z-0.6113
G01 X57.0668 Y58.0503 Z-0.3668
G01 X57.1681 Y58.1516 Z-0.1223
G01 X57.2188 Y58.2022 Z0.0000
G01 X57.1690 Y58.1524 Z-0.1203
G01 X57.0693 Y58.0528 Z-0.3609
G01 X56.9697 Y57.9531 Z-0.6014
G01 X56.7704 Y57.7538 Z-1.0826
G01 X56.5711 Y57.5545 Z-1.5637
G01 X56.6707 Y57.4549 Z-1.3231
G01 X56.7704 Y57.3552 Z-1.0826
G01 X56.8700 Y57.2556 Z-0.8420
G01 X56.9697 Y57.1559 Z-0.6014
G01 X57.0693 Y57.0563 Z-0.3609
G01 X57.1690 Y56.9566 Z-0.1203
G01 X57.2188 Y56.9068 Z0.0000
G01 X57.1681 Y56.9575 Z-0.1223
G01 X57.0668 Y57.0587 Z-0.3668
G01 X56.9656 Y57.1600 Z-0.6113
G01 X56.7630 Y57.3626 Z-1.1004
G01 X56.5604 Y57.5545 Z-1.5637
G01 X56.4591
G01 X56.3578
G01 X56.2565
G01 X56.1552
G01 X56.0539
G01 X55.9526
G01 X55.8514
G01 X55.7501
G01 X55.6488
G01 X55.5475
G01 X55.4462
G01 X55.3449
G01 X55.2436
G01 X55.1423
G01 X55.0410
G01 X54.9397
G01 X54.8384
G01 X54.7372
G01 X54.6359
G01 X54.5346
G01 X54.4333
G01 X54.3320
G01 X54.2307
G01 X54.1294
G01 X54.0281
G01 X53.9268
G01 X53.8255
G01 X53.7242
G01 X53.6230
G01 X53.5217
G01 X53.4204
G01 X53.3358 Z-1.5659
G01 X53.2787 Z-1.5791
G01 X53.2142 Z-1.6082
G01 X53.1404 Z-1.6589
G01 X53.0538 Z-1.7398
G01 X52.9491 Z-1.8645
G01 X52.8165 Z-2.0564
G01 X52.7124 Y57.5306 Z-2.1876
G01 X52.6973 Y57.4914 Z-2.1511
G01 X52.6833 Y57.4528 Z-2.1174
G01 X52.6705 Y57.4148 Z-2.0865
G01 X52.6588 Y57.3774 Z-2.0582
G01 X52.6461 Y57.3331 Z-2.0275
G01 X52.6348 Y57.2894 Z-2.0003
G01 X52.6249 Y57.2463 Z-1.9762
G01 X52.6162 Y57.2036 Z-1.9553
G01 X52.6087 Y57.1614 Z-1.9373
G01 X52.6015 Y57.1126 Z-1.9200
G01 X52.5959 Y57.0642 Z-1.9064
G01 X52.5918 Y57.0161 Z-1.8965
G01 X52.5892 Y56.9682 Z-1.8902
G01 X52.5880 Y56.9136 Z-1.8873
G01 Y56.8570 Z-1.8872
G01 Y56.7574
G01 Y56.6577
G01 Y56.5581
G01 Y56.4585
G01 Y56.3588
G01 Y56.2592
G01 Y56.1596
G01 Y56.0599
G01 Y55.9603
G01 Y55.8607
G01 Y55.7610
G01 Y55.6614
G01 Y55.5618
G01 Y55.4621
G01 Y55.3625
G01 Y55.2629
G01 Y55.1633
G01 Y55.0636
G01 Y54.9640
G01 Y54.8644
G01 Y54.7647
G01 Y54.6651
G01 Y54.5655
G01 Y54.4658
G01 Y54.3662
G01 Y54.2666
G01 Y54.1669
G01 Y54.0673
G01 Y53.9677
G01 Y53.8680
G01 Y53.7684
G01 Y53.6688
G01 Y53.5691
G01 Y53.4989 Z-1.8879
G01 Y53.4441 Z-1.8960
G01 Y53.3815 Z-1.9164
G01 Y53.3172 Z-1.9493
G01 Y53.2425 Z-2.0021
G01 Y53.1548 Z-2.0823
G01 X52.6067 Y53.0964 Z-2.1063
G01 X52.6368 Y53.0790 Z-2.0643
G01 X52.6664 Y53.0626 Z-2.0247
G01 X52.7025 Y53.0434 Z-1.9785
G01 X52.7379 Y53.0257 Z-1.9357
G01 X52.7725 Y53.0093 Z-1.8960
G01 X52.8065 Y52.9941 Z-1.8594
G01 X52.8463 Y52.9774 Z-1.8190
G01 X52.8854 Y52.9622 Z-1.7823
G01 X52.9237 Y52.9484 Z-1.7491
G01 X52.9613 Y52.9360 Z-1.7192
G01 X53.0044 Y52.9231 Z-1.6881
G01 X53.0467 Y52.9119 Z-1.6609
G01 X53.0885 Y52.9022 Z-1.6374
G01 X53.1296 Y52.8939 Z-1.6174
G01 X53.1761 Y52.8861 Z-1.5986
G01 X53.2221 Y52.8800 Z-1.5840
G01 X53.2678 Y52.8756 Z-1.5734
G01 X53.3188 Y52.8726 Z-1.5661
G01 X53.3697 Y52.8716 Z-1.5637
G01 X53.4200
G01 X53.5205
G01 X53.6210
G01 X53.7215
G01 X53.8220
G01 X53.9225
G01 X54.0230
G01 X54.1235
G01 X54.2240
G01 X54.3245
G01 X54.4251
G01 X54.5256
G01 X54.6261
G01 X54.7266
G01 X54.8271
G01 X54.9276
G01 X55.0281
G01 X55.1286
G01 X55.2291
G01 X55.3296
G01 X55.4301
G01 X55.5306
G01 X55.6311
G01 X55.7316
G01 X55.8322
G01 X55.9327
G01 X56.0332
G01 X56.1337
G01 X56.2342
G01 X56.3347
G01 X56.4352
G01 X56.5357
G01 X56.6362
G01 X56.7367
G01 X56.8372
G01 X56.9377
G01 X57.0382
G01 X57.1388
G01 X57.2393
G01 X57.3398
G01 X57.4403
G01 X57.5408
G01 X57.6413
G01 X57.7418
G01 X57.8203 Y52.8719 Z-1.5645
G01 X57.8770 Y52.8744 Z-1.5704
G01 X57.9339 Y52.8794 Z-1.5825
G01 X57.9914 Y52.8870 Z-1.6008
G01 X58.0556 Y52.8984 Z-1.6284
G01 X58.1210 Y52.9134 Z-1.6646
G01 X58.1881 Y52.9322 Z-1.7099
G01 X58.2635 Y52.9574 Z-1.7709
G01 X58.3225 Y52.9889 Z-1.8110
G01 X58.3380 Y53.0278 Z-1.7735
G01 X58.3520 Y53.0659 Z-1.7396
G01 X58.3647 Y53.1033 Z-1.7089
G01 X58.3779 Y53.1461 Z-1.6771
G01 X58.3895 Y53.1882 Z-1.6491
G01 X58.3995 Y53.2296 Z-1.6249
G01 X58.4081 Y53.2704 Z-1.6042
G01 X58.4163 Y53.3165 Z-1.5845
G01 X58.4227 Y53.3621 Z-1.5691
G01 X58.4279 Y53.4129 Z-1.5564
G01 X58.4311 Y53.4634 Z-1.5487
G01 X58.4323 Y53.5137 Z-1.5458
G01 Y53.5689 Z-1.5457
G01 Y53.6680
G01 Y53.7672
G01 Y53.8663
G01 Y53.9654
G01 Y54.0646
G01 Y54.1637
G01 Y54.2629
G01 Y54.3620
G01 Y54.4611
G01 Y54.5603
G01 Y54.6594
G01 Y54.7585
G01 X58.3373 Y54.8577 Z-1.3163
G01 X58.2382 Y54.9568 Z-1.0770
G01 X58.1390 Y55.0559 Z-0.8377
G01 X58.0399 Y55.1551 Z-0.5983
G01 X57.9408 Y55.2542 Z-0.3590
G01 X57.8416 Y55.3534 Z-0.1197
G01 X57.7920 Y55.4029 Z0.0000
G01 X57.8413 Y55.3537 Z-0.1189
G01 X57.9398 Y55.2552 Z-0.3567
G01 X58.0383 Y55.1567 Z-0.5945
G01 X58.2353 Y54.9597 Z-1.0701
G01 X58.4323 Y54.7626 Z-1.5457
G01 X58.5308 Y54.8612 Z-1.3079
G01 X58.6293 Y54.9597 Z-1.0701
G01 X58.7278 Y55.0582 Z-0.8323
G01 X58.8263 Y55.1567 Z-0.5945
G01 X58.9248 Y55.2552 Z-0.3567
G01 X59.0233 Y55.3537 Z-0.1189
G01 X59.0726 Y55.4029 Z0.0000
G01 X59.0229 Y55.3532 Z-0.1199
G01 X58.9236 Y55.2539 Z-0.3598
G01 X58.8242 Y55.1546 Z-0.5996
G01 X58.6255 Y54.9559 Z-1.0793
G01 X58.4323 Y54.7572 Z-1.5457
G01 Y54.6578
G01 Y54.5585
G01 Y54.4591
G01 Y54.3598
G01 Y54.2605
G01 Y54.1611
G01 Y54.0618
G01 Y53.9624
G01 Y53.8631
G01 Y53.7637
G01 Y53.6644
G01 Y53.5651
G01 X58.4312 Y53.4657 Z-1.5485
G01 X58.4232 Y53.3664 Z-1.5678
G01 X58.4075 Y53.2670 Z-1.6058
G01 X58.3840 Y53.1677 Z-1.6623
G01 X58.3529 Y53.0683 Z-1.7375
G01 X58.3275 Y52.9690 Z-1.7988
G01 X58.4269 Y52.8696 Z-1.5589
G01 X58.5262 Y52.7703 Z-1.3191
G01 X58.6255 Y52.6710 Z-1.0793
G01 X58.7249 Y52.5716 Z-0.8394
G01 X58.8242 Y52.4723 Z-0.5996
G01 X58.9236 Y52.3729 Z-0.3598
G01 X59.0229 Y52.2736 Z-0.1199
G01 X59.0726 Y52.2239 Z0.0000
G01 X59.0226 Y52.2739 Z-0.1208
G01 X58.9225 Y52.3740 Z-0.3624
G01 X58.8224 Y52.4741 Z-0.6040
G01 X58.7223 Y52.5742 Z-0.8456
G01 X58.5222 Y52.7743 Z-1.3288
G01 X58.3220 Y52.9745 Z-1.8120
G01 X58.2220 Y52.9430 Z-1.7359
G01 X58.1219 Y52.9136 Z-1.6651
G01 X58.0218 Y52.8920 Z-1.6129
G01 X57.9217 Y52.8781 Z-1.5794
G01 X57.8217 Y52.8720 Z-1.5645
G01 X57.7216 Y52.8716 Z-1.5637
G01 X57.6215
G01 X57.5214
G01 X57.4214
G01 X57.3213
G01 X57.2212
G01 X57.1211
G01 X57.0211
G01 X56.9210
G01 X56.8209
G01 X56.7208
G01 X56.6208
G01 X56.5207
G01 X56.4206
G01 X56.3205
G01 X56.2205
G01 X56.1204
G01 X56.0203
G01 X55.9202
G01 X55.8202
G01 X55.7201
G01 X55.6200
G01 X55.5199
G01 X55.4199
G01 X55.3198
G01 X55.2197
G01 X55.1196
G01 X55.0196
G01 X54.9195
G01 X54.8194
G01 X54.7193
G01 X54.6193
G01 X54.5192
G01 X54.4191
G01 X54.3190
G01 X54.2190
G01 X54.1189
G01 X54.0188
G01 X53.9188
G01 X53.8187
G01 X53.7186
G01 X53.6185
G01 X53.5185
G01 X53.4184
G01 X53.3183 Y52.8726 Z-1.5662
G01 X53.2182 Y52.8805 Z-1.5851
G01 X53.1182 Y52.8960 Z-1.6227
G01 X53.0181 Y52.9193 Z-1.6789
G01 X52.9180 Y52.9504 Z-1.7539
G01 X52.8179 Y52.9891 Z-1.8474
G01 X52.7179 Y53.0356 Z-1.9597
G01 X52.6178 Y53.0899 Z-2.0906
G01 X52.5177 Y53.0670 Z-2.0353
G01 X52.4176 Y53.0159 Z-1.9120
G01 X52.3176 Y52.9725 Z-1.8073
G01 X52.2175 Y52.9369 Z-1.7213
G01 X52.1174 Y52.9090 Z-1.6539
G01 X52.0173 Y52.8888 Z-1.6052
G01 X51.9173 Y52.8764 Z-1.5752
G01 X51.8172 Y52.8717 Z-1.5638
G01 X51.7171 Y52.8716 Z-1.5637
G01 X51.6170
G01 X51.5170
G01 X51.4169
G01 X51.3168
G01 X51.2167
G01 X51.1167
G01 X51.0166 Y52.7743 Z-1.3288
G01 X50.9165 Y52.6742 Z-1.0872
G01 X50.8164 Y52.5742 Z-0.8456
G01 X50.7164 Y52.4741 Z-0.6040
G01 X50.6163 Y52.3740 Z-0.3624
G01 X50.5162 Y52.2739 Z-0.1208
G01 X50.4662 Y52.2239 Z0.0000
G01 X50.5160 Y52.2737 Z-0.1203
G01 X50.6157 Y52.3734 Z-0.3609
G01 X50.7153 Y52.4730 Z-0.6014
G01 X50.9146 Y52.6723 Z-1.0826
G01 X51.1139 Y52.8716 Z-1.5637
G01 X51.0142 Y52.9713 Z-1.3231
G01 X50.9146 Y53.0709 Z-1.0826
G01 X50.8149 Y53.1706 Z-0.8420
G01 X50.7153 Y53.2702 Z-0.6014
G01 X50.6157 Y53.3699 Z-0.3609
G01 X50.5160 Y53.4695 Z-0.1203
G01 X50.4662 Y53.5193 Z0.0000
G00 Z5.0000
G00 X61.0778 Y40.3381
G01 Z-1.2427
G01 Y40.2381
G01 Y40.1381
G01 Y40.0380
G01 Y39.9380
G01 Y39.8380
G01 Y39.7379
G01 Y39.6379
G01 Y39.5379
G01 Y39.4379
G01 Y39.3378
G01 Y39.2378
G01 Y39.1378
G01 Y39.0377
G01 Y38.9377
G01 Y38.8377
G01 Y38.7377
G01 Y38.6376
G01 Y38.5376
G01 Y38.4376
G01 Y38.3375
G01 Y38.2375
G01 Y38.1375
G01 Y38.0375
G01 Y37.9374
G01 Y37.8374
G01 X61.0781 Y37.7508 Z-1.2430
G01 X61.0787 Y37.6788 Z-1.2436
G01 X61.0797 Y37.6093 Z-1.2444
G01 X61.0813 Y37.5422 Z-1.2454
G01 X61.0832 Y37.4777 Z-1.2467
G01 X61.0857 Y37.4157 Z-1.2483
G01 X61.0886 Y37.3562 Z-1.2502
G01 X61.0921 Y37.2993 Z-1.2526
G01 X61.0961 Y37.2450 Z-1.2555
G01 X61.1006 Y37.1933 Z-1.2589
G01 X61.1057 Y37.1444 Z-1.2629
G01 X61.1175 Y37.0550 Z-1.2729
G01 X61.1314 Y36.9774 Z-1.2855
G01 X61.1463 Y36.9124 Z-1.2994
G01 X61.1612 Y36.8611 Z-1.3128
G01 X61.1778 Y36.8153 Z-1.3263
G01 X61.2021 Y36.7661 Z-1.3361
G01 X61.2338 Y36.7190 Z-1.3382
G01 X61.2700 Y36.6769 Z-1.3343
G01 X61.3210 Y36.6292 Z-1.3255
G01 X61.3681 Y36.5944 Z-1.3135
G01 X61.4326 Y36.5572 Z-1.2932
G01 X61.4934 Y36.5300 Z-1.2730
G01 X61.5667 Y36.5050 Z-1.2494
G01 X61.6229 Y36.4904 Z-1.2323
G01 X61.6852 Y36.4782 Z-1.2152
G01 X61.7535 Y36.4689 Z-1.1983
G01 X61.8176 Y36.4637 Z-1.1846
G01 X61.8796 Y36.4615 Z-1.1726
G01 X61.9420 Y36.4620 Z-1.1620
G01 X62.0049 Y36.4651 Z-1.1518
G01 X62.0682 Y36.4705 Z-1.1417
G01 X62.2269 Y36.3628 Z-0.8100
G01 X62.3697 Y36.2532 Z-0.4654
G01 X62.4761 Y36.1749 Z-0.2085
G01 X62.5330 Y36.1341 Z-0.0711
G01 X62.5624 Y36.1132 Z0.0000
G01 X62.4895 Y36.1652 Z-0.1761
G01 X62.3481 Y36.2694 Z-0.5176
G01 X62.2133 Y36.3735 Z-0.8429
G01 X62.0956 Y36.4777 Z-1.1272
G01 X62.2834 Y36.6860 Z-0.6736
G01 X62.3695 Y36.7901 Z-0.4658
G01 X62.4504 Y36.8943 Z-0.2704
G01 X62.5263 Y36.9984 Z-0.0873
G01 X62.5624 Y37.0505 Z0.0000
G01 X62.5522 Y37.0357 Z-0.0246
G01 X62.5315 Y37.0058 Z-0.0748
G01 X62.5101 Y36.9756 Z-0.1264
G01 X62.4881 Y36.9452 Z-0.1794
G01 X62.4655 Y36.9145 Z-0.2340
G01 X62.4422 Y36.8834 Z-0.2903
G01 X62.4182 Y36.8520 Z-0.3483
G01 X62.3934 Y36.8202 Z-0.4082
G01 X62.3677 Y36.7880 Z-0.4700
G01 X62.3413 Y36.7553 Z-0.5339
G01 X62.3139 Y36.7222 Z-0.6000
G01 X62.2856 Y36.6886 Z-0.6683
G01 X62.2563 Y36.6544 Z-0.7391
G01 X62.2259 Y36.6197 Z-0.8124
G01 X62.1944 Y36.5844 Z-0.8884
G01 X62.1618 Y36.5485 Z-0.9672
G01 X62.1279 Y36.5120 Z-1.0490
G01 X62.0928 Y36.4748 Z-1.1338
G01 X62.0178 Y36.4660 Z-1.1499
G01 X61.9397 Y36.4620 Z-1.1624
G01 X61.8597 Y36.4619 Z-1.1764
G01 X61.7779 Y36.4665 Z-1.1930
G01 X61.6931 Y36.4769 Z-1.2132
G01 X61.6044 Y36.4948 Z-1.2380
G01 X61.5584 Y36.5075 Z-1.2521
G01 X61.5115 Y36.5232 Z-1.2672
G01 X61.4638 Y36.5425 Z-1.2830
G01 X61.4158 Y36.5660 Z-1.2988
G01 X61.3683 Y36.5942 Z-1.3134
G01 X61.3226 Y36.6279 Z-1.3252
G01 X61.2797 Y36.6670 Z-1.3329
G01 X61.2404 Y36.7107 Z-1.3379
G01 X61.2063 Y36.7590 Z-1.3370
G01 X61.1795 Y36.8114 Z-1.3274
G01 X61.1527 Y36.8895 Z-1.3053
G01 X61.1299 Y36.9846 Z-1.2842
G01 X61.1154 Y37.0691 Z-1.2711
G01 X61.1050 Y37.1514 Z-1.2623
G01 X61.0969 Y37.2357 Z-1.2561
G01 X61.0905 Y37.3245 Z-1.2516
G01 X61.0855 Y37.4194 Z-1.2482
G01 X61.0818 Y37.5213 Z-1.2458
G01 X61.0804 Y37.5751 Z-1.2450
G01 X61.0794 Y37.6308 Z-1.2442
G01 X61.0786 Y37.6885 Z-1.2435
G01 X61.0781 Y37.7483 Z-1.2431
G01 X61.0779 Y37.8101 Z-1.2428
G01 X61.0778 Y37.8925 Z-1.2427
G01 Y37.9944
G01 Y38.0962
G01 Y38.1981
G01 Y38.2999
G01 Y38.4018
G01 Y38.5037
G01 Y38.6055
G01 Y38.7074
G01 Y38.8093
G01 Y38.9111
G01 Y39.0130
G01 Y39.1148
G01 Y39.2167
G01 Y39.3186
G01 Y39.4204
G01 Y39.5223
G01 Y39.6242
G01 Y39.7260
G01 Y39.8279
G01 Y39.9297
G01 Y40.0316
G01 Y40.1335
G01 Y40.2353
G01 Y40.3372
G01 Y40.3881
G01 Y40.4377 Z-1.2484
G01 Y40.4835 Z-1.2638
G01 Y40.5260 Z-1.2865
G01 Y40.5654 Z-1.3143
G01 Y40.6066 Z-1.3500
G01 Y40.6448 Z-1.3886
G01 Y40.6793 Z-1.4278
G01 Y40.7160 Z-1.4734
G01 Y40.7485 Z-1.5170
G01 Y40.7831 Z-1.5663
G01 Y40.8200 Z-1.6222
G01 X61.1875 Y40.8460 Z-1.4758
G01 X61.3120 Z-1.2964
G01 X61.4076 Z-1.1921
G01 X61.4827 Z-1.1367
G01 X61.5404 Z-1.1125
G01 X61.5926 Z-1.1053
G01 X61.6411
G01 X61.7381
G01 X61.8350
G01 X61.9320
G01 X62.0290
G01 X62.1260 Y40.8246 Z-1.0537
G01 X62.3200 Y40.6306 Z-0.5854
G01 X62.4170 Y40.5336 Z-0.3512
G01 X62.5139 Y40.4366 Z-0.1171
G01 X62.5624 Y40.3881 Z0.0000
G01 X62.5116 Y40.4390 Z-0.1228
G01 X62.4098 Y40.5407 Z-0.3684
G01 X62.3081 Y40.6425 Z-0.6141
G01 X62.2063 Y40.7442 Z-0.8597
G01 X62.1046 Y40.8460 Z-1.1053
G01 X62.3081 Y41.0494 Z-0.6141
G01 X62.4098 Y41.1512 Z-0.3684
G01 X62.5116 Y41.2529 Z-0.1228
G01 X62.5624 Y41.3038 Z0.0000
G01 X62.5139 Y41.2553 Z-0.1171
G01 X62.4170 Y41.1583 Z-0.3512
G01 X62.3200 Y41.0613 Z-0.5854
G01 X62.2230 Y40.9644 Z-0.8195
G01 X62.1260 Y40.8674 Z-1.0537
G01 X62.0290 Y40.8460 Z-1.1053
G01 X61.9320
G01 X61.8350
G01 X61.7381
G01 X61.6411
G01 X61.5926
G01 X61.5485 Z-1.1104
G01 X61.5036 Z-1.1260
G01 X61.4613 Z-1.1499
G01 X61.4214 Z-1.1801
G01 X61.3839 Z-1.2147
G01 X61.3491 Z-1.2519
G01 X61.3120 Z-1.2964
G01 X61.2779 Z-1.3412
G01 X61.2413 Z-1.3932
G01 X61.2084 Z-1.4429
G01 X61.1730 Z-1.4992
G01 X61.1427 Z-1.5497
G01 X61.1101 Z-1.6057
G01 X61.0778 Y40.8484 Z-1.6592
G01 Y40.9759 Z-1.4734
G01 Y41.0746 Z-1.3603
G01 Y41.1513 Z-1.2960
G01 Y41.2177 Z-1.2599
G01 Y41.2768 Z-1.2444
G01 Y41.3524 Z-1.2427
G01 Y41.4496
G01 Y41.5469
G01 Y41.6441
G01 Y41.7413
G01 Y41.8386
G01 X61.1004 Y41.9358 Z-1.1882
G01 X61.1432 Y42.0330 Z-1.0849
G01 X61.1860 Y42.1302 Z-0.9816
G01 X61.2288 Y42.2275 Z-0.8782
G01 X61.2716 Y42.3247 Z-0.7749
G01 X61.3144 Y42.4219 Z-0.6716
G01 X61.3572 Y42.5191 Z-0.5683
G01 X61.4000 Y42.6164 Z-0.4650
G01 X61.4428 Y42.7136 Z-0.3616
G01 X61.4856 Y42.8108 Z-0.2583
G01 X61.5284 Y42.9080 Z-0.1550
G01 X61.5712 Y43.0053 Z-0.0517
G01 X61.5926 Y43.0539 Z0.0000
G01 X61.5706 Y43.0040 Z-0.0530
G01 X61.5267 Y42.9043 Z-0.1589
G01 X61.4828 Y42.8046 Z-0.2649
G01 X61.4390 Y42.7049 Z-0.3709
G01 X61.3951 Y42.6052 Z-0.4768
G01 X61.3512 Y42.5055 Z-0.5828
G01 X61.3073 Y42.4058 Z-0.6887
G01 X61.2634 Y42.3061 Z-0.7947
G01 X61.2195 Y42.2064 Z-0.9007
G01 X61.1756 Y42.1067 Z-1.0066
G01 X61.1317 Y42.0069 Z-1.1126
G01 X61.0878 Y41.9072 Z-1.2185
G01 X60.5631 Y42.1111 Z0.0000
G01 X60.6777 Y42.0607 Z-0.2767
G01 X60.9070 Y41.9597 Z-0.8302
G01 X61.0778 Y41.8588 Z-1.2427
G01 Y41.7579
G01 Y41.6570
G01 Y41.5561
G01 Y41.4552
G01 Y41.3543
G01 Y41.3038
G01 Y41.2542 Z-1.2484
G01 Y41.2084 Z-1.2638
G01 Y41.1659 Z-1.2865
G01 Y41.1266 Z-1.3143
G01 Y41.0853 Z-1.3500
G01 Y41.0472 Z-1.3886
G01 Y41.0126 Z-1.4278
G01 Y40.9759 Z-1.4734
G01 Y40.9434 Z-1.5170
G01 Y40.9088 Z-1.5663
G01 Y40.8719 Z-1.6222
G01 X60.9682 Y40.8460 Z-1.4758
G01 X60.8437 Z-1.2964
G01 X60.7481 Z-1.1921
G01 X60.6730 Z-1.1367
G01 X60.6153 Z-1.1125
G01 X60.5631 Z-1.1053
G01 X60.5144
G01 X60.4168
G01 X60.3193 Y40.8649 Z-1.0595
G01 X60.1242 Y41.0600 Z-0.5886
G01 X60.0267 Y41.1575 Z-0.3532
G01 X59.9292 Y41.2550 Z-0.1177
G01 X59.8804 Y41.3038 Z0.0000
G01 X59.9313 Y41.2529 Z-0.1228
G01 X60.0330 Y41.1512 Z-0.3684
G01 X60.1348 Y41.0494 Z-0.6141
G01 X60.2365 Y40.9477 Z-0.8597
G01 X60.3383 Y40.8460 Z-1.1053
G01 X60.1348 Y40.6425 Z-0.6141
G01 X60.0330 Y40.5407 Z-0.3684
G01 X59.9313 Y40.4390 Z-0.1228
G01 X59.8804 Y40.3881 Z0.0000
G00 Z5.0000
G00 X63.1840 Y36.9220
G01 Z-0.1272
G01 X63.2894 Y36.8166 Z-0.3815
G01 X63.3947 Y36.7113 Z-0.6359
G01 X63.5001 Y36.6059 Z-0.8902
G01 X63.6054 Y36.5168 Z-1.1053
G01 X63.7108
G01 X63.8162
G01 X63.9215
G01 X64.0269
G01 X64.0995 Y36.5170 Z-1.1058
G01 X64.1516 Y36.5196 Z-1.1122
G01 X64.2042 Y36.5253 Z-1.1258
G01 X64.2617 Y36.5349 Z-1.1491
G01 X64.3249 Y36.5497 Z-1.1847
G01 X64.3948 Y36.5711 Z-1.2364
G01 X64.4682 Y36.5993 Z-1.3045
G01 X64.5511 Y36.6383 Z-1.3985
G01 X64.5943 Y36.6834 Z-1.4278
G01 Y36.7180 Z-1.3886
G01 Y36.7562 Z-1.3500
G01 Y36.7974 Z-1.3143
G01 Y36.8367 Z-1.2865
G01 Y36.8793 Z-1.2638
G01 Y36.9251 Z-1.2484
G01 Y36.9747 Z-1.2427
G01 Y37.0247
G01 Y37.1248
G01 Y37.2249
G01 Y37.3250
G01 Y37.4251
G01 Y37.5252
G01 Y37.6253
G01 Y37.7254
G01 Y37.8255
G01 Y37.9255
G01 Y38.0256
G01 Y38.1257
G01 Y38.2258
G01 Y38.3259
G01 Y38.4260
G01 Y38.5261
G01 Y38.6262
G01 Y38.7263
G01 Y38.8264
G01 Y38.9265
G01 Y39.0266
G01 Y39.1267
G01 Y39.2268
G01 Y39.3269
G01 Y39.4270
G01 Y39.5271
G01 Y39.6272
G01 Y39.7272
G01 Y39.8273
G01 X64.5975 Y39.9274 Z-1.2504
G01 X64.6102 Y40.0275 Z-1.2812
G01 X64.6327 Y40.1276 Z-1.3355
G01 X64.6649 Y40.2277 Z-1.4132
G01 X64.6624 Y40.3278 Z-1.4072
G01 X64.6309 Y40.4279 Z-1.3310
G01 X64.6090 Y40.5280 Z-1.2783
G01 X64.5969 Y40.6281 Z-1.2491
G01 X64.5943 Y40.7282 Z-1.2427
G01 Y40.8283
G01 Y40.9284
G01 Y41.0285
G01 Y41.1286
G01 Y41.2287
G01 Y41.3288
G01 Y41.4288
G01 Y41.5289
G01 Y41.6290
G01 Y41.7291
G01 Y41.8292
G01 Y41.9293
G01 Y42.0294
G01 Y42.1295
G01 Y42.2296
G01 Y42.3297
G01 Y42.4298
G01 Y42.5299
G01 Y42.6300
G01 Y42.6800
G01 X64.5929 Y42.7340 Z-1.2461
G01 X64.5886 Y42.7882 Z-1.2564
G01 X64.5806 Y42.8477 Z-1.2756
G01 X64.5679 Y42.9130 Z-1.3063
G01 X64.5505 Y42.9801 Z-1.3482
G01 X64.5212 Y43.0314 Z-1.3625
G01 X64.4872 Y43.0471 Z-1.3244
G01 X64.4495 Y43.0631 Z-1.2858
G01 X64.4128 Y43.0772 Z-1.2518
G01 X64.3771 Y43.0895 Z-1.2220
G01 X64.3378 Y43.1015 Z-1.1932
G01 X64.2994 Y43.1115 Z-1.1690
G01 X64.2575 Y43.1206 Z-1.1471
G01 X64.2164 Y43.1276 Z-1.1300
G01 X64.1717 Y43.1332 Z-1.1165
G01 X64.1275 Y43.1366 Z-1.1084
G01 X64.0795 Y43.1379 Z-1.1053
G01 X64.0269
G01 X63.9215
G01 X63.8162
G01 X63.7108
G01 X63.6054
G01 X63.5001 Y43.0488 Z-0.8902
G01 X63.3947 Y42.9434 Z-0.6359
G01 X63.2894 Y42.8381 Z-0.3815
G01 X63.1840 Y42.7327 Z-0.1272
G01 X63.1313 Y42.6800 Z0.0000
G01 X63.1822 Y42.7309 Z-0.1228
G01 X63.2840 Y42.8326 Z-0.3684
G01 X63.3857 Y42.9344 Z-0.6141
G01 X63.5892 Y43.1379 Z-1.1053
G01 X63.4874 Y43.2396 Z-0.8597
G01 X63.3857 Y43.3414 Z-0.6141
G01 X63.2840 Y43.4431 Z-0.3684
G01 X63.1822 Y43.5448 Z-0.1228
G01 X63.1313 Y43.5957 Z0.0000
G01 X63.1808 Y43.5463 Z-0.1194
G01 X63.2797 Y43.4474 Z-0.3581
G01 X63.3786 Y43.3485 Z-0.5968
G01 X63.5763 Y43.1507 Z-1.0743
G01 X63.6752 Y43.1379 Z-1.1053
G01 X63.7741
G01 X63.8730
G01 X63.9718
G01 X64.0707
G01 X64.1696 Y43.1334 Z-1.1160
G01 X64.2685 Y43.1184 Z-1.1524
G01 X64.3674 Y43.0926 Z-1.2145
G01 X64.4663 Y43.0562 Z-1.3025
G01 X64.5651 Y43.0519 Z-1.3130
G01 X64.6640 Y43.1507 Z-1.0743
G01 X64.7629 Y43.2496 Z-0.8355
G01 X64.8618 Y43.3485 Z-0.5968
G01 X64.9607 Y43.4474 Z-0.3581
G01 X65.0596 Y43.5463 Z-0.1194
G01 X65.1090 Y43.5957 Z0.0000
G01 X65.0591 Y43.5458 Z-0.1204
G01 X64.9593 Y43.4461 Z-0.3613
G01 X64.8596 Y43.3463 Z-0.6022
G01 X64.7598 Y43.2465 Z-0.8430
G01 X64.5603 Y43.0470 Z-1.3248
G01 X64.5596 Y42.9472 Z-1.3264
G01 X64.5807 Y42.8474 Z-1.2755
G01 X64.5920 Y42.7477 Z-1.2480
G01 X64.5943 Y42.6479 Z-1.2427
G01 Y42.5481
G01 Y42.4484
G01 Y42.3486
G01 Y42.2488
G01 Y42.1490
G01 Y42.0493
G01 Y41.9495
G01 Y41.8497
G01 Y41.7500
G01 Y41.6502
G01 Y41.5504
G01 Y41.4507
G01 Y41.3509
G01 Y41.2511
G01 Y41.1513
G01 Y41.0516
G01 Y40.9518
G01 Y40.8520
G01 Y40.7523
G01 X64.5950 Y40.6640 Z-1.2444
G01 X64.5984 Y40.6099 Z-1.2527
G01 X64.6054 Y40.5507 Z-1.2697
G01 X64.6161 Y40.4904 Z-1.2953
G01 X64.6319 Y40.4240 Z-1.3336
G01 X64.6528 Y40.3553 Z-1.3839
G01 X64.6816 Y40.2784 Z-1.4534
G01 X64.7135 Y40.2743 Z-1.4069
G01 X64.7468 Z-1.3536
G01 X64.7837 Z-1.2979
G01 X64.8178 Y40.2745 Z-1.2495
G01 X64.8552 Y40.2756 Z-1.1988
G01 X64.8904 Y40.2777 Z-1.1531
G01 X64.9236 Y40.2807 Z-1.1121
G01 X64.9549 Y40.2844 Z-1.0755
G01 X64.9887 Y40.2893 Z-1.0386
G01 X65.0207 Y40.2952 Z-1.0060
G01 X65.0510 Y40.3018 Z-0.9772
G01 X65.0834 Y40.3100 Z-0.9494
G01 X65.1141 Y40.3189 Z-0.9259
G01 X65.1434 Y40.3287 Z-0.9060
G01 X65.1745 Y40.3405 Z-0.8878
G01 X65.2043 Y40.3531 Z-0.8741
G01 X65.2358 Y40.3681 Z-0.8632
G01 X65.2660 Y40.3843 Z-0.8564
G01 X65.2979 Y40.4032 Z-0.8542
G01 X65.3288 Y40.4237 Z-0.8570
G01 X65.3772 Y40.4574 Z-0.8655
G01 X65.4670 Y40.5179 Z-0.8821
G01 X65.5555 Y40.5745 Z-0.8982
G01 X65.6427 Y40.6274 Z-0.9138
G01 X65.7286 Y40.6764 Z-0.9291
G01 X65.8131 Y40.7215 Z-0.9440
G01 X65.8962 Y40.7629 Z-0.9587
G01 X65.9779 Y40.8005 Z-0.9731
G01 X66.0581 Y40.8344 Z-0.9873
G01 X66.1369 Y40.8646 Z-1.0013
G01 X66.2140 Y40.8911 Z-1.0151
G01 X66.2897 Y40.9141 Z-1.0288
G01 X66.3637 Y40.9335 Z-1.0427
G01 X66.4362 Y40.9493 Z-1.0566
G01 X66.5071 Y40.9619 Z-1.0703
G01 X66.5764 Y40.9713 Z-1.0838
G01 X66.6441 Y40.9777 Z-1.0968
G01 X66.7103 Y40.9807 Z-1.1106
G01 X66.7752 Y40.9806 Z-1.1247
G01 X66.8907 Y40.9724 Z-1.1527
G01 X66.9705 Y40.9608 Z-1.1745
G01 X67.0443 Y40.9457 Z-1.1971
G01 X67.1120 Y40.9278 Z-1.2194
G01 X67.1738 Y40.9077 Z-1.2408
G01 X67.2555 Y40.8746 Z-1.2698
G01 X67.3254 Y40.8396 Z-1.2938
G01 X67.3851 Y40.8035 Z-1.3121
G01 X67.4381 Y40.7655 Z-1.3253
G01 X67.4886 Y40.7233 Z-1.3355
G01 X67.5306 Y40.6824 Z-1.3416
G01 X67.5660 Y40.6423 Z-1.3439
G01 X67.5965 Y40.6017 Z-1.3426
G01 X67.6238 Y40.5589 Z-1.3377
G01 X67.6492 Y40.5117 Z-1.3288
G01 X67.6696 Y40.4665 Z-1.3186
G01 X67.6879 Y40.4209 Z-1.3087
G01 X67.7069 Y40.3650 Z-1.2968
G01 X67.7256 Y40.2992 Z-1.2844
G01 X67.7426 Y40.2239 Z-1.2731
G01 X67.7569 Y40.1393 Z-1.2649
G01 X67.7681 Y40.0460 Z-1.2597
G01 X67.7728 Y39.9962 Z-1.2579
G01 X67.7767 Y39.9444 Z-1.2563
G01 X67.7801 Y39.8905 Z-1.2549
G01 X67.7830 Y39.8347 Z-1.2534
G01 X67.7853 Y39.7769 Z-1.2519
G01 X67.7871 Y39.7171 Z-1.2504
G01 X67.7884 Y39.6555 Z-1.2486
G01 X67.7895 Y39.5732 Z-1.2463
G01 X67.7904 Y39.4713 Z-1.2442
G01 X67.7909 Y39.3694 Z-1.2430
G01 X67.7910 Y39.2675 Z-1.2427
G01 Y39.1656
G01 Y39.0637
G01 Y38.9618
G01 Y38.8599
G01 Y38.7580
G01 Y38.6561
G01 Y38.5542
G01 Y38.4523
G01 Y38.3504
G01 Y38.2485
G01 Y38.1465
G01 Y38.0446
G01 Y37.9427
G01 Y37.8408
G01 Y37.7389
G01 Y37.6370
G01 Y37.5351
G01 Y37.4332
G01 Y37.3313
G01 Y37.2294
G01 Y37.1275
G01 Y37.0256
G01 Y36.9747
G01 X67.7924 Y36.9207 Z-1.2461
G01 X67.7967 Y36.8665 Z-1.2564
G01 X67.8047 Y36.8070 Z-1.2756
G01 X67.8174 Y36.7417 Z-1.3063
G01 X67.8347 Y36.6746 Z-1.3482
G01 X67.8641 Y36.6233 Z-1.3625
G01 X67.8981 Y36.6076 Z-1.3244
G01 X67.9358 Y36.5915 Z-1.2858
G01 X67.9725 Y36.5775 Z-1.2517
G01 X68.0082 Y36.5651 Z-1.2220
G01 X68.0475 Y36.5532 Z-1.1932
G01 X68.0859 Y36.5432 Z-1.1690
G01 X68.1278 Y36.5341 Z-1.1471
G01 X68.1689 Y36.5270 Z-1.1300
G01 X68.2135 Y36.5215 Z-1.1165
G01 X68.2578 Y36.5181 Z-1.1084
G01 X68.3057 Y36.5168 Z-1.1053
G01 X68.3554
G01 X68.4547
G01 X68.5541
G01 X68.6534
G01 X68.7527 Y36.5276 Z-1.0792
G01 X68.8521 Y36.6270 Z-0.8393
G01 X68.9514 Y36.7263 Z-0.5995
G01 X69.0507 Y36.8257 Z-0.3597
G01 X69.1501 Y36.9250 Z-0.1199
G01 X69.1997 Y36.9747 Z0.0000
G01 X69.1489 Y36.9238 Z-0.1228
G01 X69.0471 Y36.8220 Z-0.3684
G01 X68.9454 Y36.7203 Z-0.6141
G01 X68.7419 Y36.5168 Z-1.1053
G01 X68.8437 Y36.4151 Z-0.8597
G01 X68.9454 Y36.3133 Z-0.6141
G01 X69.0471 Y36.2116 Z-0.3684
G01 X69.1489 Y36.1098 Z-0.1228
G01 X69.1997 Y36.0590 Z0.0000
G01 X69.1491 Y36.1096 Z-0.1222
G01 X69.0479 Y36.2108 Z-0.3666
G01 X68.9467 Y36.3121 Z-0.6110
G01 X68.7442 Y36.5145 Z-1.0998
G01 X68.6430 Y36.5168 Z-1.1053
G01 X68.5417
G01 X68.4405
G01 X68.3392
G01 X68.2380 Y36.5193 Z-1.1114
G01 X68.1368 Y36.5324 Z-1.1430
G01 X68.0355 Y36.5567 Z-1.2016
G01 X67.9343 Y36.5921 Z-1.2872
G01 X67.8331 Y36.6158 Z-1.3442
G01 X67.7318 Y36.5145 Z-1.0998
G01 X67.6306 Y36.4133 Z-0.8554
G01 X67.5294 Y36.3121 Z-0.6110
G01 X67.4281 Y36.2108 Z-0.3666
G01 X67.3269 Y36.1096 Z-0.1222
G01 X67.2763 Y36.0590 Z0.0000
G00 Z5.0000
G00 X64.6323 Y36.6409
G01 Z-1.4049
G01 X64.6673 Y36.6233 Z-1.3625
G01 X64.7013 Y36.6076 Z-1.3244
G01 X64.7390 Y36.5915 Z-1.2858
G01 X64.7757 Y36.5775 Z-1.2517
G01 X64.8115 Y36.5651 Z-1.2220
G01 X64.8507 Y36.5532 Z-1.1932
G01 X64.8892 Y36.5432 Z-1.1690
G01 X64.9310 Y36.5341 Z-1.1471
G01 X64.9721 Y36.5270 Z-1.1300
G01 X65.0168 Y36.5215 Z-1.1165
G01 X65.0610 Y36.5181 Z-1.1084
G01 X65.1090 Y36.5168 Z-1.1053
G01 X65.1596
G01 X65.2607
G01 X65.3618
G01 X65.4630
G01 X65.5641 Y36.5195 Z-1.0988
G01 X65.6653 Y36.6207 Z-0.8546
G01 X65.7664 Y36.7218 Z-0.6104
G01 X65.8675 Y36.8229 Z-0.3663
G01 X65.9687 Y36.9241 Z-0.1221
G01 X66.0193 Y36.9747 Z0.0000
G01 X65.9684 Y36.9238 Z-0.1228
G01 X65.8666 Y36.8220 Z-0.3684
G01 X65.7649 Y36.7203 Z-0.6141
G01 X65.5614 Y36.5168 Z-1.1053
G01 X65.6632 Y36.4151 Z-0.8597
G01 X65.7649 Y36.3133 Z-0.6141
G01 X65.8666 Y36.2116 Z-0.3684
G01 X65.9684 Y36.1098 Z-0.1228
G01 X66.0193 Y36.0590 Z0.0000
G01 X65.9695 Y36.1088 Z-0.1202
G01 X65.8699 Y36.2083 Z-0.3606
G01 X65.7703 Y36.3079 Z-0.6010
G01 X65.5711 Y36.5071 Z-1.0819
G01 X65.4715 Y36.5168 Z-1.1053
G01 X65.3720
G01 X65.2724
G01 X65.1728
G01 X65.0732 Y36.5175 Z-1.1070
G01 X64.9736 Y36.5268 Z-1.1295
G01 X64.8741 Y36.5470 Z-1.1781
G01 X64.7745 Y36.5779 Z-1.2528
G01 X64.6749 Y36.6197 Z-1.3538
G01 X64.5753 Y36.6510 Z-1.4293
G01 X64.4757 Y36.6025 Z-1.3122
G01 X64.3761 Y36.5648 Z-1.2213
G01 X64.2766 Y36.5380 Z-1.1565
G01 X64.1770 Y36.5220 Z-1.1178
G01 X64.0774 Y36.5168 Z-1.1053
G01 X63.9778
G01 X63.8782
G01 X63.7786
G01 X63.6791
G01 X63.5795 Y36.5071 Z-1.0819
G01 X63.4799 Y36.4075 Z-0.8415
G01 X63.3803 Y36.3079 Z-0.6010
G01 X63.2807 Y36.2083 Z-0.3606
G01 X63.1811 Y36.1088 Z-0.1202
G01 X63.1313 Y36.0590 Z0.0000
G01 X63.1822 Y36.1098 Z-0.1228
G01 X63.2840 Y36.2116 Z-0.3684
G01 X63.3857 Y36.3133 Z-0.6141
G01 X63.5892 Y36.5168 Z-1.1053
G01 X63.4874 Y36.6186 Z-0.8597
G01 X63.3857 Y36.7203 Z-0.6141
G01 X63.2840 Y36.8220 Z-0.3684
G01 X63.1822 Y36.9238 Z-0.1228
G01 X63.1313 Y36.9747 Z0.0000
G00 Z5.0000
G00 X75.1504 Y38.4931
G01 Z-0.1734
G01 X75.0075 Y38.6290 Z-0.5015
G01 X74.8722 Y38.7538 Z-0.8028
G01 X74.7446 Y38.8679 Z-1.0783
G01 X74.6503 Y38.9761 Z-1.2657
G01 X74.6553 Y39.0949 Z-1.2024
G01 X74.6450 Y39.2085 Z-1.1680
G01 X74.6217 Y39.3161 Z-1.1574
G01 X74.5933 Y39.4192 Z-1.1511
G01 X74.5612 Y39.5182 Z-1.1460
G01 X74.5257 Y39.6132 Z-1.1415
G01 X74.4868 Y39.7043 Z-1.1378
G01 X74.4449 Y39.7917 Z-1.1338
G01 X74.3999 Y39.8755 Z-1.1297
G01 X74.3519 Y39.9560 Z-1.1253
G01 X74.3010 Y40.0334 Z-1.1198
G01 X74.2473 Y40.1080 Z-1.1132
G01 X74.1904 Y40.1799 Z-1.1058
G01 X74.1305 Y40.2494 Z-1.0970
G01 X74.0674 Y40.3168 Z-1.0864
G01 X73.9966 Y40.3868 Z-1.0743
G01 X73.9237 Y40.4540 Z-1.0630
G01 X73.8502 Y40.5176 Z-1.0518
G01 X73.7758 Y40.5774 Z-1.0415
G01 X73.7004 Y40.6332 Z-1.0328
G01 X73.6240 Y40.6850 Z-1.0257
G01 X73.5467 Y40.7330 Z-1.0197
G01 X73.4687 Y40.7772 Z-1.0147
G01 X73.3897 Y40.8177 Z-1.0107
G01 X73.3100 Y40.8545 Z-1.0075
G01 X73.2295 Y40.8877 Z-1.0052
G01 X73.1481 Y40.9174 Z-1.0035
G01 X73.0659 Y40.9435 Z-1.0027
G01 X72.9828 Y40.9662 Z-1.0024
G01 X72.8987 Y40.9855 Z-1.0025
G01 X72.8137 Y41.0014 Z-1.0029
G01 X72.7277 Y41.0141 Z-1.0035
G01 X72.6407 Y41.0234 Z-1.0044
G01 X72.5525 Y41.0295 Z-1.0054
G01 X72.4632 Y41.0323 Z-1.0064
G01 X72.3722 Y41.0318 Z-1.0075
G01 X72.2810 Y41.0277 Z-1.0095
G01 X72.1914 Y41.0200 Z-1.0120
G01 X72.1034 Y41.0089 Z-1.0149
G01 X72.0168 Y40.9944 Z-1.0182
G01 X71.9316 Y40.9765 Z-1.0220
G01 X71.8479 Y40.9550 Z-1.0267
G01 X71.7655 Y40.9301 Z-1.0320
G01 X71.6843 Y40.9017 Z-1.0378
G01 X71.6044 Y40.8700 Z-1.0442
G01 X71.5257 Y40.8347 Z-1.0511
G01 X71.4482 Y40.7960 Z-1.0588
G01 X71.3718 Y40.7536 Z-1.0675
G01 X71.2966 Y40.7076 Z-1.0771
G01 X71.2224 Y40.6580 Z-1.0873
G01 X71.1493 Y40.6048 Z-1.0984
G01 X71.0773 Y40.5478 Z-1.1103
G01 X71.0063 Y40.4871 Z-1.1231
G01 X70.9365 Y40.4225 Z-1.1370
G01 X70.8678 Y40.3540 Z-1.1523
G01 X70.8036 Y40.2845 Z-1.1683
G01 X70.7433 Y40.2132 Z-1.1850
G01 X70.6872 Y40.1412 Z-1.2016
G01 X70.6353 Y40.0683 Z-1.2179
G01 X70.5872 Y39.9947 Z-1.2338
G01 X70.5428 Y39.9203 Z-1.2492
G01 X70.5021 Y39.8450 Z-1.2642
G01 X70.4648 Y39.7687 Z-1.2786
G01 X70.4308 Y39.6915 Z-1.2922
G01 X70.3999 Y39.6131 Z-1.3050
G01 X70.3720 Y39.5334 Z-1.3169
G01 X70.3471 Y39.4522 Z-1.3280
G01 X70.3250 Y39.3695 Z-1.3381
G01 X70.3058 Y39.2849 Z-1.3474
G01 X70.2905 Y39.1982 Z-1.3582
G01 X70.2833 Y39.1085 Z-1.3814
G01 X70.2851 Y39.0163 Z-1.4181
G01 X70.2961 Y38.9221 Z-1.4691
G01 X70.3167 Y38.8264 Z-1.5350
G01 X70.2880 Y38.7307 Z-1.4740
G01 X70.2648 Y38.6283 Z-1.4178
G01 X70.2523 Y38.5231 Z-1.3790
G01 X70.2513 Y38.4209 Z-1.3594
G01 X70.2608 Y38.3222 Z-1.3570
G01 X70.2753 Y38.2270 Z-1.3585
G01 X70.2927 Y38.1348 Z-1.3591
G01 X70.3128 Y38.0457 Z-1.3586
G01 X70.3358 Y37.9594 Z-1.3572
G01 X70.3614 Y37.8757 Z-1.3546
G01 X70.3897 Y37.7945 Z-1.3510
G01 X70.4207 Y37.7155 Z-1.3462
G01 X70.4545 Y37.6385 Z-1.3403
G01 X70.4911 Y37.5634 Z-1.3333
G01 X70.5306 Y37.4899 Z-1.3251
G01 X70.5732 Y37.4178 Z-1.3158
G01 X70.6190 Y37.3471 Z-1.3054
G01 X70.6682 Y37.2775 Z-1.2939
G01 X70.7210 Y37.2089 Z-1.2815
G01 X70.7776 Y37.1414 Z-1.2681
G01 X70.8382 Y37.0748 Z-1.2539
G01 X70.9013 Y37.0110 Z-1.2392
G01 X70.9705 Y36.9463 Z-1.2236
G01 X71.0414 Y36.8850 Z-1.2086
G01 X71.1139 Y36.8271 Z-1.1944
G01 X71.1881 Y36.7726 Z-1.1811
G01 X71.2641 Y36.7213 Z-1.1687
G01 X71.3419 Y36.6734 Z-1.1569
G01 X71.4215 Y36.6287 Z-1.1459
G01 X71.5030 Y36.5873 Z-1.1356
G01 X71.5864 Y36.5492 Z-1.1260
G01 X71.6717 Y36.5143 Z-1.1172
G01 X71.7590 Y36.4826 Z-1.1090
G01 X71.8484 Y36.4543 Z-1.1016
G01 X71.9398 Y36.4294 Z-1.0951
G01 X72.0334 Y36.4080 Z-1.0896
G01 X72.1291 Y36.3900 Z-1.0848
G01 X72.2269 Y36.3753 Z-1.0807
G01 X72.3269 Y36.3642 Z-1.0772
G01 X72.4291 Y36.3565 Z-1.0745
G01 X72.5334 Y36.3525 Z-1.0729
G01 X72.6200 Y36.3518 Z-1.0723
G01 X72.6877 Y36.3532
G01 X72.7549 Y36.3558 Z-1.0715
G01 X72.8218 Y36.3601 Z-1.0713
G01 X72.8883 Y36.3657 Z-1.0711
G01 X72.9544 Y36.3729 Z-1.0708
G01 X73.0202 Y36.3816 Z-1.0712
G01 X73.0858 Y36.3916 Z-1.0710
G01 X73.1509 Y36.4036 Z-1.0721
G01 X73.2158 Y36.4166 Z-1.0722
G01 X73.2802 Y36.4318 Z-1.0741
G01 X73.3445 Y36.4480 Z-1.0751
G01 X73.4083 Y36.4662 Z-1.0776
G01 X73.4719 Y36.4858 Z-1.0798
G01 X73.5351 Y36.5072 Z-1.0827
G01 X73.5980 Y36.5302 Z-1.0863
G01 X73.6606 Y36.5547 Z-1.0898
G01 X73.7227 Y36.5812 Z-1.0950
G01 X73.7847 Y36.6090 Z-1.0996
G01 X73.8461 Y36.6390 Z-1.1062
G01 X73.9032 Y36.6684 Z-1.1116
G01 X73.9603 Y36.7002 Z-1.1176
G01 X74.0160 Y36.7332 Z-1.1232
G01 X74.0705 Y36.7674 Z-1.1288
G01 X74.1236 Y36.8030 Z-1.1344
G01 X74.1756 Y36.8397 Z-1.1393
G01 X74.2262 Y36.8779 Z-1.1447
G01 X74.2759 Y36.9171 Z-1.1490
G01 X74.3243 Y36.9579 Z-1.1540
G01 X74.3719 Y36.9997 Z-1.1576
G01 X74.4181 Y37.0433 Z-1.1621
G01 X74.4720 Y37.0792 Z-1.1362
G01 X74.6293 Y37.1096 Z-0.9159
G01 X74.7977 Y37.1470 Z-0.6693
G01 X74.8865 Y37.1686 Z-0.5350
G01 X74.9787 Y37.1924 Z-0.3928
G01 X75.0743 Y37.2184 Z-0.2423
G01 X75.1737 Y37.2468 Z-0.0829
G01 X75.2248 Y37.2618 Z0.0000
G01 X75.1624 Y37.2435 Z-0.1011
G01 X75.0382 Y37.2084 Z-0.2997
G01 X74.9152 Y37.1758 Z-0.4912
G01 X74.7934 Y37.1460 Z-0.6758
G01 X74.6726 Y37.1186 Z-0.8538
G01 X74.5532 Y37.0943 Z-1.0237
G01 X74.4468 Y37.0994 Z-1.1161
G01 X74.3741 Y37.4278 Z-0.4612
G01 X74.3347 Y37.5851 Z-0.1519
G01 X74.3145 Y37.6628 Z0.0000
G01 X74.3360 Y37.5800 Z-0.1619
G01 X74.3797 Y37.4042 Z-0.5079
G01 X74.4225 Y37.2142 Z-0.8859
G01 X74.4229 Y37.0479 Z-1.1625
G01 X74.3327 Y36.9652 Z-1.1548
G01 X74.2390 Y36.8878 Z-1.1460
G01 X74.1420 Y36.8158 Z-1.1365
G01 X74.0419 Y36.7492 Z-1.1264
G01 X73.9389 Y36.6881 Z-1.1158
G01 X73.8333 Y36.6327 Z-1.1050
G01 X73.7254 Y36.5824 Z-1.0952
G01 X73.6156 Y36.5370 Z-1.0875
G01 X73.5037 Y36.4964 Z-1.0817
G01 X73.3900 Y36.4609 Z-1.0771
G01 X73.2743 Y36.4303 Z-1.0740
G01 X73.1569 Y36.4048 Z-1.0722
G01 X73.0377 Y36.3842 Z-1.0713
G01 X72.9168 Y36.3687
G01 X72.7943 Y36.3582 Z-1.0718
G01 X72.6702 Y36.3528 Z-1.0725
G01 X72.5642 Y36.3521 Z-1.0728
G01 X72.4774 Y36.3542 Z-1.0742
G01 X72.3913 Y36.3589 Z-1.0759
G01 X72.3061 Y36.3662 Z-1.0780
G01 X72.2217 Y36.3760 Z-1.0809
G01 X72.1382 Y36.3884 Z-1.0844
G01 X72.0555 Y36.4035 Z-1.0886
G01 X71.9736 Y36.4212 Z-1.0935
G01 X71.8927 Y36.4417 Z-1.0992
G01 X71.8128 Y36.4651 Z-1.1050
G01 X71.7338 Y36.4913 Z-1.1116
G01 X71.6560 Y36.5204 Z-1.1189
G01 X71.5792 Y36.5523 Z-1.1269
G01 X71.5036 Y36.5870 Z-1.1355
G01 X71.4293 Y36.6246 Z-1.1449
G01 X71.3563 Y36.6650 Z-1.1550
G01 X71.2846 Y36.7083 Z-1.1658
G01 X71.2143 Y36.7544 Z-1.1772
G01 X71.1456 Y36.8032 Z-1.1893
G01 X71.0784 Y36.8548 Z-1.2021
G01 X71.0136 Y36.9084 Z-1.2149
G01 X70.9513 Y36.9638 Z-1.2281
G01 X70.8908 Y37.0212 Z-1.2418
G01 X70.8324 Y37.0809 Z-1.2553
G01 X70.7762 Y37.1429 Z-1.2684
G01 X70.7224 Y37.2072 Z-1.2811
G01 X70.6710 Y37.2736 Z-1.2933
G01 X70.6222 Y37.3423 Z-1.3046
G01 X70.5762 Y37.4130 Z-1.3151
G01 X70.5329 Y37.4858 Z-1.3246
G01 X70.4925 Y37.5605 Z-1.3330
G01 X70.4551 Y37.6371 Z-1.3402
G01 X70.4208 Y37.7154 Z-1.3462
G01 X70.3894 Y37.7953 Z-1.3510
G01 X70.3611 Y37.8767 Z-1.3546
G01 X70.3357 Y37.9595 Z-1.3572
G01 X70.3134 Y38.0435 Z-1.3586
G01 X70.2939 Y38.1288 Z-1.3591
G01 X70.2773 Y38.2152 Z-1.3587
G01 X70.2635 Y38.3026 Z-1.3576
G01 X70.2567 Y38.3532 Z-1.3564
G01 X70.2520 Y38.4069 Z-1.3581
G01 X70.2503 Y38.4562 Z-1.3644
G01 X70.2513 Y38.5058 Z-1.3745
G01 X70.2544 Y38.5510 Z-1.3876
G01 X70.2597 Y38.5966 Z-1.4043
G01 X70.2674 Y38.6427 Z-1.4246
G01 X70.2759 Y38.6843 Z-1.4467
G01 X70.2868 Y38.7263 Z-1.4712
G01 X70.2995 Y38.7691 Z-1.5000
G01 X70.3126 Y38.8068 Z-1.5277
G01 X70.4863 Y38.8128 Z-1.2330
G01 X70.6143 Y38.8063 Z-1.0474
G01 X70.6908 Y38.8024 Z-0.9672
G01 X70.7479 Y38.7995 Z-0.9270
G01 X70.7949 Y38.7971 Z-0.9085
G01 X70.8645 Y38.7952 Z-0.9026
G01 X70.9647
G01 X71.0650
G01 X71.1652
G01 X71.2654
G01 X71.3657
G01 X71.4659
G01 X71.5662
G01 X71.6664
G01 X71.7666
G01 X71.8669
G01 X71.9671
G01 X72.0673
G01 X72.1676
G01 X72.2678
G01 X72.3680
G01 X72.4683
G01 X72.5685
G01 X72.6688
G01 X72.7690
G01 X72.8692
G01 X72.9695
G01 X73.0697
G01 X73.1699
G01 X73.2702
G01 X73.3704
G01 X73.4707
G01 X73.5709
G01 X73.6711
G01 X73.7714
G01 X73.8716
G01 X73.9718
G01 X74.0721
G01 X74.1723 Z-0.9027
G01 X74.2725 Y38.8032 Z-0.9220
G01 X74.3728 Y38.8246 Z-0.9737
G01 X74.4730 Y38.8595 Z-1.0579
G01 X74.5733 Y38.9078 Z-1.1745
G01 X74.6735 Y38.9301 Z-1.2284
G01 X74.8740 Y38.7522 Z-0.7989
G01 X74.9742 Y38.6602 Z-0.5767
G01 X75.0744 Y38.5663 Z-0.3500
G01 X75.1747 Y38.4697 Z-0.1167
G01 X75.2248 Y38.4213 Z0.0000
G00 Z5.0000
G00 X75.9921 Y36.9226
G01 Z-0.1257
G01 X76.0962 Y36.8184 Z-0.3772
G01 X76.2004 Y36.7143 Z-0.6286
G01 X76.3045 Y36.6101 Z-0.8800
G01 X76.4087 Y36.5168 Z-1.1053
G01 X76.5128
G01 X76.6170
G01 X76.7211
G01 X76.8253
G01 X76.8973 Y36.5170 Z-1.1058
G01 X76.9494 Y36.5196 Z-1.1122
G01 X77.0020 Y36.5253 Z-1.1258
G01 X77.0595 Y36.5349 Z-1.1491
G01 X77.1227 Y36.5497 Z-1.1847
G01 X77.1926 Y36.5711 Z-1.2364
G01 X77.2660 Y36.5993 Z-1.3045
G01 X77.3490 Y36.6383 Z-1.3985
G01 X77.3921 Y36.6834 Z-1.4278
G01 Y36.7180 Z-1.3886
G01 Y36.7562 Z-1.3500
G01 Y36.7974 Z-1.3143
G01 Y36.8367 Z-1.2865
G01 Y36.8793 Z-1.2638
G01 Y36.9251 Z-1.2484
G01 Y36.9747 Z-1.2427
G01 Y37.0249
G01 Y37.1252
G01 Y37.2256
G01 Y37.3260
G01 Y37.4264
G01 Y37.5268
G01 Y37.6272
G01 Y37.7276
G01 Y37.8280
G01 Y37.9284
G01 Y38.0288
G01 Y38.1292
G01 Y38.2296
G01 Y38.3300
G01 Y38.4304
G01 Y38.5308
G01 Y38.6312
G01 Y38.7316
G01 Y38.8320
G01 Y38.9324
G01 Y39.0328
G01 Y39.1332
G01 Y39.2336
G01 Y39.3340
G01 Y39.4344
G01 Y39.5348
G01 Y39.6352
G01 Y39.7356
G01 X77.3933 Y39.8359 Z-1.2455
G01 X77.4030 Y39.9363 Z-1.2689
G01 X77.4224 Y40.0367 Z-1.3160
G01 X77.4517 Y40.1371 Z-1.3867
G01 X77.4718 Y40.2375 Z-1.4352
G01 X77.4372 Y40.3379 Z-1.3516
G01 X77.4177 Y40.4117 Z-1.3059
G01 X77.4064 Y40.4578 Z-1.2881
G01 X77.3941 Y40.5074 Z-1.2803
G01 X77.3807 Y40.5614 Z-1.2852
G01 X77.3659 Y40.6212 Z-1.3068
G01 X77.3484 Y40.6882 Z-1.3482
G01 X77.3190 Y40.7394 Z-1.3625
G01 X77.2850 Y40.7552 Z-1.3244
G01 X77.2473 Y40.7712 Z-1.2858
G01 X77.2106 Y40.7853 Z-1.2517
G01 X77.1749 Y40.7976 Z-1.2220
G01 X77.1356 Y40.8095 Z-1.1932
G01 X77.0972 Y40.8196 Z-1.1690
G01 X77.0553 Y40.8287 Z-1.1471
G01 X77.0142 Y40.8357 Z-1.1300
G01 X76.9696 Y40.8413 Z-1.1165
G01 X76.9253 Y40.8447 Z-1.1084
G01 X76.8774 Y40.8460 Z-1.1053
G01 X76.8289
G01 X76.7320
G01 X76.6350
G01 X76.5381
G01 X76.4412 Y40.8243 Z-1.0530
G01 X76.3443 Y40.7274 Z-0.8190
G01 X76.2473 Y40.6304 Z-0.5850
G01 X76.1504 Y40.5335 Z-0.3510
G01 X76.0535 Y40.4366 Z-0.1170
G01 X76.0050 Y40.3881 Z0.0000
G01 X76.0559 Y40.4390 Z-0.1228
G01 X76.1576 Y40.5407 Z-0.3684
G01 X76.2594 Y40.6425 Z-0.6141
G01 X76.4629 Y40.8460 Z-1.1053
G01 X76.3611 Y40.9477 Z-0.8597
G01 X76.2594 Y41.0494 Z-0.6141
G01 X76.1576 Y41.1512 Z-0.3684
G01 X76.0559 Y41.2529 Z-0.1228
G01 X76.0050 Y41.3038 Z0.0000
G01 X76.0551 Y41.2538 Z-0.1208
G01 X76.1552 Y41.1537 Z-0.3625
G01 X76.2553 Y41.0536 Z-0.6041
G01 X76.4554 Y40.8534 Z-1.0874
G01 X76.5555 Y40.8460 Z-1.1053
G01 X76.6556
G01 X76.7557
G01 X76.8558
G01 X76.9559 Y40.8426 Z-1.1135
G01 X77.0560 Y40.8285 Z-1.1474
G01 X77.1561 Y40.8035 Z-1.2078
G01 X77.2562 Y40.7676 Z-1.2945
G01 X77.3563 Y40.7533 Z-1.3291
G01 X77.4564 Y40.8534 Z-1.0874
G01 X77.5565 Y40.9535 Z-0.8458
G01 X77.6566 Y41.0536 Z-0.6041
G01 X77.7567 Y41.1537 Z-0.3625
G01 X77.8568 Y41.2538 Z-0.1208
G01 X77.9068 Y41.3038 Z0.0000
G01 X77.8596 Y41.2566 Z-0.1140
G01 X77.7652 Y41.1622 Z-0.3420
G01 X77.6707 Y41.0677 Z-0.5699
G01 X77.5763 Y40.9733 Z-0.7979
G01 X77.3874 Y40.7844 Z-1.2539
G01 X77.3478 Y40.6900 Z-1.3495
G01 X77.3649 Y40.6252 Z-1.3089
G01 X77.3752 Y40.5835 Z-1.2913
G01 X77.3865 Y40.5382 Z-1.2814
G01 X77.3987 Y40.4888 Z-1.2818
G01 X77.4133 Y40.4296 Z-1.2978
G01 X77.4300 Y40.3635 Z-1.3342
G01 X77.4509 Y40.2947 Z-1.3847
G01 X77.4798 Y40.2178 Z-1.4544
G01 X77.5127 Y40.2147 Z-1.4047
G01 X77.5459 Z-1.3517
G01 X77.5826 Z-1.2963
G01 X77.6167 Y40.2149 Z-1.2481
G01 X77.6489 Y40.2158 Z-1.2044
G01 X77.6843 Y40.2178 Z-1.1581
G01 X77.7177 Y40.2207 Z-1.1166
G01 X77.7492 Y40.2243 Z-1.0795
G01 X77.7832 Y40.2292 Z-1.0421
G01 X77.8154 Y40.2350 Z-1.0090
G01 X77.8459 Y40.2415 Z-0.9798
G01 X77.8784 Y40.2496 Z-0.9516
G01 X77.9092 Y40.2585 Z-0.9277
G01 X77.9387 Y40.2683 Z-0.9075
G01 X77.9699 Y40.2800 Z-0.8889
G01 X77.9998 Y40.2925 Z-0.8749
G01 X78.0313 Y40.3074 Z-0.8636
G01 X78.0616 Y40.3235 Z-0.8565
G01 X78.0935 Y40.3424 Z-0.8539
G01 X78.1245 Y40.3628 Z-0.8563
G01 X78.1731 Y40.3964 Z-0.8641
G01 X78.2629 Y40.4565 Z-0.8795
G01 X78.3517 Y40.5129 Z-0.8942
G01 X78.4395 Y40.5656 Z-0.9084
G01 X78.5262 Y40.6146 Z-0.9222
G01 X78.6119 Y40.6598 Z-0.9356
G01 X78.6966 Y40.7013 Z-0.9488
G01 X78.7802 Y40.7391 Z-0.9619
G01 X78.8627 Y40.7731 Z-0.9750
G01 X78.9441 Y40.8035 Z-0.9883
G01 X79.0245 Y40.8301 Z-1.0017
G01 X79.1037 Y40.8532 Z-1.0154
G01 X79.1818 Y40.8725 Z-1.0295
G01 X79.2589 Y40.8883 Z-1.0440
G01 X79.3347 Y40.9006 Z-1.0591
G01 X79.4095 Y40.9092 Z-1.0749
G01 X79.4832 Y40.9144 Z-1.0916
G01 X79.5558 Y40.9162 Z-1.1087
G01 X79.6273 Y40.9146 Z-1.1269
G01 X79.6978 Y40.9095 Z-1.1463
G01 X79.7659 Y40.9011 Z-1.1662
G01 X79.8291 Y40.8899 Z-1.1861
G01 X79.8875 Y40.8763 Z-1.2053
G01 X79.9900 Y40.8435 Z-1.2399
G01 X80.0757 Y40.8055 Z-1.2682
G01 X80.1478 Y40.7638 Z-1.2897
G01 X80.2105 Y40.7179 Z-1.3052
G01 X80.2680 Y40.6658 Z-1.3151
G01 X80.3230 Y40.6040 Z-1.3210
G01 X80.3771 Y40.5289 Z-1.3233
G01 X80.4040 Y40.4853 Z-1.3227
G01 X80.4304 Y40.4372 Z-1.3217
G01 X80.4562 Y40.3843 Z-1.3203
G01 X80.4817 Y40.3269 Z-1.3213
G01 X80.5061 Y40.2747 Z-1.3309
G01 X80.5327 Y40.2223 Z-1.3509
G01 X80.5645 Y40.1648 Z-1.3849
G01 X80.6016 Y40.1075 Z-1.4271
G01 X80.6310 Y40.1122 Z-1.3745
G01 X80.6648 Y40.1176 Z-1.3162
G01 X80.6960 Y40.1225 Z-1.2649
G01 X80.7304 Y40.1280 Z-1.2113
G01 X80.7620 Y40.1331 Z-1.1652
G01 X80.7962 Y40.1385 Z-1.1193
G01 X80.8279 Y40.1437 Z-1.0807
G01 X80.8619 Y40.1501 Z-1.0418
G01 X80.8940 Y40.1573 Z-1.0075
G01 X80.9243 Y40.1652 Z-0.9771
G01 X80.9530 Y40.1736 Z-0.9508
G01 X80.9836 Y40.1837 Z-0.9255
G01 X81.0127 Y40.1945 Z-0.9040
G01 X81.0435 Y40.2075 Z-0.8841
G01 X81.0728 Y40.2210 Z-0.8688
G01 X81.1008 Y40.2355 Z-0.8573
G01 X81.1304 Y40.2524 Z-0.8485
G01 X81.1589 Y40.2704 Z-0.8443
G01 X81.1890 Y40.2913 Z-0.8446
G01 X81.2413 Y40.3296 Z-0.8495
G01 X81.3396 Y40.3988 Z-0.8608
G01 X81.4368 Y40.4636 Z-0.8727
G01 X81.5327 Y40.5239 Z-0.8851
G01 X81.6274 Y40.5797 Z-0.8982
G01 X81.7208 Y40.6309 Z-0.9119
G01 X81.8128 Y40.6777 Z-0.9262
G01 X81.9033 Y40.7201 Z-0.9411
G01 X81.9922 Y40.7579 Z-0.9566
G01 X82.0794 Y40.7915 Z-0.9727
G01 X82.1650 Y40.8208 Z-0.9891
G01 X82.2486 Y40.8459 Z-1.0057
G01 X82.3304 Y40.8671 Z-1.0225
G01 X82.4102 Y40.8842 Z-1.0394
G01 X82.4880 Y40.8977 Z-1.0562
G01 X82.5637 Y40.9076 Z-1.0727
G01 X82.6375 Y40.9142 Z-1.0883
G01 X82.7093 Y40.9170 Z-1.1051
G01 X82.7792 Y40.9161 Z-1.1225
G01 X82.8473 Y40.9117 Z-1.1406
G01 X82.9393 Y40.9003 Z-1.1677
G01 X83.0122 Y40.8863 Z-1.1910
G01 X83.0788 Y40.8696 Z-1.2137
G01 X83.1393 Y40.8507 Z-1.2352
G01 X83.2190 Y40.8194 Z-1.2637
G01 X83.2867 Y40.7861 Z-1.2869
G01 X83.3444 Y40.7520 Z-1.3037
G01 X83.3947 Y40.7169 Z-1.3145
G01 X83.4554 Y40.6674 Z-1.3266
G01 X83.5005 Y40.6244 Z-1.3343
G01 X83.5378 Y40.5830 Z-1.3385
G01 X83.5692 Y40.5424 Z-1.3392
G01 X83.5962 Y40.5012 Z-1.3367
G01 X83.6202 Y40.4575 Z-1.3307
G01 X83.6437 Y40.4057 Z-1.3202
G01 X83.6607 Y40.3612 Z-1.3104
G01 X83.6785 Y40.3064 Z-1.2990
G01 X83.6959 Y40.2417 Z-1.2869
G01 X83.7116 Y40.1674 Z-1.2764
G01 X83.7253 Y40.0841 Z-1.2675
G01 X83.7366 Y39.9921 Z-1.2604
G01 X83.7413 Y39.9429 Z-1.2576
G01 X83.7454 Y39.8918 Z-1.2551
G01 X83.7489 Y39.8386 Z-1.2529
G01 X83.7518 Y39.7834 Z-1.2509
G01 X83.7541 Y39.7263 Z-1.2491
G01 X83.7559 Y39.6673 Z-1.2474
G01 X83.7571 Y39.6064 Z-1.2457
G01 X83.7580 Y39.5254 Z-1.2439
G01 X83.7584 Y39.4254 Z-1.2428
G01 X83.7585 Y39.3253 Z-1.2427
G01 Y39.2253
G01 Y39.1253
G01 Y39.0252
G01 Y38.9252
G01 Y38.8252
G01 Y38.7252
G01 Y38.6251
G01 Y38.5251
G01 Y38.4251
G01 Y38.3250
G01 Y38.2250
G01 Y38.1250
G01 Y38.0250
G01 Y37.9249
G01 Y37.8249
G01 Y37.7249
G01 Y37.6248
G01 Y37.5248
G01 Y37.4248
G01 Y37.3248
G01 Y37.2247
G01 Y37.1247
G01 Y37.0247
G01 Y36.9747
G01 X83.7599 Y36.9207 Z-1.2461
G01 X83.7642 Y36.8665 Z-1.2564
G01 X83.7721 Y36.8070 Z-1.2756
G01 X83.7848 Y36.7417 Z-1.3063
G01 X83.8022 Y36.6746 Z-1.3482
G01 X83.8315 Y36.6233 Z-1.3625
G01 X83.8655 Y36.6076 Z-1.3244
G01 X83.9033 Y36.5915 Z-1.2858
G01 X83.9399 Y36.5775 Z-1.2517
G01 X83.9757 Y36.5651 Z-1.2220
G01 X84.0150 Y36.5532 Z-1.1932
G01 X84.0534 Y36.5432 Z-1.1690
G01 X84.0952 Y36.5341 Z-1.1471
G01 X84.1364 Y36.5270 Z-1.1300
G01 X84.1810 Y36.5215 Z-1.1165
G01 X84.2252 Y36.5181 Z-1.1084
G01 X84.2732 Y36.5168 Z-1.1053
G01 X84.3241
G01 X84.4258
G01 X84.5276
G01 X84.6293
G01 X84.7311
G01 X84.8328 Y36.6186 Z-0.8597
G01 X84.9345 Y36.7203 Z-0.6141
G01 X85.0363 Y36.8220 Z-0.3684
G01 X85.1380 Y36.9238 Z-0.1228
G01 X85.1889 Y36.9747 Z0.0000
G01 X85.1380 Y36.9238 Z-0.1228
G01 X85.0363 Y36.8220 Z-0.3684
G01 X84.9345 Y36.7203 Z-0.6141
G01 X84.7311 Y36.5168 Z-1.1053
G01 X84.8328 Y36.4151 Z-0.8597
G01 X84.9345 Y36.3133 Z-0.6141
G01 X85.0363 Y36.2116 Z-0.3684
G01 X85.1380 Y36.1098 Z-0.1228
G01 X85.1889 Y36.0590 Z0.0000
G01 X85.1377 Y36.1102 Z-0.1236
G01 X85.0353 Y36.2125 Z-0.3707
G01 X84.9330 Y36.3149 Z-0.6179
G01 X84.7282 Y36.5168 Z-1.1053
G01 X84.6258
G01 X84.5235
G01 X84.4211
G01 X84.3187
G01 X84.2163 Y36.5186 Z-1.1096
G01 X84.1139 Y36.5307 Z-1.1388
G01 X84.0116 Y36.5542 Z-1.1956
G01 X83.9092 Y36.5892 Z-1.2800
G01 X83.8068 Y36.6220 Z-1.3594
G01 X83.7044 Y36.5197 Z-1.1122
G01 X83.6021 Y36.4173 Z-0.8650
G01 X83.4997 Y36.3149 Z-0.6179
G01 X83.3973 Y36.2125 Z-0.3707
G01 X83.2949 Y36.1102 Z-0.1236
G01 X83.2438 Y36.0590 Z0.0000
G01 X83.2942 Y36.1095 Z-0.1219
G01 X83.3952 Y36.2104 Z-0.3657
G01 X83.4962 Y36.3114 Z-0.6094
G01 X83.5972 Y36.4124 Z-0.8532
G01 X83.7991 Y36.6143 Z-1.3408
G01 X83.7911 Y36.7153 Z-1.3215
G01 X83.7707 Y36.8163 Z-1.2721
G01 X83.7601 Y36.9173 Z-1.2465
G01 X83.7585 Y37.0182 Z-1.2427
G01 Y37.1192
G01 Y37.2202
G01 Y37.3212
G01 Y37.4221
G01 Y37.5231
G01 Y37.6241
G01 Y37.7251
G01 Y37.8261
G01 Y37.9270
G01 Y38.0280
G01 Y38.1290
G01 Y38.2300
G01 Y38.3309
G01 Y38.4319
G01 Y38.5329
G01 Y38.6339
G01 Y38.7348
G01 Y38.8358
G01 Y38.9368
G01 Y39.0378
G01 Y39.1387
G01 Y39.2397
G01 Y39.3407
G01 X83.7583 Y39.4616 Z-1.2430
G01 X83.7578 Y39.5516 Z-1.2444
G01 X83.7566 Y39.6370 Z-1.2466
G01 X83.7544 Y39.7180 Z-1.2489
G01 X83.7512 Y39.7949 Z-1.2513
G01 X83.7471 Y39.8679 Z-1.2541
G01 X83.7418 Y39.9376 Z-1.2573
G01 X83.7353 Y40.0047 Z-1.2613
G01 X83.7273 Y40.0699 Z-1.2663
G01 X83.7173 Y40.1349 Z-1.2729
G01 X83.7070 Y40.1912 Z-1.2795
G01 X83.6892 Y40.2679 Z-1.2916
G01 X83.6665 Y40.3445 Z-1.3070
G01 X83.6377 Y40.4199 Z-1.3234
G01 X83.6014 Y40.4925 Z-1.3358
G01 X83.5563 Y40.5598 Z-1.3394
G01 X83.5040 Y40.6208 Z-1.3349
G01 X83.4463 Y40.6753 Z-1.3250
G01 X83.3851 Y40.7241 Z-1.3129
G01 X83.3209 Y40.7665 Z-1.2976
G01 X83.2702 Y40.7949 Z-1.2816
G01 X83.1993 Y40.8279 Z-1.2568
G01 X83.1265 Y40.8550 Z-1.2308
G01 X83.0528 Y40.8766 Z-1.2048
G01 X82.9789 Y40.8932 Z-1.1802
G01 X82.9053 Y40.9053 Z-1.1575
G01 X82.8321 Y40.9130 Z-1.1366
G01 X82.7595 Y40.9167 Z-1.1177
G01 X82.6877 Y40.9166 Z-1.1002
G01 X82.6166 Y40.9128 Z-1.0839
G01 X82.5544 Y40.9065 Z-1.0707
G01 X82.4660 Y40.8942 Z-1.0518
G01 X82.3782 Y40.8777 Z-1.0333
G01 X82.2911 Y40.8573 Z-1.0153
G01 X82.2046 Y40.8331 Z-0.9977
G01 X82.1187 Y40.8054 Z-0.9809
G01 X82.0333 Y40.7742 Z-0.9649
G01 X81.9484 Y40.7398 Z-0.9497
G01 X81.8638 Y40.7020 Z-0.9352
G01 X81.7794 Y40.6612 Z-0.9214
G01 X81.6952 Y40.6172 Z-0.9083
G01 X81.6110 Y40.5703 Z-0.8960
G01 X81.5268 Y40.5203 Z-0.8843
G01 X81.4424 Y40.4673 Z-0.8734
G01 X81.3578 Y40.4113 Z-0.8631
G01 X81.2729 Y40.3523 Z-0.8534
G01 X81.1876 Y40.2903 Z-0.8444
G01 X81.0964 Y40.2331 Z-0.8589
G01 X80.9933 Y40.1871 Z-0.9181
G01 X80.8763 Y40.1532 Z-1.0261
G01 X80.7151 Y40.1256 Z-1.2347
G01 X80.5961 Y40.0884 Z-1.4141
G01 X80.5905 Y40.0510 Z-1.3817
G01 X80.5852 Y40.0097 Z-1.3503
G01 X80.5812 Y39.9698 Z-1.3239
G01 X80.5781 Y39.9261 Z-1.2999
G01 X80.5763 Y39.8834 Z-1.2814
G01 X80.5758 Y39.8370 Z-1.2670
G01 X80.5771 Y39.7867 Z-1.2580
G01 X80.5791 Y39.7365 Z-1.2531
G01 X80.5819 Y39.6361 Z-1.2463
G01 X80.5832 Y39.5356 Z-1.2431
G01 X80.5834 Y39.4352 Z-1.2427
G01 Y39.3348
G01 Y39.2343
G01 Y39.1339
G01 Y39.0335
G01 Y38.9330
G01 Y38.8326
G01 Y38.7322
G01 Y38.6318
G01 Y38.5313
G01 Y38.4309
G01 Y38.3305
G01 Y38.2300
G01 Y38.1296
G01 Y38.0292
G01 Y37.9287
G01 Y37.8283
G01 Y37.7279
G01 Y37.6274
G01 Y37.5270
G01 Y37.4266
G01 Y37.3262
G01 Y37.2257
G01 Y37.1253
G01 Y37.0249
G01 Y36.9747
G01 X80.5848 Y36.9207 Z-1.2461
G01 X80.5891 Y36.8665 Z-1.2564
G01 X80.5971 Y36.8070 Z-1.2756
G01 X80.6098 Y36.7417 Z-1.3063
G01 X80.6271 Y36.6746 Z-1.3482
G01 X80.6565 Y36.6233 Z-1.3625
G01 X80.6905 Y36.6076 Z-1.3244
G01 X80.7282 Y36.5915 Z-1.2858
G01 X80.7649 Y36.5775 Z-1.2517
G01 X80.8006 Y36.5651 Z-1.2220
G01 X80.8399 Y36.5532 Z-1.1932
G01 X80.8783 Y36.5432 Z-1.1690
G01 X80.9202 Y36.5341 Z-1.1471
G01 X80.9613 Y36.5270 Z-1.1300
G01 X81.0059 Y36.5215 Z-1.1165
G01 X81.0502 Y36.5181 Z-1.1084
G01 X81.0981 Y36.5168 Z-1.1053
G01 X81.1481
G01 X81.2480
G01 X81.3480
G01 X81.4479
G01 X81.5479 Y36.5249 Z-1.0857
G01 X81.6478 Y36.6249 Z-0.8444
G01 X81.7477 Y36.7248 Z-0.6032
G01 X81.8477 Y36.8247 Z-0.3619
G01 X81.9476 Y36.9247 Z-0.1206
G01 X81.9976 Y36.9747 Z0.0000
G01 X81.9467 Y36.9238 Z-0.1228
G01 X81.8450 Y36.8220 Z-0.3684
G01 X81.7432 Y36.7203 Z-0.6141
G01 X81.5397 Y36.5168 Z-1.1053
G01 X81.6415 Y36.4151 Z-0.8597
G01 X81.7432 Y36.3133 Z-0.6141
G01 X81.8450 Y36.2116 Z-0.3684
G01 X81.9467 Y36.1098 Z-0.1228
G01 X81.9976 Y36.0590 Z0.0000
G01 X81.9468 Y36.1097 Z-0.1225
G01 X81.8453 Y36.2113 Z-0.3676
G01 X81.7438 Y36.3128 Z-0.6127
G01 X81.5407 Y36.5158 Z-1.1029
G01 X81.4392 Y36.5168 Z-1.1053
G01 X81.3377
G01 X81.2362
G01 X81.1346
G01 X81.0331 Y36.5191 Z-1.1109
G01 X80.9316 Y36.5320 Z-1.1419
G01 X80.8301 Y36.5560 Z-1.2000
G01 X80.7286 Y36.5914 Z-1.2854
G01 X80.6270 Y36.6173 Z-1.3480
G01 X80.5255 Y36.5158 Z-1.1029
G01 X80.4240 Y36.4143 Z-0.8578
G01 X80.3225 Y36.3128 Z-0.6127
G01 X80.2210 Y36.2113 Z-0.3676
G01 X80.1194 Y36.1097 Z-0.1225
G01 X80.0687 Y36.0590 Z0.0000
G00 Z5.0000
G00 X77.4301 Y36.6409
G01 Z-1.4049
G01 X77.4651 Y36.6233 Z-1.3625
G01 X77.4991 Y36.6076 Z-1.3244
G01 X77.5369 Y36.5915 Z-1.2858
G01 X77.5735 Y36.5775 Z-1.2517
G01 X77.6093 Y36.5651 Z-1.2220
G01 X77.6486 Y36.5532 Z-1.1932
G01 X77.6870 Y36.5432 Z-1.1690
G01 X77.7288 Y36.5341 Z-1.1471
G01 X77.7700 Y36.5270 Z-1.1300
G01 X77.8146 Y36.5215 Z-1.1165
G01 X77.8588 Y36.5181 Z-1.1084
G01 X77.9068 Y36.5168 Z-1.1053
G01 X77.9580
G01 X78.0603
G01 X78.1627
G01 X78.2650
G01 X78.3674
G01 X78.4697 Y36.6164 Z-0.8648
G01 X78.5721 Y36.7188 Z-0.6177
G01 X78.6744 Y36.8211 Z-0.3706
G01 X78.7767 Y36.9235 Z-0.1235
G01 X78.8279 Y36.9747 Z0.0000
G01 X78.7770 Y36.9238 Z-0.1228
G01 X78.6753 Y36.8220 Z-0.3684
G01 X78.5736 Y36.7203 Z-0.6141
G01 X78.3701 Y36.5168 Z-1.1053
G01 X78.4718 Y36.4151 Z-0.8597
G01 X78.5736 Y36.3133 Z-0.6141
G01 X78.6753 Y36.2116 Z-0.3684
G01 X78.7770 Y36.1098 Z-0.1228
G01 X78.8279 Y36.0590 Z0.0000
G01 X78.7781 Y36.1088 Z-0.1202
G01 X78.6785 Y36.2083 Z-0.3606
G01 X78.5790 Y36.3079 Z-0.6010
G01 X78.3798 Y36.5071 Z-1.0819
G01 X78.2802 Y36.5168 Z-1.1053
G01 X78.1806
G01 X78.0810
G01 X77.9815
G01 X77.8819 Y36.5172 Z-1.1061
G01 X77.7823 Y36.5253 Z-1.1258
G01 X77.6827 Y36.5442 Z-1.1715
G01 X77.5831 Y36.5740 Z-1.2434
G01 X77.4835 Y36.6146 Z-1.3415
G01 X77.3840 Y36.6570 Z-1.4436
G01 X77.2844 Y36.6073 Z-1.3237
G01 X77.1848 Y36.5684 Z-1.2299
G01 X77.0852 Y36.5404 Z-1.1623
G01 X76.9856 Y36.5232 Z-1.1208
G01 X76.8860 Y36.5169 Z-1.1054
G01 X76.7865 Y36.5168 Z-1.1053
G01 X76.6869
G01 X76.5873
G01 X76.4877
G01 X76.3881 Y36.5071 Z-1.0819
G01 X76.2885 Y36.4075 Z-0.8415
G01 X76.1890 Y36.3079 Z-0.6010
G01 X76.0894 Y36.2083 Z-0.3606
G01 X75.9898 Y36.1088 Z-0.1202
G01 X75.9400 Y36.0590 Z0.0000
G01 X75.9909 Y36.1098 Z-0.1228
G01 X76.0926 Y36.2116 Z-0.3684
G01 X76.1944 Y36.3133 Z-0.6141
G01 X76.3978 Y36.5168 Z-1.1053
G01 X76.2961 Y36.6186 Z-0.8597
G01 X76.1944 Y36.7203 Z-0.6141
G01 X76.0926 Y36.8220 Z-0.3684
G01 X75.9909 Y36.9238 Z-0.1228
G01 X75.9400 Y36.9747 Z0.0000
G00 Z5.0000
G00 X85.6572 Y36.9235
G01 Z-0.1234
G01 X85.7595 Y36.8212 Z-0.3703
G01 X85.8618 Y36.7190 Z-0.6172
G01 X86.0663 Y36.5168 Z-1.1053
G01 X86.1686
G01 X86.2708
G01 X86.3731
G01 X86.4442 Y36.5170 Z-1.1058
G01 X86.4963 Y36.5196 Z-1.1122
G01 X86.5489 Y36.5253 Z-1.1258
G01 X86.6064 Y36.5349 Z-1.1491
G01 X86.6696 Y36.5497 Z-1.1847
G01 X86.7395 Y36.5711 Z-1.2364
G01 X86.8129 Y36.5993 Z-1.3045
G01 X86.8959 Y36.6383 Z-1.3985
G01 X86.9390 Y36.6834 Z-1.4278
G01 Y36.7180 Z-1.3886
G01 Y36.7562 Z-1.3500
G01 Y36.7974 Z-1.3143
G01 Y36.8367 Z-1.2865
G01 Y36.8793 Z-1.2638
G01 Y36.9251 Z-1.2484
G01 Y36.9747 Z-1.2427
G01 Y37.0249
G01 Y37.1252
G01 Y37.2256
G01 Y37.3260
G01 Y37.4264
G01 Y37.5268
G01 Y37.6272
G01 Y37.7276
G01 Y37.8280
G01 Y37.9284
G01 Y38.0288
G01 Y38.1292
G01 Y38.2296
G01 Y38.3300
G01 Y38.4304
G01 Y38.5308
G01 Y38.6312
G01 Y38.7316
G01 Y38.8320
G01 Y38.9324
G01 Y39.0328
G01 Y39.1332
G01 Y39.2336
G01 Y39.3340
G01 Y39.4344
G01 Y39.5348
G01 Y39.6352
G01 Y39.7356
G01 Y39.8359
G01 Y39.9363
G01 Y40.0367
G01 Y40.1371
G01 Y40.2375
G01 Y40.3379
G01 Y40.3881
G01 X86.9376 Y40.4421 Z-1.2461
G01 X86.9333 Y40.4963 Z-1.2564
G01 X86.9253 Y40.5558 Z-1.2756
G01 X86.9126 Y40.6211 Z-1.3063
G01 X86.8952 Y40.6882 Z-1.3482
G01 X86.8659 Y40.7394 Z-1.3625
G01 X86.8319 Y40.7552 Z-1.3244
G01 X86.7942 Y40.7712 Z-1.2858
G01 X86.7575 Y40.7853 Z-1.2517
G01 X86.7218 Y40.7976 Z-1.2220
G01 X86.6825 Y40.8095 Z-1.1932
G01 X86.6441 Y40.8196 Z-1.1690
G01 X86.6022 Y40.8287 Z-1.1471
G01 X86.5611 Y40.8357 Z-1.1300
G01 X86.5164 Y40.8413 Z-1.1165
G01 X86.4722 Y40.8447 Z-1.1084
G01 X86.4242 Y40.8460 Z-1.1053
G01 X86.3731
G01 X86.2708
G01 X86.1686
G01 X86.0663
G01 X85.9640 Y40.7461 Z-0.8641
G01 X85.8618 Y40.6438 Z-0.6172
G01 X85.7595 Y40.5415 Z-0.3703
G01 X85.6572 Y40.4393 Z-0.1234
G01 X85.6061 Y40.3881 Z0.0000
G01 X85.6570 Y40.4390 Z-0.1228
G01 X85.7587 Y40.5407 Z-0.3684
G01 X85.8604 Y40.6425 Z-0.6141
G01 X86.0639 Y40.8460 Z-1.1053
G01 X85.9622 Y40.9477 Z-0.8597
G01 X85.8604 Y41.0494 Z-0.6141
G01 X85.7587 Y41.1512 Z-0.3684
G01 X85.6570 Y41.2529 Z-0.1228
G01 X85.6061 Y41.3038 Z0.0000
G01 X85.6574 Y41.2525 Z-0.1239
G01 X85.7601 Y41.1498 Z-0.3717
G01 X85.8627 Y41.0472 Z-0.6195
G01 X86.0680 Y40.8460 Z-1.1053
G01 X86.1706
G01 X86.2733
G01 X86.3759
G01 X86.4786 Y40.8444 Z-1.1092
G01 X86.5812 Y40.8325 Z-1.1378
G01 X86.6839 Y40.8092 Z-1.1942
G01 X86.7865 Y40.7743 Z-1.2783
G01 X86.8892 Y40.7393 Z-1.3629
G01 X86.9918 Y40.8419 Z-1.1151
G01 X87.0944 Y40.9445 Z-0.8673
G01 X87.1971 Y41.0472 Z-0.6195
G01 X87.2997 Y41.1498 Z-0.3717
G01 X87.4024 Y41.2525 Z-0.1239
G01 X87.4537 Y41.3038 Z0.0000
G01 X87.4034 Y41.2535 Z-0.1215
G01 X87.3027 Y41.1528 Z-0.3646
G01 X87.2020 Y41.0521 Z-0.6076
G01 X87.1013 Y40.9514 Z-0.8507
G01 X86.9000 Y40.7501 Z-1.3368
G01 X86.9058 Y40.6494 Z-1.3227
G01 X86.9265 Y40.5487 Z-1.2729
G01 X86.9372 Y40.4480 Z-1.2469
G01 X86.9390 Y40.3474 Z-1.2427
G01 Y40.2467
G01 Y40.1460
G01 Y40.0453
G01 Y39.9447
G01 Y39.8440
G01 Y39.7433
G01 Y39.6426
G01 Y39.5419
G01 Y39.4413
G01 Y39.3406
G01 Y39.2399
G01 Y39.1392
G01 Y39.0386
G01 Y38.9379
G01 Y38.8372
G01 Y38.7365
G01 Y38.6358
G01 Y38.5352
G01 Y38.4345
G01 Y38.3338
G01 Y38.2331
G01 Y38.1324
G01 Y38.0318
G01 Y37.9311
G01 Y37.8304
G01 Y37.7297
G01 Y37.6291
G01 Y37.5284
G01 Y37.4277
G01 Y37.3270
G01 Y37.2263
G01 Y37.1257
G01 Y37.0250
G01 Y36.9477 Z-1.2444
G01 Y36.8885 Z-1.2599
G01 Y36.8222 Z-1.2960
G01 Y36.7401 Z-1.3656
G01 X86.9461 Y36.6575 Z-1.4449
G01 X86.9770 Y36.6409 Z-1.4049
G01 X87.0120 Y36.6233 Z-1.3625
G01 X87.0460 Y36.6076 Z-1.3244
G01 X87.0837 Y36.5915 Z-1.2858
G01 X87.1204 Y36.5775 Z-1.2517
G01 X87.1562 Y36.5651 Z-1.2220
G01 X87.1955 Y36.5532 Z-1.1932
G01 X87.2339 Y36.5432 Z-1.1690
G01 X87.2757 Y36.5341 Z-1.1471
G01 X87.3169 Y36.5270 Z-1.1300
G01 X87.3615 Y36.5215 Z-1.1165
G01 X87.4057 Y36.5181 Z-1.1084
G01 X87.4537 Y36.5168 Z-1.1053
G01 X87.5042
G01 X87.6051
G01 X87.7060
G01 X87.8069 Y36.5205 Z-1.0963
G01 X87.9078 Y36.6215 Z-0.8527
G01 X88.0087 Y36.7224 Z-0.6091
G01 X88.1096 Y36.8233 Z-0.3654
G01 X88.2106 Y36.9242 Z-0.1218
G01 X88.2610 Y36.9747 Z0.0000
G01 X88.2101 Y36.9238 Z-0.1228
G01 X88.1084 Y36.8220 Z-0.3684
G01 X88.0067 Y36.7203 Z-0.6141
G01 X87.8032 Y36.5168 Z-1.1053
G01 X87.9049 Y36.4151 Z-0.8597
G01 X88.0067 Y36.3133 Z-0.6141
G01 X88.1084 Y36.2116 Z-0.3684
G01 X88.2101 Y36.1098 Z-0.1228
G01 X88.2610 Y36.0590 Z0.0000
G01 X88.2119 Y36.1081 Z-0.1187
G01 X88.1135 Y36.2065 Z-0.3561
G01 X88.0152 Y36.3048 Z-0.5935
G01 X87.8185 Y36.5015 Z-1.0683
G01 X87.7202 Y36.5168 Z-1.1053
G01 X87.6219
G01 X87.5235
G01 X87.4252 Y36.5173 Z-1.1064
G01 X87.3269 Y36.5256 Z-1.1265
G01 X87.2285 Y36.5445 Z-1.1722
G01 X87.1302 Y36.5740 Z-1.2433
G01 X87.0319 Y36.6140 Z-1.3399
G01 X86.9336 Y36.6585 Z-1.4473
G01 X86.8352 Y36.6090 Z-1.3280
G01 X86.7369 Y36.5702 Z-1.2342
G01 X86.6386 Y36.5419 Z-1.1659
G01 X86.5402 Y36.5242 Z-1.1231
G01 X86.4419 Y36.5170 Z-1.1057
G01 X86.3436 Y36.5168 Z-1.1053
G01 X86.2452
G01 X86.1469
G01 X86.0486 Y36.5015 Z-1.0683
G01 X85.9503 Y36.4031 Z-0.8309
G01 X85.8519 Y36.3048 Z-0.5935
G01 X85.7536 Y36.2065 Z-0.3561
G01 X85.6553 Y36.1081 Z-0.1187
G01 X85.6061 Y36.0590 Z0.0000
G01 X85.6570 Y36.1098 Z-0.1228
G01 X85.7587 Y36.2116 Z-0.3684
G01 X85.8604 Y36.3133 Z-0.6141
G01 X86.0639 Y36.5168 Z-1.1053
G01 X85.9622 Y36.6186 Z-0.8597
G01 X85.8604 Y36.7203 Z-0.6141
G01 X85.7587 Y36.8220 Z-0.3684
G01 X85.6570 Y36.9238 Z-0.1228
G01 X85.6061 Y36.9747 Z0.0000
G00 Z5.0000
G00 X88.7733 Y36.9229
G01 Z-0.1250
G01 X88.8769 Y36.8193 Z-0.3750
G01 X88.9804 Y36.7158 Z-0.6250
G01 X89.1875 Y36.5168 Z-1.1053
G01 X89.2911
G01 X89.3946
G01 X89.4982
G01 X89.6017
G01 X89.6735 Y36.5170 Z-1.1058
G01 X89.7256 Y36.5196 Z-1.1122
G01 X89.7781 Y36.5253 Z-1.1258
G01 X89.8356 Y36.5349 Z-1.1491
G01 X89.8989 Y36.5497 Z-1.1847
G01 X89.9688 Y36.5711 Z-1.2364
G01 X90.0422 Y36.5993 Z-1.3045
G01 X90.1251 Y36.6383 Z-1.3985
G01 X90.1682 Y36.6834 Z-1.4278
G01 Y36.7180 Z-1.3886
G01 Y36.7562 Z-1.3500
G01 Y36.7974 Z-1.3143
G01 Y36.8367 Z-1.2865
G01 Y36.8793 Z-1.2638
G01 Y36.9251 Z-1.2484
G01 Y36.9747 Z-1.2427
G01 Y37.0247
G01 Y37.1248
G01 Y37.2249
G01 Y37.3250
G01 Y37.4251
G01 Y37.5252
G01 Y37.6253
G01 Y37.7254
G01 Y37.8255
G01 Y37.9255
G01 Y38.0256
G01 Y38.1257
G01 Y38.2258
G01 Y38.3259
G01 Y38.4260
G01 Y38.5261
G01 Y38.6262
G01 Y38.7263
G01 Y38.8264
G01 Y38.9265
G01 Y39.0266
G01 Y39.1267
G01 Y39.2268
G01 Y39.3269
G01 Y39.4270
G01 Y39.5271
G01 Y39.6272
G01 Y39.7272
G01 Y39.8273
G01 Y39.9274
G01 Y40.0275
G01 Y40.1276
G01 Y40.2277
G01 Y40.3278
G01 Y40.4279
G01 Y40.5280
G01 Y40.6281
G01 Y40.7282
G01 Y40.8283
G01 Y40.9284
G01 Y41.0285
G01 Y41.1286
G01 Y41.2287
G01 Y41.3288
G01 Y41.4288
G01 Y41.5289
G01 Y41.6290
G01 Y41.7291
G01 Y41.8292
G01 Y41.9293
G01 Y42.0294
G01 Y42.1295
G01 Y42.2296
G01 Y42.3297
G01 Y42.4298
G01 Y42.5299
G01 Y42.6300
G01 Y42.6800
G01 X90.1668 Y42.7340 Z-1.2461
G01 X90.1625 Y42.7882 Z-1.2564
G01 X90.1546 Y42.8477 Z-1.2756
G01 X90.1419 Y42.9130 Z-1.3063
G01 X90.1245 Y42.9801 Z-1.3482
G01 X90.0952 Y43.0314 Z-1.3625
G01 X90.0612 Y43.0471 Z-1.3244
G01 X90.0235 Y43.0631 Z-1.2858
G01 X89.9868 Y43.0772 Z-1.2518
G01 X89.9510 Y43.0895 Z-1.2220
G01 X89.9118 Y43.1015 Z-1.1932
G01 X89.8733 Y43.1115 Z-1.1690
G01 X89.8315 Y43.1206 Z-1.1471
G01 X89.7904 Y43.1276 Z-1.1300
G01 X89.7457 Y43.1332 Z-1.1165
G01 X89.7015 Y43.1366 Z-1.1084
G01 X89.6535 Y43.1379 Z-1.1053
G01 X89.6017
G01 X89.4982
G01 X89.3946
G01 X89.2911
G01 X89.1875
G01 X89.0840 Y43.0424 Z-0.8750
G01 X88.9804 Y42.9389 Z-0.6250
G01 X88.8769 Y42.8354 Z-0.3750
G01 X88.7733 Y42.7318 Z-0.1250
G01 X88.7216 Y42.6800 Z0.0000
G01 X88.7724 Y42.7309 Z-0.1228
G01 X88.8742 Y42.8326 Z-0.3684
G01 X88.9759 Y42.9344 Z-0.6141
G01 X89.1794 Y43.1379 Z-1.1053
G01 X89.0777 Y43.2396 Z-0.8597
G01 X88.9759 Y43.3414 Z-0.6141
G01 X88.8742 Y43.4431 Z-0.3684
G01 X88.7724 Y43.5448 Z-0.1228
G01 X88.7216 Y43.5957 Z0.0000
G01 X88.7706 Y43.5467 Z-0.1184
G01 X88.8687 Y43.4486 Z-0.3551
G01 X88.9667 Y43.3505 Z-0.5919
G01 X89.1629 Y43.1544 Z-1.0654
G01 X89.2610 Y43.1379 Z-1.1053
G01 X89.3590
G01 X89.4571
G01 X89.5552
G01 X89.6532
G01 X89.7513 Y43.1326 Z-1.1179
G01 X89.8494 Y43.1169 Z-1.1559
G01 X89.9474 Y43.0907 Z-1.2192
G01 X90.0455 Y43.0540 Z-1.3079
G01 X90.1436 Y43.0563 Z-1.3022
G01 X90.2416 Y43.1544 Z-1.0654
G01 X90.3397 Y43.2525 Z-0.8287
G01 X90.4378 Y43.3505 Z-0.5919
G01 X90.5359 Y43.4486 Z-0.3551
G01 X90.6339 Y43.5467 Z-0.1184
G01 X90.6830 Y43.5957 Z0.0000
G01 X90.6328 Y43.5455 Z-0.1211
G01 X90.5325 Y43.4452 Z-0.3633
G01 X90.4322 Y43.3449 Z-0.6055
G01 X90.3318 Y43.2446 Z-0.8477
G01 X90.1312 Y43.0440 Z-1.3321
G01 X90.1345 Y42.9436 Z-1.3241
G01 X90.1553 Y42.8433 Z-1.2739
G01 X90.1663 Y42.7430 Z-1.2473
G01 X90.1682 Y42.6427 Z-1.2427
G01 Y42.5424
G01 Y42.4420
G01 Y42.3417
G01 Y42.2414
G01 Y42.1411
G01 Y42.0408
G01 Y41.9404
G01 Y41.8401
G01 Y41.7398
G01 Y41.6395
G01 Y41.5392
G01 Y41.4388
G01 Y41.3385
G01 Y41.2382
G01 Y41.1379
G01 Y41.0376
G01 Y40.9373
G01 Y40.8369
G01 Y40.7366
G01 Y40.6363
G01 Y40.5360
G01 Y40.4357
G01 Y40.3353
G01 Y40.2350
G01 Y40.1347
G01 Y40.0344
G01 Y39.9341
G01 Y39.8337
G01 Y39.7334
G01 Y39.6331
G01 Y39.5328
G01 Y39.4325
G01 Y39.3321
G01 Y39.2318
G01 Y39.1315
G01 Y39.0312
G01 Y38.9309
G01 Y38.8306
G01 Y38.7302
G01 Y38.6299
G01 Y38.5296
G01 Y38.4293
G01 Y38.3290
G01 Y38.2286
G01 Y38.1283
G01 Y38.0280
G01 Y37.9277
G01 Y37.8274
G01 Y37.7270
G01 Y37.6267
G01 Y37.5264
G01 Y37.4261
G01 Y37.3258
G01 Y37.2254
G01 Y37.1251
G01 Y37.0248
G01 Y36.9477 Z-1.2444
G01 Y36.8885 Z-1.2599
G01 Y36.8222 Z-1.2960
G01 Y36.7401 Z-1.3656
G01 X90.1754 Y36.6575 Z-1.4449
G01 X90.2063 Y36.6409 Z-1.4049
G01 X90.2413 Y36.6233 Z-1.3625
G01 X90.2753 Y36.6076 Z-1.3244
G01 X90.3130 Y36.5915 Z-1.2858
G01 X90.3497 Y36.5775 Z-1.2517
G01 X90.3854 Y36.5651 Z-1.2220
G01 X90.4247 Y36.5532 Z-1.1932
G01 X90.4631 Y36.5432 Z-1.1690
G01 X90.5050 Y36.5341 Z-1.1471
G01 X90.5461 Y36.5270 Z-1.1300
G01 X90.5908 Y36.5215 Z-1.1165
G01 X90.6350 Y36.5181 Z-1.1084
G01 X90.6830 Y36.5168 Z-1.1053
G01 X90.7331
G01 X90.8333
G01 X90.9336
G01 X91.0338 Y36.5236 Z-1.0890
G01 X91.1340 Y36.6238 Z-0.8470
G01 X91.2343 Y36.7241 Z-0.6050
G01 X91.3345 Y36.8243 Z-0.3630
G01 X91.4347 Y36.9245 Z-0.1210
G01 X91.4849 Y36.9747 Z0.0000
G01 X91.4340 Y36.9238 Z-0.1228
G01 X91.3322 Y36.8220 Z-0.3684
G01 X91.2305 Y36.7203 Z-0.6141
G01 X91.0270 Y36.5168 Z-1.1053
G01 X91.1288 Y36.4151 Z-0.8597
G01 X91.2305 Y36.3133 Z-0.6141
G01 X91.3322 Y36.2116 Z-0.3684
G01 X91.4340 Y36.1098 Z-0.1228
G01 X91.4849 Y36.0590 Z0.0000
G01 X91.4355 Y36.1083 Z-0.1191
G01 X91.3368 Y36.2070 Z-0.3574
G01 X91.2381 Y36.3057 Z-0.5956
G01 X91.0408 Y36.5031 Z-1.0722
G01 X90.9421 Y36.5168 Z-1.1053
G01 X90.8434
G01 X90.7447
G01 X90.6460 Y36.5176 Z-1.1071
G01 X90.5473 Y36.5269 Z-1.1296
G01 X90.4486 Y36.5468 Z-1.1777
G01 X90.3499 Y36.5774 Z-1.2515
G01 X90.2512 Y36.6186 Z-1.3510
G01 X90.1526 Y36.6528 Z-1.4336
G01 X90.0539 Y36.6043 Z-1.3166
G01 X89.9552 Y36.5665 Z-1.2253
G01 X89.8565 Y36.5393 Z-1.1596
G01 X89.7578 Y36.5228 Z-1.1197
G01 X89.6591 Y36.5168 Z-1.1054
G01 X89.5604 Z-1.1053
G01 X89.4617
G01 X89.3630
G01 X89.2644
G01 X89.1657 Y36.5031 Z-1.0722
G01 X89.0670 Y36.4044 Z-0.8339
G01 X88.9683 Y36.3057 Z-0.5956
G01 X88.8696 Y36.2070 Z-0.3574
G01 X88.7709 Y36.1083 Z-0.1191
G01 X88.7216 Y36.0590 Z0.0000
G01 X88.7724 Y36.1098 Z-0.1228
G01 X88.8742 Y36.2116 Z-0.3684
G01 X88.9759 Y36.3133 Z-0.6141
G01 X89.1794 Y36.5168 Z-1.1053
G01 X89.0777 Y36.6186 Z-0.8597
G01 X88.9759 Y36.7203 Z-0.6141
G01 X88.8742 Y36.8220 Z-0.3684
G01 X88.7724 Y36.9238 Z-0.1228
G01 X88.7216 Y36.9747 Z0.0000
G00 Z5.0000
G00 X92.1350 Y40.4369
G01 Z-0.1177
G01 X92.2326 Y40.5344 Z-0.3532
G01 X92.3301 Y40.6319 Z-0.5886
G01 X92.4276 Y40.7295 Z-0.8241
G01 X92.5252 Y40.8270 Z-1.0595
G01 X92.6227 Y40.8460 Z-1.1053
G01 X92.7202
G01 X92.7690
G01 X92.8131 Z-1.1104
G01 X92.8580 Z-1.1260
G01 X92.9003 Z-1.1499
G01 X92.9402 Z-1.1801
G01 X92.9776 Z-1.2147
G01 X93.0124 Z-1.2519
G01 X93.0495 Z-1.2964
G01 X93.0836 Z-1.3412
G01 X93.1203 Z-1.3932
G01 X93.1531 Z-1.4429
G01 X93.1885 Z-1.4992
G01 X93.2189 Z-1.5497
G01 X93.2514 Z-1.6057
G01 X93.2837 Y40.8435 Z-1.6592
G01 Y40.7160 Z-1.4734
G01 Y40.6173 Z-1.3603
G01 Y40.5406 Z-1.2960
G01 Y40.4743 Z-1.2599
G01 Y40.4151 Z-1.2444
G01 Y40.3381 Z-1.2427
G01 Y40.2381
G01 Y40.1381
G01 Y40.0380
G01 Y39.9380
G01 Y39.8380
G01 Y39.7379
G01 Y39.6379
G01 Y39.5379
G01 Y39.4379
G01 Y39.3378
G01 Y39.2378
G01 Y39.1378
G01 Y39.0377
G01 Y38.9377
G01 Y38.8377
G01 Y38.7377
G01 Y38.6376
G01 Y38.5376
G01 Y38.4376
G01 Y38.3375
G01 Y38.2375
G01 Y38.1375
G01 Y38.0375
G01 Y37.9374
G01 Y37.8374
G01 X93.2840 Y37.7508 Z-1.2430
G01 X93.2846 Y37.6788 Z-1.2436
G01 X93.2856 Y37.6093 Z-1.2444
G01 X93.2871 Y37.5422 Z-1.2454
G01 X93.2891 Y37.4777 Z-1.2467
G01 X93.2916 Y37.4157 Z-1.2483
G01 X93.2945 Y37.3562 Z-1.2502
G01 X93.2979 Y37.2993 Z-1.2526
G01 X93.3020 Y37.2450 Z-1.2555
G01 X93.3065 Y37.1933 Z-1.2589
G01 X93.3116 Y37.1444 Z-1.2629
G01 X93.3234 Y37.0550 Z-1.2729
G01 X93.3372 Y36.9774 Z-1.2855
G01 X93.3522 Y36.9124 Z-1.2994
G01 X93.3670 Y36.8611 Z-1.3128
G01 X93.3837 Y36.8153 Z-1.3263
G01 X93.4080 Y36.7661 Z-1.3361
G01 X93.4397 Y36.7190 Z-1.3382
G01 X93.4758 Y36.6769 Z-1.3343
G01 X93.5269 Y36.6292 Z-1.3255
G01 X93.5740 Y36.5944 Z-1.3135
G01 X93.6384 Y36.5572 Z-1.2932
G01 X93.6992 Y36.5300 Z-1.2730
G01 X93.7725 Y36.5050 Z-1.2494
G01 X93.8288 Y36.4904 Z-1.2323
G01 X93.8911 Y36.4782 Z-1.2152
G01 X93.9594 Y36.4689 Z-1.1983
G01 X94.0235 Y36.4637 Z-1.1846
G01 X94.0855 Y36.4615 Z-1.1726
G01 X94.1479 Y36.4620 Z-1.1620
G01 X94.2107 Y36.4651 Z-1.1518
G01 X94.2741 Y36.4705 Z-1.1417
G01 X94.4328 Y36.3628 Z-0.8100
G01 X94.5755 Y36.2532 Z-0.4654
G01 X94.6819 Y36.1749 Z-0.2085
G01 X94.7389 Y36.1341 Z-0.0711
G01 X94.7683 Y36.1132 Z0.0000
G01 X94.6953 Y36.1652 Z-0.1761
G01 X94.5539 Y36.2694 Z-0.5176
G01 X94.4191 Y36.3735 Z-0.8429
G01 X94.3014 Y36.4777 Z-1.1272
G01 X94.4893 Y36.6860 Z-0.6736
G01 X94.5753 Y36.7901 Z-0.4658
G01 X94.6563 Y36.8943 Z-0.2704
G01 X94.7321 Y36.9984 Z-0.0873
G01 X94.7683 Y37.0505 Z0.0000
G01 X94.7581 Y37.0357 Z-0.0246
G01 X94.7373 Y37.0058 Z-0.0748
G01 X94.7160 Y36.9756 Z-0.1264
G01 X94.6940 Y36.9452 Z-0.1794
G01 X94.6714 Y36.9145 Z-0.2340
G01 X94.6480 Y36.8834 Z-0.2903
G01 X94.6240 Y36.8520 Z-0.3483
G01 X94.5992 Y36.8202 Z-0.4082
G01 X94.5736 Y36.7880 Z-0.4700
G01 X94.5471 Y36.7553 Z-0.5339
G01 X94.5198 Y36.7222 Z-0.6000
G01 X94.4915 Y36.6886 Z-0.6683
G01 X94.4621 Y36.6544 Z-0.7391
G01 X94.4318 Y36.6197 Z-0.8124
G01 X94.4003 Y36.5844 Z-0.8884
G01 X94.3677 Y36.5485 Z-0.9672
G01 X94.3338 Y36.5120 Z-1.0490
G01 X94.2986 Y36.4748 Z-1.1338
G01 X94.2236 Y36.4660 Z-1.1499
G01 X94.1456 Y36.4620 Z-1.1624
G01 X94.0656 Y36.4619 Z-1.1764
G01 X93.9838 Y36.4665 Z-1.1930
G01 X93.8990 Y36.4769 Z-1.2132
G01 X93.8103 Y36.4948 Z-1.2380
G01 X93.7643 Y36.5075 Z-1.2521
G01 X93.7173 Y36.5232 Z-1.2672
G01 X93.6696 Y36.5425 Z-1.2830
G01 X93.6216 Y36.5660 Z-1.2988
G01 X93.5742 Y36.5942 Z-1.3134
G01 X93.5284 Y36.6279 Z-1.3252
G01 X93.4856 Y36.6670 Z-1.3329
G01 X93.4462 Y36.7107 Z-1.3379
G01 X93.4122 Y36.7590 Z-1.3370
G01 X93.3853 Y36.8114 Z-1.3274
G01 X93.3585 Y36.8895 Z-1.3053
G01 X93.3358 Y36.9846 Z-1.2842
G01 X93.3213 Y37.0691 Z-1.2711
G01 X93.3108 Y37.1514 Z-1.2623
G01 X93.3027 Y37.2357 Z-1.2561
G01 X93.2963 Y37.3245 Z-1.2516
G01 X93.2914 Y37.4194 Z-1.2482
G01 X93.2877 Y37.5213 Z-1.2458
G01 X93.2863 Y37.5751 Z-1.2450
G01 X93.2852 Y37.6308 Z-1.2442
G01 X93.2845 Y37.6885 Z-1.2435
G01 X93.2840 Y37.7483 Z-1.2431
G01 X93.2837 Y37.8101 Z-1.2428
G01 Y37.8925 Z-1.2427
G01 Y37.9944
G01 Y38.0962
G01 Y38.1981
G01 Y38.2999
G01 Y38.4018
G01 Y38.5037
G01 Y38.6055
G01 Y38.7074
G01 Y38.8093
G01 Y38.9111
G01 Y39.0130
G01 Y39.1148
G01 Y39.2167
G01 Y39.3186
G01 Y39.4204
G01 Y39.5223
G01 Y39.6242
G01 Y39.7260
G01 Y39.8279
G01 Y39.9297
G01 Y40.0316
G01 Y40.1335
G01 Y40.2353
G01 Y40.3372
G01 Y40.3881
G01 Y40.4377 Z-1.2484
G01 Y40.4835 Z-1.2638
G01 Y40.5260 Z-1.2865
G01 Y40.5654 Z-1.3143
G01 Y40.6066 Z-1.3500
G01 Y40.6448 Z-1.3886
G01 Y40.6793 Z-1.4278
G01 Y40.7160 Z-1.4734
G01 Y40.7485 Z-1.5170
G01 Y40.7831 Z-1.5664
G01 Y40.8200 Z-1.6222
G01 X93.3934 Y40.8460 Z-1.4758
G01 X93.5179 Z-1.2964
G01 X93.6135 Z-1.1921
G01 X93.6885 Z-1.1367
G01 X93.7463 Z-1.1125
G01 X93.7984 Z-1.1053
G01 X93.8469
G01 X93.9439
G01 X94.0409
G01 X94.1379
G01 X94.2349
G01 X94.3319 Y40.8246 Z-1.0537
G01 X94.5258 Y40.6306 Z-0.5854
G01 X94.6228 Y40.5336 Z-0.3512
G01 X94.7198 Y40.4366 Z-0.1171
G01 X94.7683 Y40.3881 Z0.0000
G01 X94.7174 Y40.4390 Z-0.1228
G01 X94.6157 Y40.5407 Z-0.3684
G01 X94.5139 Y40.6425 Z-0.6141
G01 X94.4122 Y40.7442 Z-0.8597
G01 X94.3105 Y40.8460 Z-1.1053
G01 X94.5139 Y41.0494 Z-0.6141
G01 X94.6157 Y41.1512 Z-0.3684
G01 X94.7174 Y41.2529 Z-0.1228
G01 X94.7683 Y41.3038 Z0.0000
G01 X94.7198 Y41.2553 Z-0.1171
G01 X94.6228 Y41.1583 Z-0.3512
G01 X94.5258 Y41.0613 Z-0.5854
G01 X94.4288 Y40.9644 Z-0.8195
G01 X94.3319 Y40.8674 Z-1.0537
G01 X94.2349 Y40.8460 Z-1.1053
G01 X94.1379
G01 X94.0409
G01 X93.9439
G01 X93.8469
G01 X93.7984
G01 X93.7543 Z-1.1104
G01 X93.7094 Z-1.1260
G01 X93.6671 Z-1.1499
G01 X93.6273 Z-1.1801
G01 X93.5898 Z-1.2147
G01 X93.5550 Z-1.2519
G01 X93.5179 Z-1.2964
G01 X93.4838 Z-1.3412
G01 X93.4471 Z-1.3932
G01 X93.4143 Z-1.4429
G01 X93.3789 Z-1.4992
G01 X93.3485 Z-1.5497
G01 X93.3160 Z-1.6057
G01 X93.2837 Y40.8484 Z-1.6592
G01 Y40.9759 Z-1.4734
G01 Y41.0746 Z-1.3603
G01 Y41.1513 Z-1.2960
G01 Y41.2177 Z-1.2599
G01 Y41.2768 Z-1.2444
G01 Y41.3524 Z-1.2427
G01 Y41.4496
G01 Y41.5469
G01 Y41.6441
G01 Y41.7413
G01 Y41.8386
G01 X93.3063 Y41.9358 Z-1.1882
G01 X93.3491 Y42.0330 Z-1.0849
G01 X93.3919 Y42.1302 Z-0.9816
G01 X93.4347 Y42.2275 Z-0.8782
G01 X93.4774 Y42.3247 Z-0.7749
G01 X93.5202 Y42.4219 Z-0.6716
G01 X93.5630 Y42.5191 Z-0.5683
G01 X93.6058 Y42.6164 Z-0.4650
G01 X93.6486 Y42.7136 Z-0.3616
G01 X93.6914 Y42.8108 Z-0.2583
G01 X93.7342 Y42.9080 Z-0.1550
G01 X93.7770 Y43.0053 Z-0.0517
G01 X93.7984 Y43.0539 Z0.0000
G01 X93.7765 Y43.0040 Z-0.0530
G01 X93.7326 Y42.9043 Z-0.1589
G01 X93.6887 Y42.8046 Z-0.2649
G01 X93.6448 Y42.7049 Z-0.3709
G01 X93.6009 Y42.6052 Z-0.4768
G01 X93.5570 Y42.5055 Z-0.5828
G01 X93.5131 Y42.4058 Z-0.6887
G01 X93.4693 Y42.3061 Z-0.7947
G01 X93.4254 Y42.2064 Z-0.9007
G01 X93.3815 Y42.1067 Z-1.0066
G01 X93.3376 Y42.0069 Z-1.1126
G01 X93.2937 Y41.9072 Z-1.2186
G01 X92.7690 Y42.1111 Z0.0000
G01 X92.8836 Y42.0607 Z-0.2767
G01 X93.1129 Y41.9597 Z-0.8302
G01 X93.2837 Y41.8588 Z-1.2427
G01 Y41.7579
G01 Y41.6570
G01 Y41.5561
G01 Y41.4552
G01 Y41.3543
G01 Y41.3038
G01 Y41.2542 Z-1.2484
G01 Y41.2084 Z-1.2638
G01 Y41.1659 Z-1.2865
G01 Y41.1266 Z-1.3143
G01 Y41.0853 Z-1.3500
G01 Y41.0472 Z-1.3886
G01 Y41.0126 Z-1.4278
G01 Y40.9759 Z-1.4734
G01 Y40.9434 Z-1.5170
G01 Y40.9088 Z-1.5664
G01 Y40.8719 Z-1.6222
G01 X93.1740 Y40.8460 Z-1.4758
G01 X93.0495 Z-1.2964
G01 X92.9540 Z-1.1921
G01 X92.8789 Z-1.1367
G01 X92.8211 Z-1.1125
G01 X92.7690 Z-1.1053
G01 X92.7202
G01 X92.6227
G01 X92.5252 Y40.8649 Z-1.0595
G01 X92.3301 Y41.0600 Z-0.5886
G01 X92.2326 Y41.1575 Z-0.3532
G01 X92.1350 Y41.2550 Z-0.1177
G01 X92.0863 Y41.3038 Z0.0000
G01 X92.1372 Y41.2529 Z-0.1228
G01 X92.2389 Y41.1512 Z-0.3684
G01 X92.3406 Y41.0494 Z-0.6141
G01 X92.4424 Y40.9477 Z-0.8597
G01 X92.5441 Y40.8460 Z-1.1053
G01 X92.3406 Y40.6425 Z-0.6141
G01 X92.2389 Y40.5407 Z-0.3684
G01 X92.1372 Y40.4390 Z-0.1228
G01 X92.0863 Y40.3881 Z0.0000
G00 Z5.0000
G00 X96.0810 Y38.5294
G01 Z-1.3145
G01 X96.0877 Y38.4313 Z-1.3147
G01 X96.0977 Y38.3359 Z-1.3150
G01 X96.1108 Y38.2432 Z-1.3152
G01 X96.1269 Y38.1531 Z-1.3153
G01 X96.1461 Y38.0655 Z-1.3152
G01 X96.1682 Y37.9803 Z-1.3149
G01 X96.1932 Y37.8973 Z-1.3144
G01 X96.2210 Y37.8165 Z-1.3135
G01 X96.2517 Y37.7377 Z-1.3122
G01 X96.2853 Y37.6608 Z-1.3105
G01 X96.3217 Y37.5856 Z-1.3084
G01 X96.3612 Y37.5120 Z-1.3059
G01 X96.4036 Y37.4398 Z-1.3030
G01 X96.4492 Y37.3691 Z-1.2997
G01 X96.4981 Y37.2996 Z-1.2961
G01 X96.5504 Y37.2313 Z-1.2922
G01 X96.6061 Y37.1642 Z-1.2880
G01 X96.6655 Y37.0983 Z-1.2838
G01 X96.7274 Y37.0348 Z-1.2794
G01 X96.7932 Y36.9729 Z-1.2757
G01 X96.8601 Y36.9146 Z-1.2720
G01 X96.9281 Y36.8597 Z-1.2683
G01 X96.9974 Y36.8082 Z-1.2645
G01 X97.0679 Y36.7599 Z-1.2607
G01 X97.1398 Y36.7148 Z-1.2568
G01 X97.2131 Y36.6729 Z-1.2529
G01 X97.2880 Y36.6340 Z-1.2490
G01 X97.3645 Y36.5982 Z-1.2450
G01 X97.4427 Y36.5654 Z-1.2410
G01 X97.5227 Y36.5356 Z-1.2370
G01 X97.6048 Y36.5088 Z-1.2332
G01 X97.6888 Y36.4852 Z-1.2295
G01 X97.7750 Y36.4647 Z-1.2261
G01 X97.8635 Y36.4474 Z-1.2231
G01 X97.9542 Y36.4334 Z-1.2205
G01 X98.0473 Y36.4228 Z-1.2185
G01 X98.1427 Y36.4156 Z-1.2171
G01 X98.2405 Y36.4120 Z-1.2164
G01 X98.3380 Z-1.2163
G01 X98.4326 Y36.4154 Z-1.2168
G01 X98.5251 Y36.4222 Z-1.2178
G01 X98.6156 Y36.4324 Z-1.2191
G01 X98.7040 Y36.4458 Z-1.2208
G01 X98.7904 Y36.4624 Z-1.2228
G01 X98.8749 Y36.4821 Z-1.2251
G01 X98.9576 Y36.5050 Z-1.2276
G01 X99.0386 Y36.5310 Z-1.2304
G01 X99.1179 Y36.5600 Z-1.2333
G01 X99.1957 Y36.5922 Z-1.2364
G01 X99.2720 Y36.6274 Z-1.2397
G01 X99.3469 Y36.6658 Z-1.2431
G01 X99.4204 Y36.7074 Z-1.2467
G01 X99.4928 Y36.7522 Z-1.2506
G01 X99.5639 Y36.8003 Z-1.2546
G01 X99.6339 Y36.8519 Z-1.2590
G01 X99.7028 Y36.9069 Z-1.2636
G01 X99.7705 Y36.9654 Z-1.2687
G01 X99.8372 Y37.0276 Z-1.2741
G01 X99.9027 Y37.0933 Z-1.2801
G01 X99.9629 Y37.1587 Z-1.2860
G01 X100.0195 Y37.2252 Z-1.2915
G01 X100.0725 Y37.2929 Z-1.2965
G01 X100.1221 Y37.3618 Z-1.3010
G01 X100.1684 Y37.4320 Z-1.3050
G01 X100.2116 Y37.5036 Z-1.3083
G01 X100.2518 Y37.5768 Z-1.3111
G01 X100.2889 Y37.6517 Z-1.3133
G01 X100.3232 Y37.7284 Z-1.3150
G01 X100.3547 Y37.8072 Z-1.3161
G01 X100.3832 Y37.8881 Z-1.3167
G01 X100.4089 Y37.9714 Z-1.3170
G01 X100.4317 Y38.0571 Z-1.3169
G01 X100.4515 Y38.1454 Z-1.3166
G01 X100.4682 Y38.2364 Z-1.3161
G01 X100.4818 Y38.3302 Z-1.3156
G01 X100.4921 Y38.4270 Z-1.3151
G01 X100.4991 Y38.5266 Z-1.3146
G01 X100.5026 Y38.6292 Z-1.3144
G01 Y38.7335
G01 X100.4991 Y38.8361 Z-1.3146
G01 X100.4921 Y38.9357 Z-1.3151
G01 X100.4818 Y39.0323 Z-1.3156
G01 X100.4682 Y39.1260 Z-1.3161
G01 X100.4515 Y39.2168 Z-1.3166
G01 X100.4317 Y39.3049 Z-1.3169
G01 X100.4090 Y39.3904
G01 X100.3834 Y39.4734 Z-1.3166
G01 X100.3549 Y39.5540 Z-1.3160
G01 X100.3235 Y39.6323 Z-1.3148
G01 X100.2893 Y39.7087 Z-1.3132
G01 X100.2522 Y39.7832 Z-1.3109
G01 X100.2122 Y39.8559 Z-1.3081
G01 X100.1691 Y39.9271 Z-1.3047
G01 X100.1229 Y39.9968 Z-1.3008
G01 X100.0735 Y40.0652 Z-1.2962
G01 X100.0206 Y40.1323 Z-1.2912
G01 X99.9641 Y40.1983 Z-1.2858
G01 X99.9040 Y40.2631 Z-1.2800
G01 X99.8382 Y40.3287 Z-1.2741
G01 X99.7709 Y40.3910 Z-1.2687
G01 X99.7025 Y40.4497 Z-1.2637
G01 X99.6332 Y40.5049 Z-1.2589
G01 X99.5628 Y40.5567 Z-1.2543
G01 X99.4913 Y40.6051 Z-1.2499
G01 X99.4187 Y40.6501 Z-1.2457
G01 X99.3449 Y40.6920 Z-1.2416
G01 X99.2698 Y40.7306 Z-1.2376
G01 X99.1934 Y40.7661 Z-1.2338
G01 X99.1156 Y40.7985 Z-1.2302
G01 X99.0363 Y40.8278 Z-1.2267
G01 X98.9554 Y40.8540 Z-1.2235
G01 X98.8728 Y40.8771 Z-1.2204
G01 X98.7884 Y40.8971 Z-1.2177
G01 X98.7022 Y40.9139 Z-1.2152
G01 X98.6141 Y40.9274 Z-1.2132
G01 X98.5240 Y40.9377 Z-1.2115
G01 X98.4319 Y40.9446 Z-1.2104
G01 X98.3378 Y40.9481 Z-1.2099
G01 X98.2414 Z-1.2098
G01 X98.1452 Y40.9446 Z-1.2103
G01 X98.0512 Y40.9376 Z-1.2112
G01 X97.9595 Y40.9273 Z-1.2126
G01 X97.8699 Y40.9137 Z-1.2143
G01 X97.7825 Y40.8968 Z-1.2164
G01 X97.6970 Y40.8767 Z-1.2188
G01 X97.6136 Y40.8535 Z-1.2214
G01 X97.5320 Y40.8271 Z-1.2242
G01 X97.4522 Y40.7977 Z-1.2273
G01 X97.3741 Y40.7651 Z-1.2305
G01 X97.2975 Y40.7294 Z-1.2339
G01 X97.2226 Y40.6905 Z-1.2374
G01 X97.1490 Y40.6484 Z-1.2411
G01 X97.0768 Y40.6030 Z-1.2451
G01 X97.0059 Y40.5543 Z-1.2493
G01 X96.9362 Y40.5022 Z-1.2537
G01 X96.8678 Y40.4466 Z-1.2586
G01 X96.8005 Y40.3874 Z-1.2638
G01 X96.7345 Y40.3245 Z-1.2694
G01 X96.6696 Y40.2579 Z-1.2756
G01 X96.6099 Y40.1918 Z-1.2818
G01 X96.5539 Y40.1247 Z-1.2875
G01 X96.5014 Y40.0565 Z-1.2928
G01 X96.4523 Y39.9872 Z-1.2975
G01 X96.4065 Y39.9167 Z-1.3017
G01 X96.3638 Y39.8449 Z-1.3054
G01 X96.3242 Y39.7717 Z-1.3085
G01 X96.2875 Y39.6969 Z-1.3110
G01 X96.2537 Y39.6205 Z-1.3129
G01 X96.2228 Y39.5422 Z-1.3143
G01 X96.1947 Y39.4619 Z-1.3153
G01 X96.1695 Y39.3795 Z-1.3158
G01 X96.1471 Y39.2948 Z-1.3160
G01 X96.1277 Y39.2076
G01 X96.1113 Y39.1180 Z-1.3157
G01 X96.0980 Y39.0257 Z-1.3153
G01 X96.0879 Y38.9307 Z-1.3149
G01 X96.0811 Y38.8330 Z-1.3146
G01 X96.0776 Y38.7324 Z-1.3144
G01 Y38.6302
G00 Z5.0000
G00 X101.8303 Y40.4390
G01 Z-0.1228
G01 X101.9321 Y40.5407 Z-0.3684
G01 X102.0338 Y40.6425 Z-0.6141
G01 X102.2373 Y40.8460 Z-1.1053
G01 X102.1356 Y40.9477 Z-0.8597
G01 X102.0338 Y41.0494 Z-0.6141
G01 X101.9321 Y41.1512 Z-0.3684
G01 X101.8303 Y41.2529 Z-0.1228
G01 X101.7795 Y41.3038 Z0.0000
G01 X101.8282 Y41.2550 Z-0.1177
G01 X101.9258 Y41.1575 Z-0.3532
G01 X102.0233 Y41.0600 Z-0.5886
G01 X102.2183 Y40.8649 Z-1.0595
G01 X102.3159 Y40.8460 Z-1.1053
G01 X102.4134
G01 X102.5109
G01 X102.6084
G01 X102.7060 Y40.8459 Z-1.1054
G01 X102.8035 Y40.8402 Z-1.1193
G01 X102.9010 Y40.8240 Z-1.1583
G01 X102.9986 Y40.7975 Z-1.2224
G01 X103.0961 Y40.7605 Z-1.3116
G01 X103.1936 Y40.7674 Z-1.2950
G01 X103.2911 Y40.8649 Z-1.0595
G01 X103.3887 Y40.9625 Z-0.8241
G01 X103.4862 Y41.0600 Z-0.5886
G01 X103.5837 Y41.1575 Z-0.3532
G01 X103.6813 Y41.2550 Z-0.1177
G01 X103.7300 Y41.3038 Z0.0000
G01 X103.6772 Y41.2510 Z-0.1275
G01 X103.5715 Y41.1453 Z-0.3826
G01 X103.4659 Y41.0397 Z-0.6377
G01 X103.3602 Y40.9340 Z-0.8928
G01 X103.1609 Y40.7227 Z-1.3739
G01 X103.1864 Y40.6344 Z-1.3151
G01 X103.1991 Y40.5883 Z-1.2969
G01 X103.2127 Y40.5386 Z-1.2886
G01 X103.2274 Y40.4846 Z-1.2931
G01 X103.2438 Y40.4249 Z-1.3144
G01 X103.2626 Y40.3577 Z-1.3569
G01 X103.2862 Y40.2877 Z-1.4140
G01 X103.3191 Y40.2256 Z-1.4610
G01 X103.3537 Z-1.4056
G01 X103.3858 Z-1.3568
G01 X103.4218 Y40.2259 Z-1.3048
G01 X103.4558 Y40.2270 Z-1.2574
G01 X103.4880 Y40.2290 Z-1.2143
G01 X103.5234 Y40.2321 Z-1.1686
G01 X103.5567 Y40.2358 Z-1.1284
G01 X103.5926 Y40.2409 Z-1.0874
G01 X103.6264 Y40.2470 Z-1.0512
G01 X103.6584 Y40.2538 Z-1.0193
G01 X103.6888 Y40.2611 Z-0.9919
G01 X103.7212 Y40.2702 Z-0.9652
G01 X103.7521 Y40.2801 Z-0.9425
G01 X103.7847 Y40.2920 Z-0.9219
G01 X103.8159 Y40.3046 Z-0.9058
G01 X103.8458 Y40.3183 Z-0.8935
G01 X103.8775 Y40.3345 Z-0.8845
G01 X103.9081 Y40.3517 Z-0.8803
G01 X103.9404 Y40.3720
G01 X103.9910 Y40.4052 Z-0.8854
G01 X104.0855 Y40.4652 Z-0.8961
G01 X104.1789 Y40.5212 Z-0.9075
G01 X104.2709 Y40.5732 Z-0.9196
G01 X104.3616 Y40.6213 Z-0.9324
G01 X104.4508 Y40.6653 Z-0.9459
G01 X104.5385 Y40.7054 Z-0.9600
G01 X104.6246 Y40.7417 Z-0.9746
G01 X104.7090 Y40.7741 Z-0.9897
G01 X104.7917 Y40.8027 Z-1.0051
G01 X104.8725 Y40.8277 Z-1.0207
G01 X104.9513 Y40.8491 Z-1.0364
G01 X105.0282 Y40.8671 Z-1.0520
G01 X105.1030 Y40.8819 Z-1.0672
G01 X105.1758 Y40.8934 Z-1.0823
G01 X105.2465 Y40.9017 Z-1.0973
G01 X105.3151 Y40.9073 Z-1.1113
G01 X105.3817 Y40.9094 Z-1.1267
G01 X105.4464 Y40.9083 Z-1.1427
G01 X105.5090 Y40.9039 Z-1.1597
G01 X105.5969 Y40.8927 Z-1.1857
G01 X105.6679 Y40.8789 Z-1.2083
G01 X105.7327 Y40.8622 Z-1.2304
G01 X105.7915 Y40.8433 Z-1.2507
G01 X105.8693 Y40.8121 Z-1.2774
G01 X105.9359 Y40.7785 Z-1.2987
G01 X105.9937 Y40.7431 Z-1.3146
G01 X106.0450 Y40.7054 Z-1.3254
G01 X106.0899 Y40.6681 Z-1.3340
G01 X106.1398 Y40.6212 Z-1.3426
G01 X106.1802 Y40.5764 Z-1.3484
G01 X106.2130 Y40.5336 Z-1.3510
G01 X106.2402 Y40.4917 Z-1.3502
G01 X106.2633 Y40.4490 Z-1.3462
G01 X106.2836 Y40.4033 Z-1.3386
G01 X106.2998 Y40.3598 Z-1.3295
G01 X106.3169 Y40.3067 Z-1.3181
G01 X106.3341 Y40.2440 Z-1.3056
G01 X106.3507 Y40.1719 Z-1.2925
G01 X106.3658 Y40.0908 Z-1.2800
G01 X106.3789 Y40.0013 Z-1.2689
G01 X106.3845 Y39.9534 Z-1.2639
G01 X106.3896 Y39.9034 Z-1.2594
G01 X106.3941 Y39.8515 Z-1.2554
G01 X106.3979 Y39.7977 Z-1.2518
G01 X106.4011 Y39.7419 Z-1.2488
G01 X106.4035 Y39.6842 Z-1.2464
G01 X106.4052 Y39.6246 Z-1.2446
G01 X106.4062 Y39.5632 Z-1.2433
G01 X106.4066 Y39.4829 Z-1.2427
G01 Y39.3845
G01 Y39.2861
G01 Y39.1878
G01 Y39.0894
G01 Y38.9911
G01 Y38.8927
G01 Y38.7943
G01 Y38.6960
G01 Y38.5976
G01 Y38.4993
G01 Y38.4009
G01 Y38.3025
G01 Y38.2042
G01 Y38.1058
G01 Y38.0074
G01 Y37.9091
G01 Y37.8107
G01 Y37.7124
G01 Y37.6140
G01 Y37.5156
G01 Y37.4173
G01 Y37.3189
G01 Y37.2206
G01 Y37.1222
G01 Y36.9747
G01 X106.4080 Y36.9207 Z-1.2461
G01 X106.4123 Y36.8665 Z-1.2564
G01 X106.4203 Y36.8070 Z-1.2756
G01 X106.4330 Y36.7417 Z-1.3063
G01 X106.4503 Y36.6746 Z-1.3482
G01 X106.4797 Y36.6233 Z-1.3625
G01 X106.5137 Y36.6076 Z-1.3244
G01 X106.5514 Y36.5915 Z-1.2858
G01 X106.5881 Y36.5775 Z-1.2517
G01 X106.6238 Y36.5651 Z-1.2220
G01 X106.6631 Y36.5532 Z-1.1932
G01 X106.7015 Y36.5432 Z-1.1690
G01 X106.7434 Y36.5341 Z-1.1471
G01 X106.7845 Y36.5270 Z-1.1300
G01 X106.8291 Y36.5215 Z-1.1165
G01 X106.8734 Y36.5181 Z-1.1084
G01 X106.9213 Y36.5168 Z-1.1053
G01 X106.9704
G01 X107.0685
G01 X107.1667
G01 X107.2648
G01 X107.3629 Y36.5331 Z-1.0661
G01 X107.4611 Y36.6312 Z-0.8292
G01 X107.5592 Y36.7293 Z-0.5923
G01 X107.6573 Y36.8275 Z-0.3554
G01 X107.7554 Y36.9256 Z-0.1185
G01 X107.8045 Y36.9747 Z0.0000
G01 X107.7536 Y36.9238 Z-0.1228
G01 X107.6519 Y36.8220 Z-0.3684
G01 X107.5502 Y36.7203 Z-0.6141
G01 X107.3467 Y36.5168 Z-1.1053
G01 X107.4484 Y36.4151 Z-0.8597
G01 X107.5502 Y36.3133 Z-0.6141
G01 X107.6519 Y36.2116 Z-0.3684
G01 X107.7536 Y36.1098 Z-0.1228
G01 X107.8045 Y36.0590 Z0.0000
G01 X107.7542 Y36.1093 Z-0.1215
G01 X107.6535 Y36.2100 Z-0.3645
G01 X107.5529 Y36.3106 Z-0.6076
G01 X107.3515 Y36.5120 Z-1.0936
G01 X107.2509 Y36.5168 Z-1.1053
G01 X107.1502
G01 X107.0495
G01 X106.9489
G01 X106.8482 Y36.5197 Z-1.1124
G01 X106.7475 Y36.5333 Z-1.1451
G01 X106.6469 Y36.5580 Z-1.2046
G01 X106.5462 Y36.5937 Z-1.2908
G01 X106.4455 Y36.6126 Z-1.3366
G01 X106.3449 Y36.5120 Z-1.0936
G01 X106.2442 Y36.4113 Z-0.8506
G01 X106.1435 Y36.3106 Z-0.6076
G01 X106.0429 Y36.2100 Z-0.3645
G01 X105.9422 Y36.1093 Z-0.1215
G01 X105.8919 Y36.0590 Z0.0000
G01 X105.9423 Y36.1094 Z-0.1218
G01 X106.0432 Y36.2103 Z-0.3653
G01 X106.1441 Y36.3112 Z-0.6088
G01 X106.2449 Y36.4120 Z-0.8524
G01 X106.4467 Y36.6138 Z-1.3394
G01 X106.4394 Y36.7147 Z-1.3219
G01 X106.4189 Y36.8155 Z-1.2724
G01 X106.4083 Y36.9164 Z-1.2466
G01 X106.4066 Y37.0173 Z-1.2427
G01 Y37.1182
G01 Y37.2190
G01 Y37.3199
G01 Y37.4208
G01 Y37.5217
G01 Y37.6225
G01 Y37.7234
G01 Y37.8243
G01 Y37.9252
G01 Y38.0260
G01 Y38.1269
G01 Y38.2278
G01 Y38.3286
G01 Y38.4295
G01 Y38.5304
G01 Y38.6313
G01 Y38.7321
G01 Y38.8330
G01 Y38.9339
G01 Y39.0348
G01 Y39.1356
G01 Y39.2365
G01 Y39.3374
G01 Y39.4383
G01 X106.4065 Y39.5219 Z-1.2430
G01 X106.4059 Y39.5877 Z-1.2439
G01 X106.4045 Y39.6521 Z-1.2456
G01 X106.4023 Y39.7151 Z-1.2479
G01 X106.3992 Y39.7769 Z-1.2508
G01 X106.3952 Y39.8375 Z-1.2545
G01 X106.3902 Y39.8971 Z-1.2589
G01 X106.3843 Y39.9557 Z-1.2642
G01 X106.3772 Y40.0137 Z-1.2704
G01 X106.3689 Y40.0710 Z-1.2775
G01 X106.3592 Y40.1279 Z-1.2856
G01 X106.3479 Y40.1847 Z-1.2948
G01 X106.3348 Y40.2414 Z-1.3051
G01 X106.3194 Y40.2984 Z-1.3165
G01 X106.3012 Y40.3557 Z-1.3286
G01 X106.2795 Y40.4133 Z-1.3407
G01 X106.2522 Y40.4703 Z-1.3490
G01 X106.2183 Y40.5259 Z-1.3513
G01 X106.1776 Y40.5795 Z-1.3481
G01 X106.1304 Y40.6305 Z-1.3413
G01 X106.0586 Y40.6945 Z-1.3280
G01 X105.9843 Y40.7493 Z-1.3124
G01 X105.9447 Y40.7735 Z-1.3014
G01 X105.9039 Y40.7956 Z-1.2889
G01 X105.8619 Y40.8154 Z-1.2750
G01 X105.8192 Y40.8331 Z-1.2604
G01 X105.7758 Y40.8488 Z-1.2454
G01 X105.7319 Y40.8624 Z-1.2301
G01 X105.6879 Y40.8742 Z-1.2152
G01 X105.6436 Y40.8841 Z-1.2006
G01 X105.5994 Y40.8923 Z-1.1865
G01 X105.5552 Y40.8989 Z-1.1732
G01 X105.5112 Y40.9037 Z-1.1603
G01 X105.4675 Y40.9072 Z-1.1486
G01 X105.4239 Y40.9091 Z-1.1373
G01 X105.3807 Y40.9094 Z-1.1265
G01 X105.3378 Y40.9084 Z-1.1167
G01 X105.2953 Y40.9061 Z-1.1073
G01 X105.2289 Y40.8999 Z-1.0939
G01 X105.1388 Y40.8879 Z-1.0754
G01 X105.0493 Y40.8715 Z-1.0566
G01 X104.9603 Y40.8513 Z-1.0383
G01 X104.8720 Y40.8275 Z-1.0206
G01 X104.7841 Y40.8002 Z-1.0037
G01 X104.6967 Y40.7695 Z-0.9875
G01 X104.6096 Y40.7356 Z-0.9721
G01 X104.5228 Y40.6985 Z-0.9575
G01 X104.4362 Y40.6583 Z-0.9437
G01 X104.3496 Y40.6151 Z-0.9307
G01 X104.2631 Y40.5689 Z-0.9185
G01 X104.1764 Y40.5198 Z-0.9071
G01 X104.0896 Y40.4677 Z-0.8965
G01 X104.0025 Y40.4127 Z-0.8867
G01 X103.9145 Y40.3556 Z-0.8799
G01 X103.8191 Y40.3060 Z-0.9044
G01 X103.7128 Y40.2677 Z-0.9719
G01 X103.5935 Y40.2411 Z-1.0864
G01 X103.4594 Y40.2272 Z-1.2526
G01 X103.3036 Y40.2077 Z-1.4559
G01 X103.2892 Y40.1713 Z-1.4210
G01 X103.2763 Y40.1358 Z-1.3900
G01 X103.2634 Y40.0960 Z-1.3588
G01 X103.2522 Y40.0571 Z-1.3319
G01 X103.2416 Y40.0142 Z-1.3063
G01 X103.2330 Y39.9721 Z-1.2854
G01 X103.2255 Y39.9260 Z-1.2672
G01 X103.2201 Y39.8804 Z-1.2542
G01 X103.2165 Y39.8307 Z-1.2455
G01 X103.2153 Y39.7813 Z-1.2427
G01 Y39.7312
G01 Y39.6309
G01 Y39.5307
G01 Y39.4305
G01 Y39.3302
G01 Y39.2300
G01 Y39.1297
G01 Y39.0295
G01 Y38.9293
G01 Y38.8290
G01 Y38.7288
G01 Y38.6286
G01 Y38.5283
G01 Y38.4281
G01 Y38.3279
G01 Y38.2276
G01 Y38.1274
G01 Y38.0271
G01 Y37.9269
G01 Y37.8267
G01 Y37.7264
G01 Y37.6262
G01 Y37.5260
G01 Y37.4257
G01 Y37.3255
G01 Y37.2252
G01 Y37.1250
G01 Y37.0248
G01 Y36.9477 Z-1.2444
G01 Y36.8885 Z-1.2599
G01 Y36.8222 Z-1.2960
G01 Y36.7401 Z-1.3656
G01 X103.2224 Y36.6575 Z-1.4449
G01 X103.2533 Y36.6409 Z-1.4049
G01 X103.2883 Y36.6233 Z-1.3625
G01 X103.3223 Y36.6076 Z-1.3244
G01 X103.3601 Y36.5915 Z-1.2858
G01 X103.3967 Y36.5775 Z-1.2517
G01 X103.4325 Y36.5651 Z-1.2220
G01 X103.4718 Y36.5532 Z-1.1932
G01 X103.5102 Y36.5432 Z-1.1690
G01 X103.5520 Y36.5341 Z-1.1471
